Lr-2002/DM_Control_Python/ic_arm_control/control/di_data_from_gh/processed_data/dynamics_20251011_131249_ic_arm_control_filtered.csv
time,q1,dq1,ddq1,tau1,q2,dq2,ddq2,tau2,q3,dq3,ddq3,tau3,q4,dq4,ddq4,tau4,q5,dq5,ddq5,tau5,q6,dq6,ddq6,tau6
3.85,0.20733024404997255,0.00646162942042161,4.004035595842133,8.642857058828792,-0.025502339031457818,0.034173066756454956,-1.5259160664033553,0.3218704735339614,0.00556060120546318,-0.004884006548702153,-2.8785171717171233e-07,-0.4425898347807297,0.015449759670405013,-0.0024342875907472695,0.0005838414405986963,-0.4717544049729635,0.08754929564793808,-0.03664211965372162,0.530808905102142,-1.7844369267986324,0.0024795910582131077,0.007388276461953802,-0.5093729671998378,-0.07567881572644458
3.86,0.20846621871550358,0.0465014690152282,3.0185385639975255,8.507409988104472,-0.025352108272618287,0.018911005358431966,-1.23141959588311,0.12195633043552677,0.005560601205463446,-0.004884008509778791,4.322272850324256e-07,-0.5109031493634529,0.015449759670405013,-0.002423175976017987,0.010502622543338802,-0.47075607533171643,0.08735929223506517,-0.03133763140465424,0.06758604974463688,-1.7944231961218615,0.002479591058213106,0.002297327856621866,-0.4570012449126212,-0.07577156365379104
3.87,0.20957705301785373,0.07901414269780385,2.046679627836587,8.393599810360064,-0.025223573618877403,0.005789829544258956,-0.9357727718819224,-0.05193848861031502,0.005560601205463754,-0.004884009822276716,1.1984902260528815e-06,-0.573115089760348,0.015449759670405013,-0.0023793018491112573,0.020369836554184142,-0.4705412275156923,0.08712988257701544,-0.02907539277211528,-0.3570206195315615,-1.7996388063363817,0.002479591058213104,-0.0023851580279628825,-0.3972401094422036,-0.07580565166224515
3.88,0.2106425329452933,0.09914037288257088,1.1185857789012006,8.316532073912688,-0.025131689200408685,-0.003675935411263683,-0.644693364224158,-0.17794979813482453,0.005560601205463978,-0.004884009462917526,1.7694033189994022e-06,-0.6277405190799612,0.015449759670405013,-0.0022546281276945696,0.02942282732825651,-0.4715709388630098,0.08682482369981136,-0.03184059163635402,-0.7012289114369881,-1.7969664540859225,0.0024795910582131038,-0.006302042933280628,-0.32517558065079644,-0.07572920328004148
3.89,0.21164886364995722,0.10583839248248184,0.28601750856281144,8.28196917982098,-0.02508094101497889,-0.008967828912033153,-0.37312289009929767,-0.24276010497252137,0.005560601205463961,-0.004884006638402379,1.835381898054999e-06,-0.6766263066242126,0.015449759670405013,-0.0020086177869264614,0.03606029664213424,-0.47383368336463877,0.08641575102763366,-0.03988419328778823,-0.9211480671592218,-1.7858845601937843,0.0024795910582131046,-0.00922632107585871,-0.2404128598344852,-0.07552934864635957
3.9,0.21258966537760468,0.10159470988986143,-0.3877991046436558,8.286637107330353,-0.025065875448190642,-0.01056722489080339,-0.14203315022258187,-0.24453259958963933,0.005560601205463569,-0.004884001309851579,1.1260889774933756e-06,-0.7226804621920632,0.015449759670405013,-0.001638700726298585,0.03809344161331081,-0.47685897274435557,0.08588928627137252,-0.051604279860179535,-0.9799242129115796,-1.7684619677389617,0.002479591058213107,-0.01108468261098328,-0.1475121081828567,-0.07524235637624305
3.91,0.21346432155833694,0.09084776065234777,-0.8485216408447194,8.321931184643939,-0.02507483717561832,-0.009633274026579286,0.02887537622067259,-0.19254159476678345,0.005560601205462777,-0.004883994649853467,-4.3390801990656736e-07,-0.7662563814798303,0.015449759670405013,-0.0012010376114414785,0.03346670192287473,-0.47990442164578545,0.08525282984655055,-0.06407755735928619,-0.8609189198948867,-1.7484465224047208,0.0024795910582131103,-0.011945083220342777,-0.05500087400207808,-0.07494909598075472
3.92,0.21427438687724762,0.07807043121497617,-1.0707488699927357,8.378757332712182,-0.02509476287200416,-0.007531448680622208,0.12891559994135618,-0.10334326561663405,0.005560601205461742,-0.004883989167764833,-2.575051343890674e-06,-0.8028615913333224,0.015449759670405013,-0.0008010577526124793,0.021183513063026068,-0.4822468548272918,0.08453535951057287,-0.07404913177191216,-0.5782184901755364,-1.7298815546978328,0.0024795910582131138,-0.011975203893273577,0.026595105791749864,-0.07475296978958312
3.93,0.2150207354706828,0.06644903543929112,-1.0683430514194325,8.450745970077037,-0.025115058776930453,-0.0054125707068923565,0.16093667456271127,0.004232822079013612,0.005560601205460835,-0.004883988248955394,-4.617367063976124e-06,-0.8242174994216549,0.015449759670405013,-0.0005582146765113493,0.0020590210723805615,-0.4834712923176081,0.08378202156339438,-0.07898373009789245,-0.17844704252453006,-1.7158485451861865,0.002479591058213115,-0.01138510496565815,0.0871268579460251,-0.0747446127711003
3.94,0.2157039151712939,0.05754613670931479,-0.8911609266301141,8.53446938688623,-0.025129520576084616,-0.003971028598875216,0.14072518027854458,0.11275712304473627,0.0055606012054605775,-0.00488399499490014,-5.568049227142846e-06,-0.8222883879787527,0.015449759670405013,-0.0005668578031526806,-0.021038811595511384,-0.48364602661485784,0.08304439024784503,-0.07777059076211557,0.26821751332527977,-1.7078131584411407,0.002479591058213112,-0.010378532133267582,0.1191110085985676,-0.07496738042679749
3.95,0.21632757178928427,0.05170316619883571,-0.6106951348583638,8.627468375929736,-0.025136270721324475,-0.003408920312676949,0.09177187394853419,0.20802310383586078,0.005560601205461474,-0.00488401052993389,-4.421805356036958e-06,-0.793669083727012,0.015449759670405013,-0.0008701492156051493,-0.043624665978866904,-0.4833099175525782,0.08236993634278342,-0.07086256669899633,0.6849967638323917,-1.7057171657269226,0.002479591058213103,-0.009143729238470398,0.1195738460054072,-0.075401664025976
3.96,0.21690204971537635,0.048647154418545294,-0.3010907781012609,8.726176131472675,-0.025136385400268284,-0.0035554645717383324,0.03775404986290806,0.2800647886482669,0.0055606012054637555,-0.004884032299564894,-6.268083317026448e-07,-0.7415766988858834,0.015449759670405013,-0.001448318983761904,-0.06063285904562739,-0.4832678338118906,0.08179403896091797,-0.059893576505576016,1.0071468234169667,-1.7086024962348765,0.0024795910582130886,-0.007890232916884472,0.09114873178200411,-0.07597683568171099
3.97,0.21744488816192972,0.04789956520365856,-0.022431301601334743,8.82538573795204,-0.025132131786388713,-0.004058240228892478,-0.004261969416982748,0.3241394619534582,0.005560601205467101,-0.004884053194070533,5.419098229696744e-06,-0.674712646806899,0.015449759670405013,-0.0022155870018914494,-0.06776148592931913,-0.48426488921414734,0.08133636213261256,-0.04701157355247267,1.195493887412192,-1.7153602125643845,0.002479591058213073,-0.006887907996374245,0.042112557154017474,-0.07660155936032247
3.98,0.21797745079746303,0.04892554434558191,0.1891255863840289,8.919322894640151,-0.02512559901441398,-0.004568183332906459,-0.02749190761955453,0.3413938737009824,0.005560601205470479,-0.004884062408302658,1.2061352024211478e-05,-0.6045311858347163,0.015449759670405011,-0.003027390452546041,-0.06270691927594481,-0.48666614786651796,0.08100143555849343,-0.034215643959470736,1.2405464477237018,-1.7252358031168706,0.0024795910582130634,-0.006439935429474023,-0.014906521050307384,-0.07719129294078365
3.99,0.21852017668791557,0.051193168146388496,0.3231172450227447,9.00310573584204,-0.025118139743296675,-0.00486682054233161,-0.03497540936948995,0.3383887163038941,0.005560601205472245,-0.004884048621724388,1.6513441123611823e-05,-0.5428674012118043,0.01544975967040501,-0.003707591533452992,-0.04589029038254838,-0.49028095222993623,0.08078180787527654,-0.02291390294894537,1.1569552634676301,-1.7379261311501824,0.002479591058213069,-0.006765587035273075,-0.0655708430404157,-0.07767713141693713
4.0,0.21908979559861377,0.054271641027943254,0.3899876545942542,9.073429617960363,-0.025110612345214774,-0.004915209383404183,-0.035549713760498924,0.3249582609921724,0.005560601205470592,-0.004884005278231672,1.5576846323817923e-05,-0.50041219793412,0.015449759670405006,-0.004097613391184197,-0.02043530805225481,-0.4944188342656758,0.08066186371604839,-0.01379212826627148,0.9719427191383812,-1.7533232794922335,0.0024795910582130964,-0.007855310566912643,-0.09737984888620116,-0.077998903743117
4.01,0.21969945686025888,0.057913062699581255,0.4126793890142264,9.128388459210408,-0.025104062439169007,-0.004828683694892153,-0.0379789947736364,0.3108858799339933,0.005560601205464349,-0.004883936582545968,6.9229766171695385e-06,-0.48516415036518656,0.015449759670405003,-0.004110089631896356,0.008596862279328573,-0.498160194145091,0.08062103724118976,-0.006968370807120361,0.7133328217008206,-1.7710833968811677,0.002479591058213145,-0.009408965314305642,-0.10316566045999538,-0.07810025658142801
4.0200000000000005,0.22035969001697905,0.06200232973160528,0.41755298068717805,9.167174613695595,-0.025100293713103603,-0.004796270696984611,-0.04541687086945192,0.30297720513647536,0.0055606012054539265,-0.004883861673964766,-9.376812114692446e-06,-0.5003380831951686,0.015449759670405003,-0.0037598182304655874,0.035463624680456836,-0.5007232696124805,0.08063583672403174,-0.0023296130380184603,0.4022900488072422,-1.7902253676350386,0.002479591058213203,-0.010925049518017703,-0.08332060569892367,-0.07793873174432646
4.03,0.22107776712916896,0.06641048284043495,0.4267257308989221,9.190175764969172,-0.025101792063056304,-0.004970420190096831,-0.052101785279228055,0.30418132684000987,0.005560601205442035,-0.004883813862650178,-2.966257615298612e-05,-0.5426910193571741,0.015449759670405006,-0.003155455693198435,0.05508570836673214,-0.5017658503394677,0.08068044890696827,0.00010608464185228813,0.05322082854898876,-1.808940299408777,0.002479591058213247,-0.011907174623382994,-0.045770593523705674,-0.07750500859298345
4.04,0.22185561542784937,0.07093755871864944,0.4528924822366651,9.199168116020534,-0.02511068152605722,-0.005355164392373788,-0.043372821890547725,0.3149305111983961,0.005560601205433682,-0.004883832438970334,-4.65663148460393e-05,-0.6028673275230553,0.015449759670405011,-0.0024566981992597096,0.06408556170008738,-0.5014975793448346,0.08072608357034633,-2.515819594037741e-05,-0.3202496938423445,-1.824724507141466,0.002479591058213246,-0.012077309116250174,-0.003444348642289953,-0.07683508474838226
4.05,0.22268886368322094,0.07544815882249362,0.49698854011516036,9.19692314417756,-0.025126757393600683,-0.005721304623691886,0.0009466809745917417,0.3350041477748511,0.00556060120543504,-0.0048839467815709895,-5.055662572569207e-05,-0.6682143238737074,0.015449759670405018,-0.0018179831933626874,0.06128129158360272,-0.5005731839257056,0.08073989495717485,-0.0033809467166079493,-0.6972002391004509,-1.8348380642613402,0.0024795910582131745,-0.011485718879004887,0.030038572715339214,-0.07600793303089758
4.0600000000000005,0.22356912478388705,0.0800628005961151,0.5487779270984657,9.186015571728982,-0.025145061952894197,-0.005575158623439845,0.10070881883462447,0.36386426152607465,0.0055606012054510755,-0.004884156125958707,-3.326471618765118e-05,-0.7267735063593038,0.015449759670405025,-0.0013435574667703494,0.0476273352289535,-0.4998326199421153,0.08068492281618891,-0.010597691311914906,-1.044233234403923,-1.836979686723188,0.0024795910582130257,-0.010471462888535135,0.04496233469456516,-0.07513463252540555
4.07,0.2244886709435509,0.08515973618439086,0.5903074319822417,9.167472583329111,-0.025153795708604536,-0.004200632708760223,0.26869498849732365,0.3990560743251354,0.005560601205482406,-0.004884412445242468,8.062170190152312e-06,-0.7705393075733583,0.015449759670405027,-0.001071852735430066,0.025782720189006243,-0.5000008874386332,0.08052251407294962,-0.021850397923412628,-1.3169426030182363,-1.8299904207534818,0.0024795910582128284,-0.00950584550204869,0.038694121888048084,-0.07434561554085235
4.08,0.22544406237298018,0.09108945295845816,0.6017519576988632,9.140347050786758,-0.025133435520423842,-0.0007817875285627364,0.5047143654415828,0.43431780163912653,0.005560601205522469,-0.0048846166861256516,6.64837607990357e-05,-0.7968427303844631,0.015449759670405022,-0.0009931406779502036,-0.0004502498976843459,-0.5014517738802211,0.08021791646605661,-0.03649476335821857,-1.4688063069747248,-1.8143513824063244,0.0024795910582126523,-0.008999508531025279,0.01625458581433837,-0.07377310465115668
4.09,0.22643551022174296,0.09776536852438715,0.5683547511752419,9.10284589917268,-0.025057679318709284,0.005405695898660955,0.7920630139664055,0.4594918729036587,0.0055606012055565875,-0.004884637966949478,0.000123740596846433,-0.8078523203378962,0.01544975967040501,-0.0010864111983484722,-0.02665501198645283,-0.5041033649892499,0.07974829753878512,-0.05297321154878055,-1.4648398266962774,-1.792244683159677,0.0024795910582125972,-0.00915180721231838,-0.011900698390512375,-0.07352218779891419
4.1,0.22746199207008838,0.10445141289055797,0.48629320455709,9.054516240502672,-0.024896340092876258,0.014772498330860454,1.0973092220285385,0.46288641035155953,0.005560601205564497,-0.0048843596045794425,0.00015304032169353464,-0.8089044767527171,0.015449759670404992,-0.0013479708700265883,-0.04829117408029673,-0.5074697325655232,0.07911078900415269,-0.06906046745268611,-1.294895269750125,-1.7670616164205746,0.0024795910582127616,-0.009885706004297615,-0.03397200519583654,-0.073634490879774
4.11,0.22851591496070423,0.10997805227442752,0.3650608326457034,8.998033885987196,-0.02461976538330237,0.027231121712035348,1.3736874365822198,0.43488916756432605,0.005560601205527086,-0.0048837448596318455,0.0001271391171329661,-0.8065058157864468,0.015449759670404977,-0.0017878684707992782,-0.061255926362682726,-0.5108456295768236,0.07832718511683695,-0.08238519405880194,-0.9810850005670406,-1.7424701454561267,0.0024795910582131923,-0.010880819636379924,-0.04114560025798461,-0.07406315428473431
4.12,0.22958199716633665,0.11331056415027496,0.22487402340064613,8.939198527379645,-0.024203880767753774,0.04212407352497993,1.5677434320168149,0.37098921383732836,0.005560601205436485,-0.0048829014448977925,3.0586425467586145e-05,-0.8064433287904693,0.01544975967040497,-0.002393121128131404,-0.06261038043748486,-0.5135569039121812,0.07744246136107863,-0.09105391586532838,-0.5756764542173425,-1.7213719067398563,0.002479591058213832,-0.011700766675714671,-0.030494394874710656,-0.07467870717946314
4.13,0.2306419119632335,0.11410210487772546,0.0895779534661611,8.884927188272076,-0.023634652147264474,0.0582972137102004,1.6283716782076483,0.2732048382711133,0.005560601205306471,-0.004882112288439321,-0.00012746724546412668,-0.8120074787221722,0.015449759670404978,-0.0030846638380681384,-0.05140963406461963,-0.5151894128399312,0.07651628689728199,-0.09416729454842253,-0.14925164836488491,-1.7051468118500732,0.0024795910582144872,-0.011979025732662607,-0.005431122461197101,-0.07530775614873028
4.14,0.23168175655964965,0.11285394766844628,-0.022299942115535123,8.840475865291122,-0.022910947853223843,0.07427326555702793,1.5170019961218584,0.15006131678746842,0.0055606012051782425,-0.00488179780432966,-0.00030549561823002585,-0.8226313075540126,0.015449759670405006,-0.0037067565500403135,-0.029370681270593592,-0.5157224608605058,0.07560940313305022,-0.09205575902917132,0.22739184075057642,-1.693478995171117,0.0024795910582148446,-0.011579091220115533,0.026255074405108925,-0.07578657288324596
4.15,0.23269743788764788,0.11059685811562486,-0.10447570975838115,8.80759425157631,-0.02204561680953413,0.08843104465147049,1.2173394237742183,0.015472772895996911,0.005560601205116031,-0.004882388510144461,-0.0004328240172019896,-0.8338889032213426,0.015449759670405051,-0.004070483316454448,-0.0009992507484886946,-0.515524543861271,0.07476919023514693,-0.08614285789904308,0.5016620124673218,-1.6848413998037295,0.0024795910582145544,-0.01063839440150666,0.055761230947443355,-0.07600737315209674
4.16,0.2336948956386953,0.10833898099477612,-0.16446472025235562,8.784489362222146,-0.021065495405373707,0.09912705328653594,0.742708089338497,-0.11353136240499336,0.005560601205188814,-0.004884118730517571,-0.00042763232543340635,-0.8394240429226705,0.0154497596704051,-0.004035590289369984,0.027117084488773407,-0.515207924507492,0.07401981509615309,-0.07845423334646354,0.6517384344647461,-1.6774408276910693,0.002479591058213383,-0.009473972521250797,0.07651835743921191,-0.07594525109006874
4.17,0.2346855613594114,0.10661903088859555,-0.2186305290294467,8.767258130644368,-0.020011116029479643,0.10479293240037761,0.1388436936192857,-0.220149931637007,0.005560601205439076,-0.004886797248983085,-0.00022854291520733796,-0.8339737226121158,0.015449759670405128,-0.003584869216971959,0.04785444067972401,-0.5153872609153384,0.07336097056284559,-0.07092034342893133,0.6892054332235112,-1.6701794995662205,0.0024795910582113964,-0.008415057414964539,0.08600288064898515,-0.07566495987782602
4.18,0.23567969211433978,0.10534593267721147,-0.2825504043041221,8.751900644046346,-0.018935926410644267,0.10411913446904189,-0.5197519046072919,-0.29133235669746593,0.005560601205846499,-0.004889654552529517,0.00016814130602958832,-0.8159075994370802,0.015449759670405109,-0.00284669872209397,0.05556887867076307,-0.5164346638638629,0.07277546788005956,-0.06473565285186504,0.6512947749130376,-1.663140244934301,0.0024795910582091,-0.007658768835054929,0.08555050816955444,-0.07531069255273329
4.19,0.2366804405020791,0.10391271297736983,-0.36087200144065773,8.736176288289885,-0.01790357078557612,0.0963990803742934,-1.1407064832408746,-0.32022841068642993,0.005560601206301517,-0.004891386398250673,0.0006797354473580971,-0.7884025701022364,0.015449759670405025,-0.0020524682588143046,0.04793607090520585,-0.5183364501147948,0.07224167226080097,-0.060056727113372184,0.5859801456574947,-1.6573628147553303,0.002479591058207446,-0.007212211395432232,0.0785620744035934,-0.07508026989434469
4.2,0.23768082277756777,0.10149939739657439,-0.44145037174555807,8.720763291934762,-0.016981358513034256,0.08195409988203863,-1.6308204408234457,-0.307027782951267,0.005560601206607515,-0.00489048616333459,0.0011338602877907845,-0.759243831388493,0.01544975967040488,-0.0014517763853515069,0.026928542224817893,-0.5207171244010824,0.07174460102678382,-0.05617849121801198,0.5354867220343288,-1.654125950609849,0.002479591058207622,-0.006930401902370617,0.06818482723093212,-0.07518343093009827
4.21,0.23866493800765182,0.09748273563661876,-0.4970504725966729,8.709185122581344,-0.016229332017551813,0.062401339460568986,-1.9158699602276297,-0.25863054235477007,0.0055606012065271965,-0.004885869766452992,0.0013035979370580048,-0.7392496606274079,0.015449759670404708,-0.0012260549565805687,-0.0015126809670088308,-0.5230200477160756,0.07128097235098173,-0.05206751680043572,0.5238722986667956,-1.6542554938413299,0.002479591058210604,-0.006619097092164457,0.05568540831242378,-0.0757868461947309
4.22,0.23961362466471547,0.09184656406486681,-0.49480882024971634,8.706177251220028,-0.015687152677193193,0.0405123454666678,-1.9580489747575598,-0.1876547926117965,0.005560601205875913,-0.004877654921332942,0.0009828029279802153,-0.7392310505521147,0.015449759670404583,-0.001434824156351497,-0.029116288439782124,-0.5247607101726056,0.07085755977074852,-0.046934442106455726,0.5523213767783233,-1.6578831622274501,0.0024795910582165507,-0.0061528466030107585,0.04027539722897821,-0.07695686523045081
4.23,0.2405129486793581,0.08542644589261938,-0.4102140088148221,8.714918483991607,-0.01536363300536624,0.019592938455942704,-1.76570822597304,-0.11056938255590311,0.005560601204643222,-0.00486780011756866,8.604244993721059e-05,-0.7661319446558471,0.01544975967040459,-0.0020072514155768115,-0.047765286666361054,-0.5257378901759041,0.07048580235920768,-0.04055518498233787,0.602658421562401,-1.6646666088248137,0.002479591058224251,-0.00555753298089254,0.020354935494819343,-0.0786206926419209
4.24,0.24136212362685733,0.07980400480405209,-0.24006392901762053,8.734492177442423,-0.015233953752664424,0.0025897416553378565,-1.391810580803939,-0.04454672607846064,0.0055606012030991496,-0.00486020674808576,-0.0012601392810763386,-0.8198608459319184,0.0154497596704048,-0.0027707564625058427,-0.052043128114789824,-0.5261154543992499,0.07017637534246687,-0.03326267370336613,0.6466821348151498,-1.6741332960187678,0.002479591058230928,-0.005019427985364648,-0.004598692020946089,-0.08056903804791093
4.25,0.242176876123828,0.07677534406503547,-0.008779662363523224,8.759221693171156,-0.015246716407381974,-0.008701401536733154,-0.9208683446469819,-0.003525942823340977,0.005560601201823909,-0.004859922043220503,-0.002678482490159221,-0.8921560454321692,0.015449759670405225,-0.0035007621251779966,-0.04099793028244766,-0.5263499811420818,0.0699357068310947,-0.02572941696725167,0.6573285166343399,-1.685829462295685,0.002479591058232696,-0.004808540938934819,-0.03259561697688202,-0.08251021628058072
4.26,0.2429857611573839,0.07755974501088306,0.23520480157140466,8.780599645942994,-0.015338552875826854,-0.014003021911112046,-0.44787249113565863,0.005076573437577483,0.005560601201602002,-0.004871313151329085,-0.003594136017051242,-0.9678252037322819,0.015449759670405783,-0.003980338232966396,-0.018508708357832724,-0.526999501659126,0.06976441105189556,-0.018708516317223492,0.6177657231522782,-1.6992484541111306,0.0024795910582258345,-0.005141880372814627,-0.059009023387958506,-0.08415950370068367
4.2700000000000005,0.2438203317542594,0.08214967575425165,0.43238103070385453,8.790865944350383,-0.015450674532271075,-0.014396543340093163,-0.05539364950713716,-0.01831023749593483,0.005560601203154172,-0.0048955144519376775,-0.0033951753872696142,-1.0279217163912981,0.015449759670406281,-0.004062588068985929,0.007918895659286114,-0.528486865114415,0.0696569290137121,-0.012830105334978284,0.5259483911932985,-1.7137340845717561,0.0024795910582087154,-0.006051225940860427,-0.07793936068699579,-0.0853254800070229
4.28,0.24470367900568823,0.08920581791536751,0.5300512557711575,8.786169069649004,-0.0155413782164383,-0.011766212204235963,0.20444252535628474,-0.06638101332460318,0.005560601206745211,-0.004927984066745062,-0.0016757697622818007,-1.0541405649075803,0.015449759670406437,-0.0037233882768405785,0.029578706528272523,-0.5309067532456981,0.06960216128988123,-0.008475193194478528,0.39411278430334723,-1.728512027992979,0.0024795910581838216,-0.007332611845820308,-0.08446687416691706,-0.08595577771010501
4.29,0.24564292840920973,0.09658427903339652,0.4987306360068367,8.767644806186857,-0.015591062456177626,-0.008109439431633192,0.31821095854298775,-0.1274997082031328,0.0055606012117888105,-0.004957438378326743,0.001508022340940245,-1.0335135540433238,0.015449759670405976,-0.003083166789191828,0.03943383238103517,-0.5339583345489272,0.0695852858088273,-0.005727460459957042,0.24435696072669436,-1.7428305678071898,0.0024795910581589093,-0.00861759823020832,-0.07671189712678227,-0.08612816462057625
4.3,0.2466284938323147,0.10216868078405753,0.3412005057289288,8.74032906298844,-0.01559988852965449,-0.00497287970248281,0.30815964251517336,-0.18853439993532162,0.005560601216642503,-0.004967494545331581,0.0054718439056778536,-0.9622976819477628,0.015449759670404765,-0.0023775444601874854,0.03446702596941753,-0.5370482495592859,0.06959058069839312,-0.004406061091353558,0.10231009190714485,-1.756115243892081,0.0024795910581462445,-0.009534536072993281,-0.056687685412692555,-0.08600047135028768
4.3100000000000005,0.2476385521866174,0.10452942096423037,0.09121199433478334,8.711199313170058,-0.01558078918902541,-0.0031663505740999556,0.22001719924163604,-0.2369060891069446,0.00556060121880407,-0.004941797121230816,0.008927489601779914,-0.8479467070008824,0.015449759670402963,-0.0018757584198203622,0.01669120135003658,-0.5395370168610986,0.06960442113039626,-0.004163812508274806,-0.009128539824149212,-1.7680899320078682,0.0024795910581591777,-0.009871162446595527,-0.029512877903657853,-0.08574697087506823
4.32,0.2486451700530458,0.1031597868126664,-0.197281705594143,8.687672623245954,-0.015551238778007181,-0.002768995710739036,0.10634166319479368,-0.26178624421924623,0.005560601215645662,-0.004872156210189966,0.010254998184219277,-0.7082274053186832,0.015449759670401115,-0.0017758259815706654,-0.007556267798170474,-0.5410212427146753,0.06961744301074688,-0.004602098388483558,-0.07462955823165286,-1.778865552296576,0.002479591058206194,-0.009649574116706538,-0.0013555238465246967,-0.08550639943346851
4.33,0.24961980539864922,0.09837792862824986,-0.4661930402805523,8.676781907345443,-0.015526448631822719,-0.0033421186359075625,0.010891734740471417,-0.25531528570971646,0.00556060120563592,-0.004767500087619535,0.007994715694965168,-0.5671682402772221,0.015449759670400109,-0.0021249636864166394,-0.029810248062379852,-0.5415115134109656,0.06962526659823237,-0.005348495629507539,-0.08929493901270658,-1.7889763871472548,0.002479591058283907,-0.009080890678018821,0.022900569939109636,-0.08535520533229722
4.34,0.2505379957910141,0.0911045161730324,-0.6689736683522124,8.684360968669624,-0.015515302765526377,-0.004227510819414416,-0.04156250530167211,-0.21449523475612253,0.0055606011897311024,-0.004659828335080251,0.0014316368838261388,-0.44889725211248077,0.015449759670400926,-0.0028028635421140148,-0.04239911142062784,-0.5414188029457978,0.06962776626815154,-0.00608173142661773,-0.05955993317620118,-1.7993004876021803,0.0024795910583718358,-0.008438163898555649,0.04115473485723215,-0.08530712120624531
4.3500000000000005,0.2513834999950819,0.08260500378853793,-0.7808126687012915,8.713864693191853,-0.015519130170583892,-0.004825911706381798,-0.04786959626300237,-0.14311221004793753,0.005560601172347713,-0.004602713024460562,-0.008931646308526435,-0.3716802426735067,0.015449759670404226,-0.0035704708785188346,-0.04105272439906026,-0.5413658255182403,0.06962731483215177,-0.006536947645260277,-0.002353025013853702,-1.8108141795247756,0.0024795910584325762,-0.007922733938318745,0.05407302023988152,-0.08533163028920429
4.36,0.25215121484185715,0.07417162741643943,-0.8005903310426545,8.76536641542347,-0.015532695573471087,-0.004789288613728897,-0.02205959983770115,-0.05198517562184968,0.0055606011611943965,-0.004659125350454942,-0.021227597586535685,-0.3441871325259742,0.015449759670409829,-0.004158067475171152,-0.026270546021703544,-0.5419197375140304,0.06962660607752809,-0.006536191691094343,0.05735091151212466,-1.824218773843509,0.0024795910584204128,-0.007586618282688153,0.06364176305749737,-0.08538061085212834
4.37,0.25284759232197995,0.06677785113140142,-0.7448863858987688,8.835526757450921,-0.015546597688452918,-0.004099191656034275,0.013607279844492073,0.04364460488381983,0.005560601165383842,-0.004878929554496263,-0.03253752590110472,-0.36437691083047064,0.015449759670416317,-0.00436014900534077,-0.0029820449650540546,-0.5433619974422917,0.06962660939962906,-0.006057599806981046,0.09055121260283462,-1.8395792106730275,0.0024795910582990233,-0.007335375634410035,0.07109818791390689,-0.08541332860658417
4.38,0.2534881083407914,0.060864463102320465,-0.6370823803118335,8.918597010237018,-0.015550373125923028,-0.003030670174389293,0.03859227354170317,0.12880457202779527,0.005560601191756828,-0.0052718151444510015,-0.03964533333225832,-0.42030617195858877,0.015449759670421004,-0.004108203510291649,0.02133458529763428,-0.5455844271870882,0.06962503054170512,-0.005315461582286165,0.06965231218860049,-1.8561445041069111,0.0024795910580648326,-0.006999915890254925,0.07537332859693392,-0.08541303366218862
4.39,0.2540930110496638,0.056408964620361386,-0.49611968218018976,9.00773435392488,-0.015535730811533255,-0.0020195740544518372,0.04177540918445367,0.193266035544509,0.005560601240192274,-0.005786938268175989,-0.04002663906065677,-0.4926490647488717,0.015449759670420532,-0.0034949823201524343,0.03934377179391826,-0.5481497788870191,0.06961542494170643,-0.004805249835807774,-0.025304758592272505,-1.872439027906285,0.002479591057767781,-0.006442660459732355,0.07295879812977314,-0.08539197163024871
4.4,0.2546834030441347,0.05323714867626524,-0.3293285826575494,9.095944359343378,-0.01549930018796662,-0.001470332985417933,0.02485878749832017,0.23390046624882596,0.005560601299626032,-0.006312963972930202,-0.032736118239261106,-0.5594667569926313,0.015449759670412138,-0.0027352135992262908,0.04634222612547347,-0.5504908633111706,0.06958689244610632,-0.005277963256894633,-0.20082971147463094,-1.886570019157744,0.0024795910575177754,-0.005653293476378188,0.05943155041115206,-0.08538471769498858
4.41,0.25527884531286565,0.05134042013001635,-0.1320507346976491,9.176586847535892,-0.015444088202739991,-0.0015655762634294308,0.0010888190467282365,0.25442541231941235,0.005560601347151811,-0.006707540155554096,-0.01884556471724903,-0.6030785538504417,0.015449759670395356,-0.0020757931348095973,0.041645800359751996,-0.5521625164222249,0.06952414797173555,-0.007631183617734085,-0.4462523862978378,-1.896602161092386,0.002479591057465331,-0.004791369403976462,0.032045478574800945,-0.08543227439138498
4.42,0.25589640220795445,0.050987448385508394,0.10583617802541627,9.24371436064853,-0.015378764233343849,-0.0021527543273222997,-0.009581777964777933,0.2628920710904252,0.0055606013524362695,-0.006850891802331954,-0.0012241688890151765,-0.6169803667448573,0.015449759670373585,-0.0016972228598925135,0.02842370682979671,-0.553037054100503,0.06940784030867708,-0.012724558638631676,-0.7336634012918198,-1.90087880139536,0.0024795910577509643,-0.004149052156576306,-0.00779782251684851,-0.08556160037835327
4.43,0.256550891956338,0.0526331301951831,0.38902620088590434,9.292289732748698,-0.015314325759285395,-0.002759895715051144,0.013125080453834091,0.26762538490913196,0.00556060128835696,-0.006699194470872966,0.01630045747266601,-0.6093895091117129,0.015449759670354663,-0.0016528508454756808,0.01213733283176751,-0.5533628156372863,0.06921534125177727,-0.021143784687042654,-1.0223359901968805,-1.898272643198135,0.0024795910584301415,-0.004039043008945825,-0.0534705990313077,-0.08576721470409443
4.44,0.25725647008860486,0.056775193320116185,0.7058868884336748,9.318105047066926,-0.015258822392700011,-0.0027315536413294937,0.083984947865284,0.27312454382916707,0.005560601146232468,-0.006305831298528835,0.0301079371343557,-0.6006079349825257,0.015449759670349573,-0.001868536032572236,-0.0017388182212927851,-0.5536670117068158,0.06892259219133641,-0.03296003134467163,-1.2670702307302104,-1.888398456859651,0.0024795910593965764,-0.004652258086995812,-0.09420871243244403,-0.08600265604005229
4.45,0.2580290832275361,0.06385237496926027,1.0223453797706075,9.317449638852079,-0.015212125312140825,-0.001416569002352095,0.20846074778203696,0.27823911379506905,0.005560600950804525,-0.005795743887636433,0.03784105193463549,-0.614155759263529,0.01544975967036885,-0.0021924663095950394,-0.009801919927622757,-0.5545435128843986,0.0685074802212224,-0.04756376565549819,-1.4283864795146912,-1.8717518716300463,0.0024795910603407256,-0.005952286196064626,-0.11825560872931067,-0.08618854582221772
4.46,0.25888794697028394,0.07413354827974278,1.284156233656626,9.28701062444197,-0.015163157542199563,0.0016755548213866923,0.38139530355690876,0.27808894671424456,0.005560600767444655,-0.00530879057589436,0.03895585176133348,-0.6652581131381954,0.015449759670417132,-0.0024659694073179876,-0.011826428990487817,-0.5564045967544496,0.06795442565663358,-0.06367047975653524,-1.481478020792921,-1.8496453458750552,0.002479591060784361,-0.007657214873457907,-0.1170264542691749,-0.08623912415449218
4.47,0.259853564004781,0.08748591209933858,1.4285079387100044,9.224621561231407,-0.015090945208196933,0.00679970784655429,0.5878136883482178,0.26841446060864665,0.005560600693520671,-0.004945143233551745,0.03458319103136833,-0.7524074380198841,0.015449759670487461,-0.0025868785553966804,-0.010524908180263741,-0.5592910031444642,0.06725881165103084,-0.07956336183354902,-1.4208923013971457,-1.8238556390227603,0.0024795910602183357,-0.00931607614675284,-0.08870243670659003,-0.08609969334103401
4.48,0.26094103417372905,0.10301437327915261,1.402462111792656,9.131037515816335,-0.01496892642606785,0.013981125616079863,0.8050074503921426,0.2488681131938606,0.0055606008289836575,-0.0047380444873638084,0.026810604966146973,-0.8565495279416672,0.015449759670557976,-0.0025470512494642442,-0.010132491330960485,-0.5628241948367971,0.06642931870531789,-0.09353952260708738,-1.2592503049434316,-1.7960934035289355,0.0024795910583355588,-0.010451167237966399,-0.03973217589072919,-0.08577695259732084
4.49,0.2621503577016534,0.11878930821845483,1.1825193105060723,9.012024150124597,-0.014770475321447344,0.023063767820342685,1.0051649291233413,0.22279102657255323,0.00556060122860964,-0.0046596456287394915,0.017731127849742966,-0.9484061911754244,0.015449759670594032,-0.0024345551805078284,-0.014423558505302785,-0.5663387842221234,0.06548674850512934,-0.10439896377603346,-1.0205624679116696,-1.7675804083647966,0.0024795910552996136,-0.010721054766448315,0.016580276291794375,-0.08534229439056332
4.5,0.26345850020921674,0.13201361217545898,0.7880040991022488,8.879289099606284,-0.01447348640042379,0.03374811759452394,1.158242710807633,0.1942906509902414,0.0055606018487839425,-0.004650163071113676,0.008683816813166415,-1.000066638400136,0.01544975967055786,-0.0023983209457012784,-0.0249560872516242,-0.5691526486959193,0.06445956675982821,-0.11173991348927287,-0.7309598315954365,-1.7389993974681535,0.0024795910519373352,-0.010050281914583755,0.06412993145657171,-0.08490240789742796
4.51,0.26481873863663796,0.13979441745261417,0.2820295060621998,8.748967521041598,-0.01406302136447346,0.045575921315188755,1.2351986054894093,0.16542547697847304,0.005560602511886293,-0.004654351416439829,-8.183062064615662e-07,-0.9950639972394247,0.015449759670425361,-0.0025846256357721703,-0.04021758575404195,-0.5708538119617355,0.06337833716770315,-0.1158804641093242,-0.4108617110355015,-1.710851162976213,0.002479591049716303,-0.008672752300436458,0.08937363055172481,-0.08455424905627952
4.5200000000000005,0.26616986124194836,0.1402496281419326,-0.24231217911857056,8.63769110029622,-0.013532421323228532,0.05786094637668564,1.2118199038601258,0.1353505215804616,0.0055606029160443745,-0.004650206287446126,-0.008683125170939639,-0.9328817516685176,0.015449759670205922,-0.0030700579297175535,-0.05597906552954521,-0.5714651245779416,0.062272058284960324,-0.11742477768574777,-0.07203513035322426,-1.6839569976441877,0.0024795910503934973,-0.007062818520597509,0.0860610083962581,-0.08435183384434425
4.53,0.26745252540242415,0.13336579816009203,-0.6873311412703709,8.557838498697425,-0.012883857213301894,0.06962818661627991,1.0730808033661372,0.10120446198082093,0.005560602711782334,-0.004659714123373086,-0.01772472630705666,-0.827610973927653,0.015449759669957224,-0.0038219587710793083,-0.06670102606269852,-0.5714131763163365,0.061168203534462624,-0.11672341417811817,0.27924882957001823,-1.6597143669304262,0.0024795910553174053,-0.005773988263064087,0.05751693643388424,-0.08429964777300548
4.54,0.2686259108916932,0.12111739139706221,-0.9794671520188968,8.514189812300227,-0.012128904098782993,0.07965766016127297,0.8174049561367926,0.059705512255935664,0.005560601646618371,-0.004738106352919175,-0.026798505204807786,-0.703061195029925,0.01544975966978484,-0.0047045345219294404,-0.06745588040381284,-0.571333981670789,0.060095567842065746,-0.1135662202268894,0.6347424456247353,-1.639893468411204,0.002479591064526359,-0.005240240507103487,0.015507251610979786,-0.08436544615501185
4.55,0.269677403515451,0.1067667645040121,-1.0909585298487017,8.503500789846456,-0.011289065931104405,0.08667826600638748,0.4597121616887767,0.008902251317444572,0.0055605997457907844,-0.00494516093989086,-0.034569698995910746,-0.5864775213867308,0.015449759669818023,-0.005524478645426754,-0.055670179372728175,-0.5718233554004692,0.05908680891031571,-0.107305061580063,0.9765228635153645,-1.6261103574620501,0.002479591075969188,-0.0056077791916591775,-0.024003480299462896,-0.08449628707511897
4.5600000000000005,0.27062130049052346,0.09366578871288901,-1.046019769553425,8.517080562007768,-0.010395738032044848,0.08964713614275249,0.031995639950967575,-0.0501961760169902,0.005560597461017431,-0.005308733661136459,-0.038948710014971834,-0.5018434489438953,0.015449759670159735,-0.006092351747847498,-0.03209071291352382,-0.5732419055493837,0.05817760052725668,-0.09733153513965363,1.2736112172034266,-1.619305023335974,0.0024795910853032655,-0.006664574967242781,-0.0466778845790237,-0.08463101232619563
4.57,0.27148741336517285,0.08406475222113034,-0.9087296093769016,8.545172112392464,-0.009488898865573267,0.08798451250541871,-0.41946116244126264,-0.11282349733709487,0.005560595695422792,-0.005795604254572306,-0.037848724604188214,-0.4637393013193279,0.01544975967082066,-0.006275907692448412,-0.0006826762040275453,-0.5756266047880754,0.057401521425552174,-0.08363157026690678,1.4857210692757168,-1.619449947633764,0.0024795910867045994,-0.007914485661453235,-0.04503214934645532,-0.08471427190364202
4.58,0.27230482266766326,0.07840228603007925,-0.7569503537471529,8.581300034264782,-0.008613943995533026,0.08167909141548976,-0.8403489239105132,-0.1714158700381657,0.005560595620471976,-0.00630563675017619,-0.030135564351320376,-0.4735591843807296,0.015449759671660363,-0.006032861488287857,0.03245244247122774,-0.5786989206047235,0.05678244319031169,-0.06712243612020243,1.5737532967425651,-1.6255051445867237,0.002479591074878176,-0.008784298537572661,-0.021070377870406234,-0.08471576080372217
4.59,0.2730881623464234,0.07535337669471544,-0.6522345230891182,8.624828672342328,-0.007816626631905079,0.0712772777389276,-1.1772552693531695,-0.21845165061857458,0.0055605982544043656,-0.006699013723563297,-0.016345704073997266,-0.5197690083825692,0.015449759672368793,-0.005418835631938252,0.06073856166886601,-0.5819428922858301,0.05632759957973822,-0.04960938287122976,1.5134356776212974,-1.6355678980512558,0.0024795910479744735,-0.008875044975464045,0.01467359883792206,-0.08464663345140719
4.6000000000000005,0.27383254067697116,0.07260319663080744,-0.6173836444984279,8.680634631066686,-0.007136785038324792,0.05781530521758752,-1.3875764665784855,-0.2499880255047241,0.005560603871489628,-0.006850823738629892,0.0011736079359140942,-0.5823099029812607,0.015449759672520625,-0.004568114717699317,0.07882060537904308,-0.5847468547456618,0.05602434634384111,-0.033372361309998946,1.3067313923545527,-1.6472340006120831,0.0024795910105008135,-0.0081337028958539,0.047284249520387914,-0.08455911325570618
4.61,0.2745190165324246,0.06800934692120594,-0.6302907641049376,8.755907593153578,-0.00660202897502711,0.04271847088019331,-1.448226610934945,-0.26802360460006613,0.005560611435039725,-0.006707683113755047,0.018810974324306527,-0.6394321554929467,0.015449759671717963,-0.003650642098317702,0.0838006349672561,-0.5866041909611511,0.055842282115685156,-0.02053483718078721,0.9861283621351081,-1.6581874115945248,0.002479590974789777,-0.006863814452738845,0.0631601832193048,-0.08452389445307695
4.62,0.2751276434066427,0.06065535333871559,-0.6361255882696586,8.855376870946587,-0.006222813849508447,0.027639502790430752,-1.3609227685577223,-0.28029794241357203,0.005560618347387879,-0.006313368041985618,0.032742146184905015,-0.6744647298984296,0.015449759669802355,-0.002821285267485103,0.0757256669065212,-0.5873245787343473,0.05574036785151842,-0.012444193485401236,0.6094801767865999,-1.6668769005340893,0.0024795909594635037,-0.005580978718694447,0.05505034865723415,-0.08459601273702994
4.63,0.27565190932237743,0.05135684928172113,-0.5725349433222201,8.977108675200071,-0.00599045336639166,0.014203763221803542,-1.152378600569798,-0.2973653741026525,0.005560620824026972,-0.005787553692396449,0.04009142857086521,-0.6804847861412314,0.015449759667071856,-0.002183886060141608,0.057300921512674775,-0.5871605139977188,0.05567661140918408,-0.009289469824295396,0.24661445237202118,-1.6729810102343126,0.002479590983907013,-0.004790713953241719,0.024549818210882368,-0.08478883994985018
4.64,0.27610816139276007,0.04242226910307901,-0.39741695030243085,9.110874684015027,-0.005879294321253928,0.003686669026974161,-0.8688507728658457,-0.32791155406831296,0.005560615069806575,-0.005272459657975849,0.03976887153817113,-0.6618663572276308,0.015449759664399121,-0.0017830902325648456,0.03302208970469311,-0.5867643196011343,0.05561681837526746,-0.01009607142280437,-0.03802218624191134,-1.6774102337038406,0.0024795910591577067,-0.004791331811311489,-0.01877114217190415,-0.08506936055769855
4.65,0.27653589191613215,0.0367645767949398,-0.10810200139804822,9.240027612294053,-0.005853066219922043,-0.0032732193545336376,-0.5659458361906264,-0.37393849084178105,0.005560599143076508,-0.004879301612597367,0.03269266757041711,-0.6324905258634957,0.015449759663134853,-0.0016187161518102721,0.008031603507919623,-0.5869641307210633,0.05553961828232416,-0.013094742881012643,-0.2010742655251823,-1.681836534205734,0.0024795911776207187,-0.005583246311958304,-0.06110819495094196,-0.08537255093860639
4.66,0.27698831777132377,0.036700417678356516,0.25533176361803017,9.346376409875232,-0.005873654902469916,-0.00679658395149922,-0.2960169736562914,-0.427828378010116,0.005560574988397422,-0.0046588834414206855,0.021359158043195277,-0.6109095424704326,0.015449759664719629,-0.001665379068792445,-0.01300139480241436,-0.58843609229354,0.05543703320000905,-0.016319329323668783,-0.22956665367607343,-1.6879770657471034,0.0024795913059970577,-0.006908129298606928,-0.08948616249758526,-0.08562318104296976
4.67,0.2775165315562798,0.04292513201725964,0.6231262841111961,9.416232111311755,-0.005909391813618872,-0.007656360035268831,-0.09637948077891538,-0.4732795430929426,0.005560549733900895,-0.004601620491205396,0.008967882562316974,-0.6135182148943775,0.015449759670026115,-0.0018819022318517962,-0.02675859061724902,-0.5914053573000736,0.0553118423847802,-0.018206143440534738,-0.14153185214401615,-1.6969491318805827,0.002479591386774496,-0.008374511997244255,-0.09620406314719646,-0.08575561253848397
4.68,0.27815366490166454,0.05415102490693992,0.9191772226018807,9.445038699819923,-0.005940238312165228,-0.006984213497613361,0.018430225101626257,-0.4908904028563466,0.005560535187111949,-0.0046579305308518,-0.0015544086199037988,-0.6478694697486661,0.015449759678599372,-0.0022081944623381627,-0.031787404715842786,-0.595507876812232,0.05517381166254355,-0.01797853675325556,0.021171648835039258,-1.708958275219431,0.002479591352516542,-0.009595605051440687,-0.0810844895308164,-0.08572946136790366
4.69,0.278906200808887,0.06763358342309664,1.0848627549661878,9.43833466784878,-0.005958674697053633,-0.005906335837432344,0.05813606744501687,-0.4665921053014916,0.005560544732025706,-0.004765265453164352,-0.008299251154325027,-0.7088295399990056,0.015449759688110475,-0.002562101971724821,-0.02861069920293099,-0.5998875512879146,0.05503642681954902,-0.015699505761469352,0.20462962885658256,-1.7234128065057714,0.0024795911533360415,-0.010290581870084518,-0.050869782966153874,-0.08554305250960981
4.7,0.2797564201147332,0.08034185063308683,1.094362123114593,9.408444448627042,-0.005966731507384606,-0.005229591649528253,0.05148934784472107,-0.39883311796824494,0.005560587648208277,-0.004870490863519229,-0.010692987874734135,-0.7796101110779937,0.015449759694416537,-0.0028518821413381335,-0.0194415150797046,-0.6035070155828166,0.05491457600845012,-0.01202945877053672,0.35522147453543346,-1.7393253152040846,0.002479590791666665,-0.010347593371788246,-0.01620460052951763,-0.08524518834447486
4.71,0.2806740820334624,0.09014663121500509,0.9569959178702723,9.368656280267793,-0.005970717895608609,-0.005258362663440731,0.03584904284899436,-0.3005495256716565,0.005560662155210036,-0.004941852350173186,-0.009367122030597905,-0.8379381560215126,0.015449759692549506,-0.0030053797849739334,-0.007560931682540669,-0.6055533091282198,0.05482239696836483,-0.007862155224375243,0.42939737314241266,-1.7557063148500858,0.0024795903514321827,-0.009858272711123517,0.012488314056818274,-0.08494125728638778
4.72,0.28163033761975137,0.09639044043420746,0.7080591433673622,9.328235507728028,-0.005975609688116732,-0.005772100010742175,0.044682901764102737,-0.19473396080940727,0.0055607498702210535,-0.0049702418286631245,-0.005717086178410747,-0.865189623922597,0.015449759678685577,-0.002998145146678949,0.003523979483884992,-0.6057705351786217,0.05477018518887404,-0.004042659287924495,0.39956119056280254,-1.7717100588220862,0.002479590003986657,-0.009103390564252774,0.02859602529223227,-0.08478596696301405
4.73,0.2826060494569878,0.09959578802463975,0.3940928113979655,9.291072649616,-0.005980875722357722,-0.006154005920572886,0.09676699247462756,-0.10585776330438003,0.005560815230564065,-0.0049630863864089485,-0.001355864851597317,-0.8543047683657481,0.015449759652693778,-0.0028607216453768436,0.01096318163322599,-0.6045802279453039,0.05476020900444769,-0.0012759985377432262,0.2565054851672734,-1.786511210541084,0.0024795899744152524,-0.00845670881618988,0.031027647768980295,-0.08495556191205883
4.74,0.28359096169302006,0.1006173275648037,0.05964727715944586,9.258152733517898,-0.005978943604053903,-0.005633802502097384,0.190391209741434,-0.0513292634647561,0.005560813047297663,-0.004935433183110306,0.002348072921825389,-0.8124878880826463,0.015449759620343952,-0.002661583042815642,0.01327327336763194,-0.6029404030645102,0.0547826571512283,-0.0001889339481699106,0.00970785536751234,-1.7990955042044456,0.0024795904617953037,-0.00822067486188835,0.023537627911672073,-0.08559918254375454
4.75,0.2845766430369356,0.09987714689289595,-0.25971810219598657,9.231289666549214,-0.00595669098570482,-0.003584719009505109,0.30438225850407,-0.036688201189630974,0.005560705186858885,-0.004902139364062758,0.004538000537831965,-0.757592362600731,0.015449759593888293,-0.002477907894499968,0.010680310101697147,-0.6019975960881777,0.05481361084803159,-0.0014125616348824666,-0.3134965077716768,-1.8082039208594494,0.002479591525991584,-0.008474683261077764,0.012172345203723279,-0.08678089581364892
4.76,0.2855499127857015,0.09718298551906557,-0.5375307280196805,9.214995167356536,-0.00589941229476714,0.00020749602314075436,0.4056638634819445,-0.055848273046257765,0.005560483457960724,-0.004873371000326731,0.004927317420973229,-0.710620981223857,0.015449759589785799,-0.002368785977929281,0.004988435222956755,-0.6026605931175641,0.0548165781976232,-0.005558553320417746,-0.669884320860906,-1.8125582170788068,0.0024795929773505517,-0.009032116458237534,0.0021486932696064987,-0.08843569253496952
4.7700000000000005,0.28649173193971816,0.09212756326971655,-0.7524806230879153,9.215345539816486,-0.005795831314841667,0.005399085059998298,0.46101618897609586,-0.09507653438877241,0.005560191026739329,-0.004853747936928914,0.0037082957756861606,-0.6882284090154158,0.015449759623032725,-0.0023588440025852694,-0.0010033058478601759,-0.6052524847458235,0.05474809803738758,-0.013045159994476759,-1.0044337953729152,-1.8112941885657168,0.002479594325336955,-0.009544889089829211,-0.004324373346466075,-0.09036562730195684
4.78,0.2873815037719501,0.08465381401383987,-0.884732707305383,9.237247745403995,-0.005642237102434012,0.011144188581237167,0.44932002487494466,-0.1382816003833381,0.005559930953254538,-0.004844064183026883,0.0013977482164947914,-0.6980135569496411,0.015449759698923132,-0.002433605694328626,-0.0043808992149047665,-0.6093764163578579,0.05456653809730684,-0.02383578290825973,-1.2576535981196282,-1.804379392499568,0.0024795948456375824,-0.009705750909444172,-0.008281224425060041,-0.09228858769580052
4.79,0.288203332678112,0.07538048951034414,-0.9156480820857479,9.282266501260581,-0.005444065968866383,0.016362587396322237,0.3703334661019789,-0.17173053406224667,0.0055598501700355836,-0.004843853961680098,-0.0013115365041765667,-0.7374138079742202,0.015449759804808422,-0.002544776646675359,-0.0030443661926577046,-0.6140580579504114,0.05424184630611011,-0.03722502654012554,-1.3763149824598513,-1.7928014479523333,0.0024795938014241883,-0.009434142029768817,-0.012296644318735197,-0.09392484185931321
4.8,0.28895121833865667,0.06558059516869431,-0.8315469797570765,9.347958124220025,-0.005214250044062082,0.02012959279757637,0.24704960198992143,-0.18728553388450317,0.005560092550239977,-0.004853164809272716,-0.0036680592349825395,-0.795669932190915,0.01544975990591633,-0.002623265299076251,0.0035846323514328016,-0.618115395550903,0.05376336139089947,-0.05180188628447059,-1.3260342582929374,-1.7784480965097045,0.002479590799211882,-0.008929067560996892,-0.0178647537920776,-0.09508325724282791
4.8100000000000005,0.2896321227520679,0.0569239064312812,-0.6296732936226809,9.428237030184377,-0.0049689486920365565,0.022026931946522894,0.12061397831444502,-0.18384756334542318,0.0055607262650837945,-0.004872561764408883,-0.004963674933828384,-0.8577486771665623,0.01544975994964607,-0.0025980901441799344,0.014291337465223925,-0.6206041599740234,0.05314339477875622,-0.06564062220774454,-1.1024687009488041,-1.763725144935363,0.0024795861820627323,-0.008547148546380246,-0.023387591507714658,-0.0957089105123278
4.82,0.29026654300960814,0.051100896093981614,-0.3233104270952332,9.514084926430847,-0.00472225523367854,0.02230715234585337,0.039025796282693384,-0.16705750582559764,0.005561666329189033,-0.004901352863547416,-0.004653618088497937,-0.9089106264532805,0.015449759881142753,-0.0024186688247490877,0.026326439228777247,-0.6211590164839081,0.05241576113236312,-0.07667738070417977,-0.7371264903281313,-1.7509996869874118,0.002479581288032853,-0.00857745328541654,-0.024021632772401276,-0.09587686960811201
4.83,0.2908859588984522,0.049403876326416254,0.05658475782441234,9.594523979578295,-0.004481669252265008,0.021816928513536622,0.04271385373321528,-0.14753828943762048,0.005562627750036832,-0.004934997480573177,-0.0025110919398362848,-0.9387378675493394,0.015449759669022532,-0.0020757718415419877,0.036134665236086265,-0.6201083453162071,0.05162971923441735,-0.08318456501512345,-0.2945358748564493,-1.741970066017751,0.0024795783682785145,-0.009050823090373104,-0.013684834571189632,-0.0957444587729191
4.84,0.29152722347330673,0.052383525981640706,0.4642881914034186,9.658084385550731,-0.004245459353208096,0.02173536069998233,0.15104175931772576,-0.13797785254168957,0.005563150193661665,-0.004963335586420576,0.0012088036271579435,-0.9437234315430044,0.01544975933446247,-0.0016137155423992951,0.04035109064947787,-0.6183363186590239,0.050840462315308144,-0.08424515008094931,0.14022278998975898,-1.7371213300629027,0.002479580007635535,-0.009692732806150297,0.01161340882187545,-0.0954886474891455
4.8500000000000005,0.2922256561789898,0.05973101993401249,0.8460072558067233,9.694690124331457,-0.004002015276881965,0.02324712974073521,0.3536487439697715,-0.14942875935656774,0.005562723603732257,-0.00497138541774917,0.005665595762069408,-0.9276289470878052,0.015449758971272067,-0.001125834821317455,0.03677735616791476,-0.6169524696116394,0.050097871521972905,-0.08010283350981859,0.4814762535712034,-1.7354899307397333,0.002479588044441076,-0.010043184859294415,0.05071245520623806,-0.09525322913778864
4.86,0.2930094113884582,0.07044138149952602,1.148453379357442,9.697462965840007,-0.003730754378935488,0.027256304877593708,0.609379010866524,-0.18763738396133212,0.005561011553854006,-0.004943812991353784,0.00947994917249943,-0.8991835376415366,0.015449758741820327,-0.0007300041467607223,0.025052557769060485,-0.6168905773200327,0.049436037084197464,-0.07222980600054718,0.6653236092344661,-1.7349193861830097,0.002479602231274377,-0.00968380497078758,0.0960898771821437,-0.09511944103572655
4.87,0.2938966711063295,0.0831582502944275,1.3272255891895661,9.663842279643719,-0.0034045157869965043,0.034175491677098296,0.8537036581712558,-0.25067946684734327,0.005558119030762175,-0.0048727743907701826,0.010994285640890313,-0.8679849197255702,0.015449758836811375,-0.0005310118078772492,0.00682691921031007,-0.6185851500896133,0.04886642476857584,-0.06299784323113612,0.6677545708966528,-1.7327892969202408,0.0024796191462498228,-0.0084577418823063,0.13530107146568618,-0.09510184921025003
4.88,0.29489525356714974,0.0965113302957359,1.353604902133555,9.595742201344128,-0.0029940872297430096,0.04376584279501857,1.0133888597664158,-0.3290541480903103,0.005554798312678683,-0.00476695184112282,0.008739019936443868,-0.8406884480381911,0.015449759397748522,-0.0005858919354096502,-0.014600623234847501,-0.6218442675222776,0.048376739243466374,-0.05499801207536782,0.5124643235188414,-1.7269566629448618,0.0024796320368269246,-0.006563380088265503,0.15470705659679687,-0.09516340157835891
4.89,0.2960027996513917,0.1092788948617288,1.21920459963672,9.49903479142127,-0.0024754412674927225,0.05502169475781838,1.0251416470365515,-0.40853912234564743,0.00555245485404877,-0.004657867114583598,0.0019975284838758735,-0.8191444601624052,0.015449760418641151,-0.000888568109410315,-0.03506196816991529,-0.625954613974867,0.04793581414724126,-0.05023769998100164,0.2651151523386585,-1.7165359655709365,0.0024796322143757874,-0.004472671961129064,0.14412821570727447,-0.09524059727952668
4.9,0.2972059282440369,0.12034174328464926,0.9383437095460302,9.382914522967928,-0.0018388106625425536,0.06617698322972569,0.8535405066228201,-0.47489082796149035,0.005552832255083186,-0.004598844526113252,-0.008720649131816936,-0.8005913745698182,0.015449761663346957,-0.0013794212220246808,-0.05049015057869279,-0.6299629022129055,0.04750331311245061,-0.049517882837446736,0.015003758436053647,-1.702229986472261,0.0024796122123449155,-0.002737387051349892,0.10066090418102239,-0.09527039346192703
4.91,0.2984787981405823,0.1285819043855107,0.547824196756864,9.259268664322478,-0.0010966429427811542,0.07495749413258285,0.5032100558326739,-0.5184492552675546,0.00555734078653216,-0.0046532011947397174,-0.021512503479259912,-0.7791668746510206,0.015449762648360059,-0.0019708460583119564,-0.05782740417731457,-0.6330222599240936,0.047042064501458106,-0.05221298739303337,-0.150715232726699,-1.6861427841037617,0.0024795701752935114,-0.0018052374290043456,0.030223898030104085,-0.09521259844826746
4.92,0.29978363877824055,0.13294011831158967,0.10335117516721594,9.141561615851801,-0.0002864741016968787,0.07911857095461891,0.021264017742792733,-0.5365970548472502,0.005566144059967232,-0.0048718294142299,-0.033368774703166265,-0.7482538667839974,0.015449762737514137,-0.0025721576303758434,-0.05566591168777223,-0.6346815336999372,0.046530089289065775,-0.05650573362745151,-0.17243615454682545,-1.671216390125317,0.0024795140302543294,-0.0019209230801928248,-0.05373180933607159,-0.09506338137477957
4.93,0.3010755668410184,0.13268284926123888,-0.32820747237671993,9.042853366732544,0.0005338609812402757,0.07712487980455275,-0.5115164482019646,-0.5331942541857718,0.0055772954067607496,-0.0052658366857137005,-0.04091547033262785,-0.7034746478136708,0.015449761366888061,-0.0031021303014013776,-0.04450476846915437,-0.6350215552785453,0.045968854336037694,-0.05997495516305234,-0.03521405641574233,-1.6604952667943398,0.002479463258413314,-0.0031020285114432148,-0.13389720637173907,-0.09485670120388788
4.94,0.30231128324704565,0.12772076495486068,-0.6806814235760016,8.973367814653374,0.001298025434171885,0.06869700939069022,-0.9990469671786925,-0.5158390142649352,0.005586345969392595,-0.005785529168370587,-0.04142465790385006,-0.6457144401491236,0.015449758364649924,-0.003490511093769541,-0.02659813603788896,-0.6345972105932149,0.04538471825044815,-0.06035355624518525,0.22777602992904694,-1.656359579361665,0.002479446001224226,-0.005151289875263934,-0.19392155925293023,-0.09465180663330183
4.95,0.30345861518612716,0.11879462782568193,-0.9028697408232399,8.938490351002535,0.0019462545323575273,0.054982231751807185,-1.3530755360621216,-0.49277589885582673,0.005586837845457887,-0.006319601657778255,-0.033765205339693544,-0.5826481783420974,0.015449754263319591,-0.0036795718471967893,-0.005443408758958628,-0.6342112898467811,0.04482236190829302,-0.05624936157258235,0.546373393107321,-1.6598564374783913,0.0024794902192025276,-0.007696961573978405,-0.22281135674768462,-0.09450825323531417
4.96,0.30450338962011986,0.10745465265118999,-0.9717123026515081,8.937706736586719,0.002438759607559967,0.038273013674867996,-1.5145934381858317,-0.4709400861934097,0.005571872789630334,-0.0067238925632909455,-0.01893440402756535,-0.5270695927008633,0.015449750446160414,-0.0036347637598432908,0.014984402853194223,-0.6346044043979945,0.04433178140536461,-0.047615217937911826,0.8353474326797179,-1.6703578908266323,0.002479609808645653,-0.010275213599927027,-0.21756155237954547,-0.0944563834410964
4.97,0.3054513909510282,0.09580868304852769,-0.899925611536015,8.964479700013397,0.002763349757927195,0.02138014348093,-1.4673618817395186,-0.4554945670122266,0.005536504761752467,-0.0068748137157851495,7.031759154907388e-05,-0.49200815394274733,0.015449748959278916,-0.003361735322796939,0.03109639159227497,-0.636179335620927,0.04395313730872993,-0.03578199006952256,1.019852145571934,-1.6857867364865013,0.0024797895917459917,-0.012449800761723256,-0.18329621230553186,-0.09447843786583011
4.98,0.3063247389588897,0.0860042354489355,-0.7344482280959189,9.007126922397273,0.0029353091605438058,0.006880729409206437,-1.239784901247836,-0.4501289484938205,0.005480161746651531,-0.0067234902518973705,0.019046541618520537,-0.485292453999226,0.015449751887999642,-0.0029166693570180317,0.04045750382540577,-0.6388714156392842,0.0437050538959039,-0.022995167242575148,1.0562730972243153,-1.7033881893269476,0.0024799759232062477,-0.013931278993207221,-0.13102236018446237,-0.0945154998537666
4.99,0.3071533267948993,0.07950633678554296,-0.5446593796623389,9.051072326489878,0.002990194235148379,-0.003513662605624479,-0.8950028461299699,-0.4571256070743112,0.005407936165983287,-0.006318849096231203,0.03379895315272062,-0.5070925338924557,0.01544976035194084,-0.0023984853483206476,0.04225863192171114,-0.6422156994506557,0.0435807227396743,-0.011622446794766508,0.9422315978719266,-1.7206549984566368,0.0024800808017942113,-0.014646704404702234,-0.073858850105275,-0.09450231746461134
5.0,0.307963256686192,0.07644454750661597,-0.4030054061465158,9.082510993425773,0.002972477794218364,-0.009274599001029173,-0.5126886227002367,-0.47698148170690957,0.005329776017790281,-0.005784561510842776,0.04135120030868734,-0.5516066623700991,0.015449773392718373,-0.001922681394878058,0.037347567500432596,-0.6455667931674883,0.043552652664559044,-0.003380429422155884,0.7134735200367404,-1.7359239693953847,0.0024800052968926164,-0.01473007194942296,-0.023047444057290492,-0.09441252368718579
5.01,0.3087657005941293,0.07541919107072091,-0.3638961667148916,9.09245914149297,0.0029240296876963862,-0.01098251941629541,-0.16833829207109546,-0.5082167637076486,0.005257549974252145,-0.00526490788777803,0.04073947138720741,-0.6106694369264705,0.015449787240116421,-0.0015863138508002785,0.02779515544693917,-0.6483549130770891,0.04358313737880173,0.0010957225687778247,0.4298620720607788,-1.7484557889222312,0.002479681950265922,-0.014438793314496219,0.014957184411442349,-0.09428653682621814
5.0200000000000005,0.309550563475867,0.07400268317211892,-0.4479490785401405,9.079334340819202,0.002875873366500452,-0.009934624364867525,0.08387832913425021,-0.5477521328962012,0.005201206382309313,-0.004871310727732441,0.03313582091245334,-0.6761841025888897,0.01544979553804468,-0.001437043644508135,0.016132951996141884,-0.6502589343100621,0.04363568310755829,0.0022255655701856,0.15605087289819997,-1.758171028546587,0.0024791262581016133,-0.014031910036172796,0.03947394666025307,-0.09422158231280413
5.03,0.31028828976293066,0.0697868020303752,-0.6370409190523542,9.048638573852292,0.002844888939912594,-0.007624131084333775,0.22034922709405302,-0.591385844144378,0.0051658382261800554,-0.004653504312787944,0.02130644461463614,-0.7404585872195214,0.015449790976019392,-0.0014594262250069866,0.004533637788705636,-0.6512386105463271,0.0436833421878266,0.0011108868002722776,-0.05649053085879075,-1.7653301199280869,0.0024784771081500126,-0.013660969191488967,0.05453275238458363,-0.0943229283844683
5.04,0.3109397205240436,0.06145502716279459,-0.8816579770595789,9.009907093056643,0.002835120105192604,-0.005295065426963453,0.24789349122296528,-0.6338395989774777,0.005150874022822923,-0.004600257783714658,0.008646021800513975,-0.795857838686372,0.015449768337961188,-0.001587876977679669,-0.00575429188011099,-0.6514461924540135,0.04371209171528316,-0.0009626813807303591,-0.1807579463506583,-1.7703247945349403,0.0024779997885562544,-0.0133211358108617,0.06635015984833886,-0.09463677008217451
5.05,0.3114698985604321,0.049293476685359806,-1.1173979011599295,8.972656470085948,0.002841970820225811,-0.003698312368721838,0.19583064738155306,-0.6686196831595443,0.005151367938747739,-0.004660338360391234,-0.0018491703484009344,-0.8352865119756799,0.015449728288475578,-0.0017437312165526255,-0.01449827513779185,-0.651086109014247,0.043719637481327504,-0.002947079146906419,-0.21644295224729926,-1.7735890124528326,0.0024780282859091216,-0.01288351582803151,0.08037544448050102,-0.09509646727338276
5.0600000000000005,0.3118597848288642,0.03488955868503019,-1.2842614146810885,8.943430798527912,0.0028571884135334975,-0.0030664753726508806,0.1038504646435265,-0.6884736763318894,0.005160421356591698,-0.004769902094152744,-0.008333203372914861,-0.8536076191763728,0.015449680458753143,-0.0018784002389125572,-0.02208275071987431,-0.6502950549037696,0.04371140958675587,-0.004257648372207545,-0.18408844956257817,-1.775564073596038,0.002478839954734857,-0.012186244546683486,0.09897305770127288,-0.09550758318308168
5.07,0.3121112318516737,0.020276394115088945,-1.3419841344506709,8.925040739442242,0.002872951438461362,-0.0032452146551319337,0.009853827012412879,-0.687017818174603,0.0051715753297885475,-0.004875060509472521,-0.010394351731826566,-0.8492022917549823,0.015449643904827667,-0.001998667838759704,-0.028831419449058426,-0.649085741560895,0.04369584346852118,-0.004781777509402515,-0.11458426847298685,-1.7766614002072445,0.0024804849130430967,-0.011130084718649824,0.1204607867292887,-0.09557831677811449
5.08,0.3122442896023115,0.007083328035493546,-1.277077291801068,8.917616167394783,0.0028842028824529542,-0.003888246945014836,-0.058909954357749816,-0.6613299562045806,0.005180379463358155,-0.0049439504030417206,-0.008864714690960243,-0.8250520172052247,0.015449643187268087,-0.0021591504167373676,-0.03440867479702092,-0.647356726938838,0.043680569798168256,-0.0047275184363159434,-0.03824626387354021,-1.7772070167058334,0.002482627798583511,-0.009730052456800004,0.13967384458791435,-0.09498386704447485
5.09,0.31228954365595146,-0.003856356198670613,-1.101086855722813,8.92024148095743,0.002889189189181671,-0.004634696918846387,-0.08978580568182955,-0.6142618613306049,0.005184885563676747,-0.004968074831981391,-0.005304637545853372,-0.7890307061675943,0.015449699462962013,-0.0024243726884212334,-0.037639425470961475,-0.6449376654737048,0.04367030687438256,-0.004411851469852114,0.02305908553907412,-1.7773887445877226,0.002484486994932073,-0.00811112135919362,0.1497067203280282,-0.09344342304428248
5.1000000000000005,0.31227956741228813,-0.012370898987993184,-0.8429135035109611,8.932066369665087,0.0028887224756413443,-0.005221833017099768,-0.08392590532226504,-0.5547532288080594,0.0051852564996040145,-0.004956210286578461,-0.0013857608771130252,-0.7528492860046708,0.015449818084121679,-0.0028195668656312216,-0.0368958796621432,-0.6416292408742598,0.04366645655141526,-0.004085816585038743,0.05908281864125127,-1.777239815230594,0.0024849582260066216,-0.006470023826046071,0.14417742312748477,-0.09078563656053666
5.11,0.3122425622802525,-0.01855019887723323,-0.5394407455497386,8.9524476227035,0.002884892369561759,-0.0055238689488003355,-0.05226400687689363,-0.49531808892268364,0.005182903394363231,-0.004925348856454636,0.0016178323684177193,-0.7289811123607476,0.015449976788727456,-0.0032977792100369165,-0.030917555623188892,-0.6372145969713919,0.043667889621874546,-0.0038539413999451764,0.0699611002487047,-1.7766741808552555,0.0024829701170582326,-0.005030373295648696,0.11932368360695629,-0.08698159245853523
5.12,0.312199313837497,-0.022417799251023,-0.22794729659521282,8.980326272450807,0.002879868279494851,-0.005534863126793458,-0.010224076576882186,-0.44756687153688285,0.005179572785127949,-0.004892461432164119,0.003099661610247588,-0.7259687250667056,0.015450120645540593,-0.0037448347386143496,-0.01969110457416414,-0.6314490389918859,0.04367223292442343,-0.0036913398151004403,0.062284705863804204,-1.7755591148867813,0.002478035166195121,-0.004000783942587396,0.07541966720557326,-0.08213331003228712
5.13,0.3121629931723796,-0.02386152321864508,0.05830161927111088,9.013416145962927,0.0028751770076054757,-0.005325219617248755,0.02714471654719554,-0.4177406191955998,0.005176674893086879,-0.004869239529392098,0.0031236408257632516,-0.7442261547136019,0.015450170164684049,-0.004023938268036533,-0.004942580118587169,-0.6240510234997548,0.043677070561486606,-0.0035193004990195335,0.04462106999255745,-1.7737975566030562,0.002470847244758925,-0.0035338174133650864,0.017271966740992597,-0.07641671729733039
5.14,0.3121405182447023,-0.022793848663246324,0.29194189396898795,9.047814541878584,0.0028715466250141823,-0.00499824098710918,0.048643679318500874,-0.4041901193272852,0.005174967293571907,-0.004860275753031382,0.002218627175852211,-0.774888301106982,0.015450046216203413,-0.004039881036883261,0.010065837523932357,-0.6147116850635701,0.04368071588393619,-0.0032851728256396307,0.024198643345610223,-1.7713980694867113,0.0024636772283048907,-0.0036918366500034855,-0.04620293184800821,-0.06998776935690051
5.15,0.3121342280756218,-0.01938163118638743,0.45252072751417527,9.078402039560839,0.0028691747786743545,-0.004661181264943597,0.04882580335928074,-0.3979369075021851,0.005174558492696901,-0.004863948819122302,0.001073123081901228,-0.8027752721917781,0.01544970922673906,-0.003790784673428623,0.021446342220529564,-0.6031263362136584,0.04368247142312933,-0.0030053427825138456,0.005511217926339143,-1.768513185266013,0.0024602909308499236,-0.004435500500059603,-0.1031638221193553,-0.06287201466029142
5.16,0.3121433188875389,-0.014188596462932215,0.5279260023815164,9.10003643893474,0.002868160196772751,-0.00441114614820616,0.028649550791391663,-0.38632339479594957,0.005175111040033504,-0.004874782087554477,0.0002450392773292276,-0.8124949884702402,0.015449201613342137,-0.0033775816023679022,0.0259971292711915,-0.589037788002825,0.04368248414659279,-0.0027583717272166553,-0.00937797087882903,-1.765419994429425,0.0024652167727326996,-0.005637592038084678,-0.14056619513465735,-0.05487238773887647
5.17,0.3121651560354192,-0.008158162908321531,0.5163435458504383,9.109197318942664,0.0028688400977610975,-0.004325812371593307,-0.004667391670820049,-0.3584299478349861,0.005176107183431003,-0.004886131853715926,-2.5547817873295698e-05,-0.7952479532353084,0.015448674398478341,-0.0029609520497362813,0.022417174606929966,-0.5722678571961223,0.04368139010287151,-0.0026418161219611998,-0.01967252691092192,-1.7624262009901448,0.002482451541879467,-0.007099351167082311,-0.14615198714339234,-0.04553751945482274
5.18,0.312196536494753,-0.0024450517372415865,0.42768344546455167,9.105463790720895,0.0028718846650175474,-0.0044457377042743905,-0.03834372452823058,-0.3098023375087653,0.005177072146317798,-0.004892459671720637,0.00014261460925809276,-0.7532324776825775,0.01544837566676256,-0.0026877651032422953,0.011945534233441132,-0.5527139746790899,0.04367993681587669,-0.002719044508772486,-0.02476484910006854,-1.759730258464076,0.0025140703399818324,-0.008542545358994512,-0.11037368612238346,-0.03422114656233138
5.19,0.3122344840136727,0.001850076741932846,0.28300397881476597,9.092125781385237,0.002878176758221609,-0.0047395995115891,-0.05533388837407131,-0.24399342101640137,0.00517770295186966,-0.004890867782178477,0.0003731179383847479,-0.6993034688012896,0.015448584334198273,-0.0026308068936313025,-0.0018394548933311227,-0.5303146832134785,0.043678709451693803,-0.0029807961959386437,-0.023859733219563285,-1.757310357236849,0.00255956272638476,-0.009577790284336076,-0.02782900797305779,-0.020233798384974713
5.2,0.3122761102246503,0.003963638470484542,0.11105883217568432,9.07548895700878,0.0028887023976311207,-0.0050539750192298135,-0.03646667577046886,-0.17015497051517348,0.005177899897185948,-0.004881841842120025,0.0002314506004519321,-0.6520427789519596,0.01544949002015437,-0.0027736695609498247,-0.014019418868951292,-0.5050199392497288,0.04367800806620011,-0.0033372509212660963,-0.016387075235396557,-1.7549088975351956,0.0026168042170842563,-0.00968149832410725,0.10225060075888052,-0.00305780389949745
5.21,0.31231775184420235,0.0036772036527166164,-0.05760641274453914,9.063003346936647,0.0029048329792278945,-0.005061386682859698,0.0364315056069923,-0.0986666036757563,0.00517772885080257,-0.004869207295611601,-0.0005471082964529337,-0.6289058167592707,0.015451046795614095,-0.003036633191416967,-0.01982218901132191,-0.4768037761490334,0.04367785871692352,-0.0036452753381613686,-0.0028295370546247765,-1.7521183411220154,0.002685098925217797,-0.008221118720177284,0.27676265200532535,0.017421166746306876
5.22,0.31235431663171875,0.0013678182356362417,-0.19726376882776211,9.06093782028297,0.002929411266509837,-0.004230200529923841,0.17664170110290414,-0.038166057245530904,0.005177352136199341,-0.004859249927907934,-0.0018813085662054204,-0.6404298852005564,0.0154528575718478,-0.0033141386397931303,-0.01614117948362642,-0.44572007902464805,0.04367810579974499,-0.003762332831008243,0.01461670568952324,-1.748516954270556,0.0027696331997321575,-0.004544126220063138,0.4906324534516276,0.040723225117450156
5.23,0.312379766021654,-0.002138465172425862,-0.2919552597738496,9.07257677148345,0.0029688486819452503,-0.0018447235366699742,0.3885729254044737,0.004468204882954885,0.005176958840019734,-0.004858931144369615,-0.0032908743002400265,-0.6870255563238029,0.015454163850824286,-0.0035004162399280975,-0.0026413455692604385,-0.41195549752514704,0.0436785270065083,-0.0036044419631277766,0.03203424113881272,-1.7437907231687575,0.0028854969446919483,0.0018945929862928825,0.7391105797065906,0.06569109851972621
5.24,0.312388835473969,-0.00587336643055116,-0.33690698572752525,9.097662455964077,0.003035892872307337,0.00290038271218591,0.6647404465843949,0.022990296760346505,0.005176710865796567,-0.004873284501676521,-0.004009030013630384,-0.7587158809419129,0.015454007407695876,-0.00350341354260322,0.01787087493155376,-0.3758168061997027,0.04367892682430499,-0.003179859285601602,0.044598484887128,-1.7378023612185536,0.0030590994924744996,0.011420951932612914,1.0191686580785466,0.09057837092659506
5.25,0.31237909361969124,-0.009072063004966506,-0.3359737329458905,9.133188870173491,0.0031519294000700213,0.01072907400481561,0.9847713962521457,0.012368289502716451,0.0051767076119966695,-0.004902458989767866,-0.0032550105471257844,-0.8378629966425438,0.015451585439377831,-0.0032611859135508823,0.03994845023848447,-0.3376206956200604,0.04367918743552671,-0.0025834279395400388,0.04800129204040425,-1.7305969134453518,0.0033257928031901847,0.024091451769578092,1.3285780392408202,0.11333317073512256
5.26,0.31235211032204435,-0.011393382820413404,-0.29646973475947297,9.175015338324043,0.003347203874381156,0.022076902406522443,1.3171257508766314,-0.0284528301612497,0.0051769653148752365,-0.004939378917160652,-0.0006013988339715828,-0.9043364753186928,0.015446740246294218,-0.002767506890052384,0.0568042517547872,-0.2975127098333415,0.04367927695544686,-0.001961721800797684,0.03998671491521068,-1.7223515587449536,0.0037243458697165535,0.039715062217869246,1.6619151552947564,0.13202070836904659
5.2700000000000005,0.3123131198946452,-0.012901573139903652,-0.22400973265783422,9.219439367757902,0.003657904780236698,0.03692910335254251,1.623525327590397,-0.09386866506824798,0.005177408045090265,-0.004969378016818187,0.0036839199643977118,-0.9415829182965769,0.015440428862421614,-0.0020949569457809347,0.06215022794571754,-0.25529070982268404,0.04367922823842808,-0.001472122604170816,0.02141404479562166,-1.7132936022084404,0.004290655038034192,0.05793702699504324,2.0042017799009306,0.14523737984723367
5.28,0.31226962141560627,-0.01383029642312205,-0.12006631862464658,9.263997003006311,0.00412055182164692,0.05477874417109498,1.8653085060584988,-0.1713890728851006,0.0051778732721412995,-0.0049731172201394214,0.008469392206115395,-0.9416864602275958,0.015434947366747958,-0.0013941230722365847,0.05217401507515608,-0.21031744973846273,0.04367910568673806,-0.001248857946468809,-0.0036058364302086502,-1.703624634734167,0.0050537290888845714,0.07838002005861154,2.3247286938457847,0.15232896019968067
5.29,0.31223001340121836,-0.014277330162645563,0.016291792360694664,9.307243289570607,0.0047654991354605155,0.07471414207167548,2.010343517593813,-0.244251624654383,0.005178140524565678,-0.004933346448995633,0.011892053221289112,-0.9080120614161323,0.015433690802263502,-0.0008577155229716898,0.02719556754036888,-0.16157265555975922,0.043678974643957424,-0.0013730592631728377,-0.028656328133592975,-1.6934843082480955,0.006035674074514437,0.10080256738848997,2.5749638410485294,0.15329755150945285
5.3,0.312203110486064,-0.014013221728939325,0.18308285494730392,9.347814611727056,0.005611622917655572,0.09557219494905925,2.0389280788251476,-0.29566272723175047,0.005177991424433506,-0.004844578159691586,0.011836328331178585,-0.854613366032949,0.015440357216388515,-0.0006583638823822939,-0.0074012850958616525,-0.10783898935268622,0.04367888157855288,-0.001843105280716142,-0.046829324811811096,-1.6829615684274173,0.007254259525070177,0.1251215029566018,2.6943018889057346,0.14847428732077522
5.3100000000000005,0.31219849768527547,-0.012512182075033433,0.36908595591881144,9.383407826468192,0.00666351106377344,0.11608635180221277,1.9473252913595753,-0.3133717473284967,0.005177299857413079,-0.004722830017744426,0.006675395901640012,-0.8021169458021986,0.015457762646148995,-0.0008797325826173534,-0.041210791605213265,-0.04796871110078276,0.04367884673667245,-0.0025554204666229092,-0.0528697699563249,-1.6721305462649578,0.008723767627540542,0.1511055111626154,2.6251364847383893,0.1382405410100342
5.32,0.31222691264990476,-0.009186728761500939,0.5500078237608331,9.410326732116784,0.00791144279019197,0.13501761238500684,1.74815300266009,-0.2936159969702147,0.005176133026373422,-0.0046110036417489585,-0.0039497783504334905,-0.7709937793467628,0.01548676768456882,-0.0014586084395802582,-0.0598488313027406,0.018839561426960968,0.043678866468741036,-0.0033161619839406024,-0.044944802592354866,-1.6610701311406981,0.010450008709125973,0.17776752662339368,2.3346280054102686,0.1231118347856473
5.33,0.3122997260219764,-0.003712996727043597,0.6900282559869207,9.4239845576424,0.009333681105508787,0.15130396669233245,1.4676003982119994,-0.24319445839428863,0.005174823532157737,-0.0045752076571363,-0.01863257481010309,-0.7747951766075042,0.01552608557990363,-0.0021502061773334053,-0.04680801735471107,0.09280718175592888,0.04367892074237972,-0.003895010623713837,-0.02539624503348726,-1.6498351752068694,0.012419362131372179,0.2028567422352713,1.8360857717667187,0.10426033731778714
5.34,0.3124270176490137,0.0036868488064680134,0.7495887675034885,9.420308392085708,0.01090022312537718,0.16423087270475534,1.1402090919123111,-0.17828517919245146,0.0051739596462230366,-0.004689333085816275,-0.03429074166760336,-0.8164062461446541,0.0155737208848863,-0.0025236296267544807,0.01421597444202511,0.17340792893813947,0.043678981958770846,-0.004107002155374376,-0.00013875419078471213,-1.6383859280455721,0.014587378967190515,0.22302683114821528,1.200377346435303,0.08416607247299894
5.3500000000000005,0.3126143655726383,0.012109999932101642,0.6976231265761251,9.397547727998635,0.012577097304373827,0.1735529617767064,0.8025385315493221,-0.11971632952656107,0.005174247059687595,-0.0050097452071694295,-0.04699993572652618,-0.8887139177613685,0.01563023410555458,-0.0019875221438031858,0.13691086985880083,0.2592863779078798,0.04367902293625693,-0.0038871892370959896,0.02317446244477976,-1.6265251526159568,0.016876239737043025,0.2349886960071673,0.5492453199672972,0.06681775295082504
5.36,0.31285916820040977,0.020055715157882195,0.5241957993353196,9.357753906177368,0.014330457389269517,0.17948798999385196,0.48726642155512684,-0.08630846874347689,0.005176228248521303,-0.005548146069925833,-0.05345488552353364,-0.9785969930376419,0.01570295437634816,0.00015940078810832643,0.33017165770297996,0.34831161370397734,0.04367902358029523,-0.0033222240515771986,0.03764013378321334,-1.6139003393363796,0.019188345009253538,0.2372820131894351,0.028299898740246722,0.05698053067154691
5.37,0.31314812523901264,0.025754728503564823,0.24868693941394687,9.30724361613648,0.016129910476088798,0.1825832424246465,0.21905423725441556,-0.08911340222623522,0.005179903059022799,-0.0062559263181196974,-0.052630032409670596,-1.0717990456515025,0.015809291537343135,0.004659429960493835,0.5963675421342014,0.4378193524255949,0.04367897647178637,-0.0026216668823781674,0.03939657576355971,-1.600087883769586,0.021434552588190787,0.2316348114936746,-0.23411601517272088,0.0585718694017736
5.38,0.31345786706778644,0.027698335338110246,-0.08029061702547204,9.255635049772327,0.017950605317024283,0.18353342347616097,0.01287509188034931,-0.12881155585488338,0.005184359872012122,-0.007033465404075447,-0.046983278289870686,-1.1565758911681905,0.015977402708021,0.01221595748008523,0.9301448930145609,0.5250177847838737,0.04367889115647507,-0.0020382622436299395,0.028902120472120343,-1.5847185338682055,0.02356548212410422,0.2228733308616485,-0.16872209533100777,0.07284378372535351
5.39,0.3137596919129019,0.025204804438558864,-0.39439397387511216,9.213525633206084,0.019773809022588764,0.18303044111590033,-0.12533897759419924,-0.1965572874329784,0.005187570376804165,-0.007768792358821004,-0.042529198755994466,-1.225221573309071,0.016243870292573098,0.023413012365043277,1.3178124303238217,0.607420018015349,0.04367879573856938,-0.0017689255699350492,0.01073155158551786,-1.5675799768408716,0.025591126893683654,0.21720686449366428,0.2080464633136265,0.09734587641420929
5.4,0.31402703423734235,0.018776612088758513,-0.6222806930031579,9.189502213459466,0.021586250759538426,0.18167563004194398,-0.1966082864172889,-0.27688631421487586,0.005186485760412856,-0.008393771477117456,-0.047373983924784646,-1.273795831987556,0.016649656889178376,0.03864470359964887,1.737400702818502,0.6831395588862572,0.04367873336923212,-0.0018780012346042623,-0.008043045786763762,-1.5486590415657888,0.027579974343285997,0.21977770465216587,0.7939646018019083,0.12629727790551062
5.41,0.31424245576289883,0.010048288986726718,-0.7086275289847541,9.187606518823987,0.02337911875304854,0.17994856250086677,-0.2065891383706839,-0.3513332411121698,0.005177471202239204,-0.008934219536477528,-0.06882304530445589,-1.3010898588503617,0.017236086957990893,0.05805828908103743,2.159600672504786,0.7509876573463993,0.043678751388298,-0.0022761426871424264,-0.020306054722540327,-1.5281258563639681,0.029638456326684912,0.23274308996656606,1.4293065757059047,0.15229880030855308
5.42,0.31440142396345133,0.0013165539976597736,-0.6294459367424139,9.20620688382398,0.025147738802358127,0.1782215457978308,-0.16403695805430532,-0.4025317869423335,0.005156936208473862,-0.009532001960348679,-0.10979613708538517,-1.307842228961278,0.018041837589316722,0.08150885913608015,2.5498885373887568,0.8104327267867443,0.04367888291077061,-0.002763368432211369,-0.021314102096756667,-1.5062773489708745,0.03187886933819639,0.25469250289647866,1.9444175506916015,0.1687219108282287
5.43,0.31451244691936153,-0.005142223502954646,-0.3987992366388764,9.238523878100576,0.026892484274543788,0.17681082831368194,-0.08038958415224273,-0.41881969287818016,0.005121828925182602,-0.01042371919508533,-0.16578254794719782,-1.296658995939555,0.019100947571672182,0.10853036796187632,2.872129488998758,0.8614981263235552,0.043679124474701785,-0.003114670819198682,-0.010241120865715473,-1.4834524303293963,0.034387220708960366,0.2814541135304904,2.2101454175499535,0.17185870449107024
5.44,0.31459488603187896,-0.007685421070528749,-0.0648707704714886,9.274407951909279,0.02862056239265041,0.17603902950338224,0.03002078045713751,-0.39806225312358373,0.005069616383899085,-0.011863217685712333,-0.22370298488492582,-1.2724923100413772,0.020441577834710532,0.1383422391577561,3.093727749913331,0.9046158867434453,0.043679417882382415,-0.0031674128721755996,0.00963814028994905,-1.459931929224298,0.0372020052684353,0.3078005373197442,2.1739868155430178,0.16202580081085738
5.45,0.3146755489911952,-0.005656900232901924,0.30315368676038495,9.302764094847738,0.030347419896779835,0.1762571502243234,0.15021369720215785,-0.3483513666872778,0.004997674482844995,-0.013989125051268703,-0.26367190262150475,-1.2430831564704294,0.02208545481849465,0.1699122334243806,3.191918910366722,0.9404335304015339,0.04367964750652804,-0.002872484526289928,0.032121284707942656,-1.4358513431888287,0.040310621221416015,0.3293304949740177,1.8707372400842133,0.14322043756439604
5.46,0.31478409882021813,0.0005628733012287054,0.6330400027671542,9.314074686854589,0.032096214698831414,0.17778287164825507,0.26236284351209144,-0.2844925897370724,0.004902682684146581,-0.016679135476181425,-0.2638089333058687,-1.2184888466784884,0.024047783284336134,0.20207470376573702,3.160145288363583,0.9696046872333932,0.04367966359500625,-0.002293739995124149,0.050148732152138026,-1.4111666316362677,0.04366303550278871,0.34384055820359233,1.4061767028251553,0.12149079970999922
5.47,0.3149472602361514,0.009752821950785903,0.8666864066937208,9.302462513352083,0.03389437015710277,0.18077282457814906,0.3515615961521904,-0.2220157848488838,0.004781158821250216,-0.019473553246984653,-0.20716671798627956,-1.2090822365510379,0.026336820146529532,0.2336765366324519,3.012792355690413,0.992624853446151,0.043679335550098515,-0.0015683427971221826,0.0580552811054405,-1.3856975651703374,0.04719534233746729,0.3517592876366029,0.9216150194956997,0.10269434572828642
5.48,0.3151829745043543,0.020212759283717192,0.9716314642061487,9.26668600095419,0.03576728811709328,0.18511185928661675,0.4107789724075664,-0.17196213276300132,0.004631891010351376,-0.021642777198886003,-0.08889661859279963,-1.2224308066599756,0.02895198115335053,0.2637176364835262,2.786172386771562,1.0097840910357603,0.04367862666195496,-0.0008564831163530566,0.05328887376609699,-1.3592285208550976,0.0508519903376846,0.3555762051782479,0.5523228039343403,0.09057525885879966
5.49,0.31549674676762696,0.030216052900029697,0.9442903567550562,9.209635698357422,0.03773033876581308,0.19041076367382526,0.4450762156065912,-0.13859231269967992,0.004459648598246244,-0.022405063763805574,0.07866944994916397,-1.2604390005931092,0.03187987499201879,0.2914713723792935,2.5338430042189386,1.0212939939914583,0.04367766612145476,-0.0003034155228887316,0.03710557769497056,-1.3316076491383257,0.054596512570470775,0.35855737129978554,0.39252491416959456,0.08595683364392707
5.5,0.3158821294457586,0.0384572151280564,0.8052854630893942,9.136452324119679,0.039781182748151615,0.19614659301974677,0.47263901671323805,-0.11992474226188495,0.004278233970001363,-0.021214209546783908,0.26507440467407795,-1.3181650561452782,0.03508913380262964,0.3165864791082963,2.315396540146142,1.027578957512362,0.04367678128127156,-1.672493313457626e-05,0.014092695849377637,-1.3027868569122085,0.058407196247730525,0.3633484637671024,0.4748943162587927,0.08729807390958032
5.51,0.3163251987491847,0.0443392028019299,0.5897470458832375,9.05214622598018,0.04189544683145873,0.20190019442358118,0.520748575376274,-0.10969008520826287,0.004110764152904037,-0.01799119950718672,0.4260360510979881,-1.3850039912009595,0.03852705777647472,0.3391616553158855,2.1797755429497863,1.0296065167629616,0.043676451090761695,-4.6761596655076097e-05,-0.00927783364621496,-1.2727859578571863,0.062263871147077696,0.3711586397954199,0.766309416727319,0.09213163527977451
5.5200000000000005,0.31681017916434234,0.04793866207835994,0.33661336971114997,8.960065134283159,0.044029419300351265,0.20759283726949437,0.6164832735628119,-0.09949084759194632,0.003986031198417488,-0.013203514497757923,0.5127263359206458,-1.4480495834336136,0.04212277504309661,0.3597541222629055,2.146606151513485,1.0290331016443626,0.04367715771306228,-0.0003645637289850848,-0.026596952289898064,-1.241615578582533,0.06613858287941432,0.3818806966141427,1.1771029299629423,0.09844092104940141
5.53,0.31732250484902175,0.049640948687352617,0.0804300435232322,8.862164687443094,0.046132744790569565,0.21361323901778698,0.7742152279615021,-0.08089670247771799,0.003931071642270552,-0.007782728172515464,0.48431895509615036,-1.49650150782263,0.04580111491836152,0.37926212277832855,2.1912180545402586,1.0279510498868583,0.04367915015034779,-0.0008523741084054696,-0.03337439769577027,-1.2092211621135243,0.07000085639457326,0.394866169330624,1.5796838529473278,0.10519945694607387
5.54,0.3178479375066127,0.04969046560914495,-0.15266284322180798,8.76077045366322,0.04817124082049708,0.22074903451699443,0.9839657750820123,-0.04775097378357812,0.003961098386920158,-0.0029476668639909363,0.320918994103311,-1.5252626287784676,0.04950779678348141,0.39863307016354993,2.239893686343759,1.028194364972706,0.04368218516896439,-0.0013297672077876754,-0.028257349782469375,-1.1754916603041123,0.07383852625642491,0.40963310414180776,1.833547182979595,0.11196601577867198
5.55,0.3183700906207668,0.04800788054404438,-0.3452006091828494,8.660253943846715,0.0501551770282579,0.22989245507910872,1.2054755565725659,0.0012785930816279177,0.004068799289232082,-5.364976429591139e-06,0.033360070630064964,-1.536116357362561,0.05324052110434761,0.41839958767400726,2.1805250056731476,1.0304357282018106,0.043685360138365714,-0.0016172281659121868,-0.013273829702934493,-1.1403216787272406,0.07768406709279835,0.4258840851305894,1.8149819548209856,0.11809208519574711
5.5600000000000005,0.31887032878823857,0.04441715357036675,-0.48677993773445327,8.566940322012929,0.05216312704055321,0.24157766269689307,1.3718290123116788,0.06045910090504181,0.004216031743174869,-0.00014595599077046957,-0.33350554221047995,-1.5361114070039903,0.05707412231256097,0.4381254939042523,1.8899275890354417,1.033521431982945,0.043687174194871135,-0.0016069270120848197,0.006925631363307462,-1.1036737200000977,0.08163030846036114,0.44275241964093737,1.4490259303140305,0.1222974551583141
5.57,0.319331801252866,0.03905808995814965,-0.57254582813282,8.486942277421402,0.05434822807303377,0.2554989568739775,1.4036994562433316,0.11612289922730827,0.004331971629317312,-0.004201319368552672,-0.7063279042001612,-1.5340609225452377,0.06116410569448768,0.45593977699670324,1.2732666633762977,1.034493992174534,0.04368592204003803,-0.001301226730018192,0.02654005997019041,-1.065597928395815,0.08582158184824464,0.45784119745486135,0.7380013697539914,0.12302350074569922
5.58,0.319745185219542,0.032587245502040785,-0.6027946186392015,8.42340886543808,0.056915120261959155,0.27020826257638786,1.231536501409464,0.14844417929475523,0.00432179172019275,-0.012354714644828398,-0.9978756451219261,-1.536658161752101,0.06571499451422222,0.4684247266809689,0.30518268971953405,1.0295140799808409,0.04368042384076671,-0.0008018797140391326,0.04031153008478593,-1.0262131695193906,0.09041606670012495,0.4669892316210174,-0.22266310300306863,0.11935716613545697
5.59,0.3201114825489421,0.025969062912522222,-0.5834151328108755,8.375256054558362,0.06006385209085227,0.2831640086570763,0.819618948708899,0.13659340926793645,0.004087715901524127,-0.02386223648886104,-1.1283408544783324,-1.5456882613924043,0.07091028639838973,0.47113733804175406,-0.9412921036658168,1.0155113117781243,0.04367093592046021,-0.00026188542760421745,0.044928341062742606,-0.9856826234912098,0.09552797008662649,0.4654347270635819,-1.2512755093801033,0.11186814323683962
5.6000000000000005,0.3204392155443556,0.020034145033040615,-0.5260931397906957,8.338238933275345,0.06391116328779402,0.2912037514984648,0.18422664773722097,0.06638109415922851,0.0035594824541083986,-0.036926918021634496,-1.048249747995194,-1.5574252361134988,0.07681901355999297,0.45988279108587843,-2.290908773091488,0.9920169846727388,0.04365991629977461,0.0001762347618786255,0.03978729460523032,-0.9442042983661708,0.10116891106305649,0.4501564102431686,-2.1145316309228526,0.10273912194421285
5.61,0.32073773783018894,0.015163997542443287,-0.4472667034168515,8.307406193929216,0.06841588829105308,0.29136764968717566,-0.6008666537170777,-0.062450791902775526,0.0027251389733086136,-0.04889342977517191,-0.7562370147229973,-1.5645780379884036,0.08331465789874726,0.432499371846257,-3.494055636449125,0.9623874047414193,0.043652215634673294,0.00043382027002615494,0.027020385168194105,-0.9020032080413166,0.10721335360085382,0.42221647773586557,-2.585317894221844,0.09504216886248777
5.62,0.32101106680974933,0.01130041783555783,-0.36551898163308394,8.279207086955362,0.07334543464820387,0.28184807363037084,-1.4148497536239097,-0.23290475185949935,0.001648687012839122,-0.05685503928103394,-0.30526650842690084,-1.560152988667452,0.09005354054072852,0.39049848464928627,-4.282721775040555,0.9336397947697234,0.0436543189928308,0.0005214441935974704,0.01091677613837711,-0.8592924118108496,0.11341057754180345,0.3876209780823594,-2.5081013946334694,0.0915409979348628
5.63,0.32125573193188767,0.008177878704942866,-0.2979001990344759,8.252233181026599,0.07831284225196945,0.26273929918419564,-2.1145097735755733,-0.41364270302825273,0.00046250200040863563,-0.05857227557941597,0.20638874643779978,-1.541638444177848,0.09654594988274755,0.3397126049276062,-4.440410922653042,0.9145611436346076,0.04367254080430865,0.0005226168580862417,-0.003031632241398237,-0.816186437131939,0.11945130963525755,0.35586399091972587,-1.8499111837139366,0.09362660032740897
5.64,0.32146314508467305,0.0055389366343145344,-0.2561544104412749,8.22678790436386,0.0828831575291676,0.23628009567697417,-2.5664928614688027,-0.5674447879169159,-0.0006677699300571249,-0.05337095870853491,0.6584843238177455,-1.5134634114679149,0.10230874710578065,0.2893814051534583,-3.865085037033215,0.912631273571411,0.04371055761079471,0.0005419416924051762,-0.009277751152704732,-0.7725984485072801,0.12507046768708174,0.3366363630260454,-0.7171938906546208,0.10085744187545205
5.65,0.32162450868285436,0.003193720824066745,-0.24388499247580747,8.204060843858265,0.08670774396852518,0.20645037302177105,-2.677912311842604,-0.6617243584815083,-0.0015936334397541115,-0.04258417098102005,0.9405301599823966,-1.4861522831828362,0.10703570846044516,0.24981210125586076,-2.604528998903798,0.9311584435273433,0.04376720493835101,0.0006486277642206314,-0.003482323574486987,-0.7281962680673921,0.13014179533926395,0.3363071461135031,0.6699377824023341,0.1112371411711651
5.66,0.3217355105519505,0.0009645409130869023,-0.2554667977249695,8.18545356374893,0.08962593315899402,0.17803859495688368,-2.4164628370963195,-0.6769258677885025,-0.0022280870437248034,-0.029261636581454205,0.982510100648784,-1.4720707370373447,0.11070343260460892,0.2294815551816502,-0.8515007696224913,0.9680889735747567,0.04383576623262684,0.0008528150222017682,0.016151315607468252,-0.6824902955991762,0.13471778868496528,0.3558656859940098,2.0386647010135586,0.12203286626937021
5.67,0.3217987312474464,-0.0013583898975998985,-0.27716486997766576,8.172126223692299,0.0916923692213411,0.15551083752899894,-1.8146911063342313,-0.6102765405997397,-0.002566064861760404,-0.017225141239738482,0.7748380625730539,-1.4796325779293469,0.11356555799242378,0.23272771620812402,1.100945782460508,1.0170023812886138,0.04390565830725708,0.0011310834961437534,0.047646731053228336,-0.6350645151336556,0.13899684389578845,0.39105430953389975,3.1386314562927864,0.13075603956091145
5.68,0.32182305866809,-0.003965674816406501,-0.2904911388972904,8.164602125694302,0.09312969257526603,0.14207702056827756,-0.958314665686942,-0.4746217142182293,-0.0026761239336441202,-0.009861452954080821,0.37094382773063944,-1.5091172301621476,0.1160488960959272,0.25885933759138763,2.9303592780379164,1.069581675377179,0.043966308196288946,0.001482948004761171,0.08457373055837192,-0.5858617901161355,0.1432390067700399,0.4343149588406673,3.805140568132126,0.13591259319434368
5.69,0.3218208228445051,-0.006894921536009192,-0.27728713574610325,8.162342882153334,0.09423913327823563,0.13923947111450063,0.03650656621300708,-0.29350676547560445,-0.0026709744980291483,-0.009124588126085981,-0.12847169709254785,-1.55251767990253,0.11860767748089103,0.3028462926225267,4.360036381299234,1.1182711556706524,0.044011626092528164,0.0019743268479276025,0.11659383267053387,-0.5353548031851936,0.1476739987229382,0.47760523559721535,3.9897136275450644,0.13723893432718287
5.7,0.32180425560608905,-0.009905552949624958,-0.22540248182557163,8.163405345305295,0.09531026135288044,0.14688611251520725,1.0490945255152688,-0.09440491096123704,-0.0026701665118524158,-0.015072872047364983,-0.6043956746807769,-1.5972738983417565,0.12159713576914016,0.3571294159509257,5.21600623257822,1.1580789186696747,0.044042855661514856,0.0027245842545360922,0.1318483711545254,-0.4844485890594889,0.15243997595257816,0.5150190230715505,3.7510267407271196,0.1353674492817734
5.71,0.32178288384901615,-0.012468180640629455,-0.13335242661643512,8.164404424813027,0.09656012620836128,0.1637708823054139,1.9755798492938208,0.09759701976624072,-0.002767647232710092,-0.02602759526766422,-0.9523138601831383,-1.6315025884813974,0.12520557846690117,0.4137826842068198,5.450824413441557,1.1870991238408446,0.04406834129566283,0.003826950839211891,0.12127996818689998,-0.4340921671534002,0.1575688446950478,0.5442284793045594,3.2148658089400177,0.13118502719522782
5.72,0.32176272160997366,-0.013918580649523454,-0.012288340409416398,8.160942139561561,0.09811346418164993,0.1881086847983158,2.740612696298427,0.26367131824756634,-0.003012881409115172,-0.03923076221544724,-1.1086139811694085,-1.648177156621519,0.12945433361872985,0.4663159241683675,5.131209750281421,1.205895977399493,0.04410039762220066,0.005242553041312782,0.08404224294632247,-0.38475749063487147,0.16301088398264346,0.566179903330224,2.5225630790645632,0.12535929381670646
5.73,0.3217471415293907,-0.013730442359995175,0.11578861637632035,8.148478431242964,0.10001894989284964,0.21803280940743863,3.2986088926847925,0.3920600795171634,-0.0034087919453815556,-0.05174828819468987,-1.0629849257457658,-1.6470138432546344,0.13425056346416805,0.5106772305427765,4.398593222278579,1.2162547141389457,0.04415096090824853,0.006744404512206868,0.03215544144828274,-0.3360653405761499,0.16867939879557606,0.5833302769758395,1.7890662723846575,0.11835591956891856
5.74,0.32173855540414403,-0.011780095839942675,0.22347282507035582,8.123418305899257,0.10228596734200456,0.2517850669803943,3.6275157876908573,0.47684088382924805,-0.003924126824729527,-0.06131764248783014,-0.8543032544182586,-1.6340412058616423,0.13946373115368121,0.5453278288371596,3.4193070096702534,1.21992733740803,0.044228351032070574,0.007985385956415257,-0.007952363161413806,-0.28682251907949646,0.17449607901560563,0.5975449437166163,1.0844013062642874,0.1108028964781877
5.75,0.3217397623227572,-0.008465553105623863,0.2856179796747732,8.084062783867742,0.10492297229019255,0.28766274443144624,3.7201657423821897,0.5163482794677093,-0.004513421653170955,-0.06687747286265755,-0.5530548278826225,-1.6195279809646592,0.1449932977736862,0.5705443481478318,2.342055269289128,1.2178723281667385,0.044337061748572174,0.008717698177775297,0.0010628280809591637,-0.23557360367343239,0.18042295477750886,0.608876115957106,0.4399662094724337,0.10370872418476046
5.76,0.321754067767563,-0.004615840078816438,0.2868235796572772,8.031089183287593,0.10796121750540726,0.32385442702507206,3.5780509599136323,0.5122925453964807,-0.0051360787721516695,-0.06863653416983209,-0.23736168699090082,-1.6152048676770276,0.15080240303491116,0.5873364530184912,1.274812907810305,1.2101906956351447,0.04448110103937582,0.009107890894493443,0.09854282339977327,-0.18152494959173082,0.18647150062419296,0.6157203106956459,-0.13009907605534946,0.09820231532517058
5.7700000000000005,0.321783926386145,-0.001231608807020962,0.22623765429688886,7.967392409991316,0.11145449444833444,0.3583174910780009,3.2102009145797856,0.46950195145528884,-0.005767766323555219,-0.06770788453570883,0.02911914045260134,-1.6313421386892324,0.15690741830305877,0.5964860267555638,0.28408735905958765,1.1966628631004088,0.04466951062304026,0.009997476338044731,0.313286774140732,-0.12546688911203896,0.19268490292650048,0.616018781575477,-0.6072972438424442,0.09497392088661627
5.78,0.3218286935373733,0.0008345701791582342,0.11801461712936634,7.897341926208859,0.11545468716167583,0.38880094908928237,2.636866515511606,0.39577222891814573,-0.006401349657084183,-0.06549482732727248,0.21093272846558142,-1.6736544720855637,0.1633316167509402,0.5981278262848804,-0.5895931367984635,1.1776014862976076,0.044921240053775756,0.012914326785891491,0.6511845982159854,-0.07021067598153882,0.1990997484085881,0.6087933596387991,-0.9590746622200681,0.09389285093462565
5.79,0.3218827746577539,0.0011370080032855174,-0.012737565375060544,7.8256776529046626,0.11997264161583951,0.41304300336859123,1.895196204097595,0.301596243240131,-0.007039147020556086,-0.06310292435699287,0.30347964466571414,-1.7403453095690076,0.17004673022786823,0.5920086072663799,-1.311561129535092,1.154637872844625,0.04526647538486216,0.019716816288190057,1.0876190829942882,-0.02017718944572865,0.20570534558598547,0.5952750445470953,-1.1450196011360207,0.0940956666586044
5.8,0.32193565675252334,-0.0002599687719128914,-0.1371335495494619,7.756326719034915,0.1249417332210615,0.429107739813902,1.0429930397981502,0.19971918540538502,-0.007681798698295718,-0.061018091864388654,0.3260102242301478,-1.8208539717298895,0.1769331256832546,0.5782215517205983,-1.8399265269194867,1.131027419166236,0.04574316055369529,0.03195172739997486,1.5682264235957784,0.01985652720247451,0.21242325640949072,0.5789861801744282,-1.1339086744518436,0.0944732126025227
5.8100000000000005,0.321974639140441,-0.002867944771183111,-0.23042144087648025,7.691403056925957,0.13020379708120997,0.4357809766311428,0.15729100445247013,0.10415148015058043,-0.00832009695624708,-0.059141149762746474,0.30931860236501046,-1.898173076086695,0.18378340228934628,0.5579848465480911,-2.126364470539733,1.111168811007774,0.04638996745637396,0.05020055415166435,2.0189491588964183,0.04640359710935737,0.21912100071433502,0.5645702716867005,-0.9212711808643669,0.09427762340253452
5.82,0.32198954487479553,-0.005999809924426656,-0.27814800130371925,7.630647530512335,0.1355299701978245,0.4329120143996226,-0.6734897446404329,0.028126270110326902,-0.008934087301331859,-0.057084418124147975,0.283315428185805,-1.954750202330348,0.1903544339667701,0.5340158989523622,-2.130301608561504,1.0993712287883763,0.04723852355527711,0.07371951365933292,2.3629616955879227,0.058611178866220685,0.22565575155015988,0.5559323554735359,-0.5378426702856683,0.09354414333093591
5.83,0.32197706878077204,-0.00902339354815873,-0.27888078192720606,7.571579763394806,0.14067280522099512,0.42156895574260145,-1.3625230446898375,-0.018823870406571425,-0.009499508062505727,-0.054520052759821615,0.2684314263027541,-1.9794645910196176,0.19644655724666976,0.5102494720180129,-1.8394734131634034,1.0983609605506433,0.04830729272857088,0.10053164413670963,2.539372692142841,0.0586986233686699,0.23192661848759685,0.5547790960936412,-0.044890968998705566,0.09309917181508956
5.84,0.3219420694295708,-0.011533148683762501,-0.24306523220599172,7.510485197311691,0.14542908181817404,0.4039091500243676,-1.8393768789436926,-0.033407438084037726,-0.009997552054069225,-0.051383327776566276,0.27241495281069356,-1.9723546383233175,0.20197202474865092,0.4909675312201692,-1.286706857511371,1.108259796344156,0.04959833430726433,0.1279313366662994,2.517781997649741,0.0512626075329665,0.23790980974519857,0.5603814051059933,0.480619820411731,0.09411163808242239
