Lr-2002/DM_Control_Python/ic_arm_control/control/di_data_from_gh/processed_data/dynamics_20251011_131436_ic_arm_control_filtered.csv
time,q1,dq1,ddq1,tau1,q2,dq2,ddq2,tau2,q3,dq3,ddq3,tau3,q4,dq4,ddq4,tau4,q5,dq5,ddq5,tau5,q6,dq6,ddq6,tau6
4.0,0.21952596836067112,0.04243632209552303,0.9885370036333653,8.938520493708117,-0.02512735477284775,-0.005049344940094911,0.3954271043366406,0.14883033611295177,0.005560601205472341,-0.004884008347911545,4.884469463027281e-07,-0.8527568226818464,0.01201647974364833,-0.0024429541538080004,0.013278694678709626,-0.38976997433320243,0.08068167225734803,-0.022218908570511092,1.0217684135193146,-1.7295751933550756,0.0024795910582130387,0.0072881925803737835,-0.571528646704648,-0.08059329072606311
4.01,0.2201187388051326,0.05234952531060054,0.8797404323225885,8.991342678721551,-0.025121489836715687,-0.0011248475985592022,0.2550067231958756,0.237876633547724,0.005560601205470768,-0.0048840083438871475,1.057001174124552e-06,-0.8945378638776609,0.01201647974364833,-0.0023100043312008814,0.011234851817622819,-0.38752482569802427,0.08071094387106971,-0.012091938632841435,0.5821497096609226,-1.761282129226338,0.002479591058213036,0.0015597562085803859,-0.45626077582741875,-0.08069529041411808
4.0200000000000005,0.22074891657215484,0.06181705105689706,0.7717124337173453,9.03759766852431,-0.02511665449424012,0.0019647515432520296,0.11906432876601117,0.3119448540505229,0.005560601205464564,-0.004884006632432957,1.3106679726331322e-06,-0.9104742743188052,0.01201647974364833,-0.002184024623540688,0.009150715897304899,-0.3858990218979125,0.08072427570789821,-0.004613361739021104,0.11525323164786173,-1.787650713943238,0.0024795910582130687,-0.0033150797814101318,-0.34290702106362275,-0.08075057299807444
4.03,0.22144092728555004,0.07017419652672348,0.6668257003503801,9.073238596002794,-0.025113106565723683,0.003592965249608972,-0.004143862052385195,0.36093559369236494,0.005560601205454097,-0.004884003065940036,1.013756581694871e-06,-0.8850645422856004,0.01201647974364833,-0.0020767949985189813,0.007038310489333218,-0.38538675941981737,0.08069977128164395,-0.002136821595765833,-0.38053937170925134,-1.8041647355783266,0.0024795910582131406,-0.006768503911838863,-0.23509523331829485,-0.08072533629805921
4.04,0.22220241816889055,0.07680133475345235,0.5704518697052006,9.097131585127642,-0.02511007816427919,0.0035358499240307527,-0.09847029442693495,0.38195797678095517,0.005560601205442053,-0.00488399832531999,6.788338754399634e-08,-0.8170011264042994,0.01201647974364833,-0.002003555590842376,0.004997969532814497,-0.38623635780582183,0.08060720313415572,-0.006163709271695219,-0.8688413465246195,-1.8082066411271704,0.002479591058213239,-0.00864514460344095,-0.13862872304611895,-0.0806027843339248
4.05,0.22302641215796043,0.08146126684463866,0.48850690712188516,9.109809426780963,-0.025105891194176985,0.0020772527703137025,-0.14138642032868104,0.38040194285909157,0.005560601205433451,-0.0048839940653381654,-1.3855528203715896e-06,-0.7194272065082844,0.01201647974364833,-0.001974450753344001,0.003174395304075888,-0.38838848415334637,0.08041068710088921,-0.016908283447388234,-1.2789458248480536,-1.7996011542740085,0.00247959105821333,-0.009181205153813522,-0.05996797163809575,-0.08039133072263084
4.0600000000000005,0.2238994981611414,0.08456292869608337,0.4234115551551309,9.111375544303698,-0.025097569946025442,1.0308088076016566e-05,-0.10973826580209035,0.3681359489514943,0.005560601205434527,-0.0048839926643696255,-2.9130029165040984e-06,-0.6158542582487343,0.01201647974364833,-0.0019837177402748972,0.001670775412521299,-0.39148754727128093,0.08007708992533032,-0.03303596678444547,-1.5261249912196402,-1.7806688373959472,0.002479591058213364,-0.00885471744906477,-0.0036452998213118907,-0.08012886823277
4.07,0.2248106835025981,0.08706445446254488,0.37109354603193156,9.100251555234511,-0.02507970199153197,-0.0014917715215054283,0.012410997170464934,0.35900734187326,0.0055606012054503695,-0.004883996472297515,-3.8385348931604204e-06,-0.5330148549726633,0.01201647974364833,-0.002007559419087407,0.0004758903801601885,-0.39496881037334197,0.07958782168457285,-0.051767990713399256,-1.5409460191538866,-1.7556939157205702,0.0024795910582132907,-0.008188919497457023,0.029939560674669432,-0.079877611990917
4.08,0.22575564847406382,0.089964263429732,0.32138695754049057,9.07390258427178,-0.02504262265694831,-0.001127049026833631,0.22672766784907783,0.3630263826555378,0.005560601205481741,-0.0048840066359096615,-3.4285610506804254e-06,-0.4921660165235832,0.01201647974364833,-0.0020179717527231524,-0.0005444179831301972,-0.3982038351841217,0.07894906648868245,-0.06945399028742726,-1.296652240321237,-1.72985726201035,0.0024795910582130843,-0.007586833359015498,0.045066791917959946,-0.07970598677543671
4.09,0.22673452756348586,0.09366240301678799,0.2623604401276586,9.031236286409538,-0.024970515986849108,0.0022211164739149377,0.5167297055697408,0.3814688349061892,0.005560601205522195,-0.004884021835426541,-1.1979703216108624e-06,-0.501340397956786,0.01201647974364833,-0.0020045083393954418,-0.0015782364791781468,-0.4006699538656745,0.07819519799697752,-0.08250997322161936,-0.824579596121451,-1.7079192094003035,0.002479591058212768,-0.007242955123701879,0.04916030171883616,-0.0796609724578329
4.1,0.22774588630281203,0.09764341424944178,0.18670573803473822,8.974998485345953,-0.02484061884641726,0.009199332352507484,0.8481849047756576,0.4052653375020165,0.005560601205557067,-0.004884037503240833,2.7409082296490174e-06,-0.5518440640495668,0.01201647974364833,-0.0019840221151672614,-0.002758352949637983,-0.40209182940079713,0.07738304097647544,-0.08841150306599432,-0.21201627924433086,-1.6931033135852003,0.0024795910582124333,-0.00714142874886582,0.04977959446286833,-0.07974359538007227
4.11,0.22878201597474143,0.1007537927222275,0.09676128598846317,8.912252291292939,-0.024624870579881074,0.019814534115859903,1.1734652653786906,0.4179963216175782,0.005560601205565933,-0.0048840461897786515,7.426883801326074e-06,-0.6211630826049064,0.01201647974364833,-0.001987627011754308,-0.0040795293585310305,-0.4024999098896079,0.0765790438576975,-0.08636330852875218,0.41701990215083196,-1.6865561882701459,0.002479591058212234,-0.0071229257596313825,0.051471851036630725,-0.07990351254338575
4.12,0.22982919202398452,0.10192467588290663,0.005064402734113229,8.852258097500247,-0.024294480095858655,0.03342738177415281,1.4385740293111553,0.4026636369703192,0.005560601205529328,-0.004884039562004194,1.1063629146920898e-05,-0.6815028469231449,0.01201647974364833,-0.002036577411511563,-0.005395321940239092,-0.4021801021757733,0.07584431211086942,-0.07740691940112893,0.9321362146521277,-1.6874565360507416,0.002479591058212347,-0.006988320500142308,0.05391881746412644,-0.0800591326481541
4.13,0.2308724637957043,0.10085785659749004,-0.0705024051477423,8.802936503995513,-0.02382624471850943,0.04890041810961543,1.5913228752934911,0.3493525716053699,0.005560601205438898,-0.0048840119973045095,1.1428106109785202e-05,-0.710422991782386,0.01201647974364833,-0.002127896673380619,-0.0064972950859380155,-0.40154162502403556,0.07522229475070243,-0.06399728801182901,1.2289642936987033,-1.6935530590644927,0.002479591058212899,-0.006603822930888522,0.05228528812525177,-0.08013317272428108
4.14,0.23190119589322958,0.09821962043825555,-0.11500659608495363,8.76812087662138,-0.023208310644587817,0.06483045529101454,1.5894791680600096,0.2603289692888432,0.005560601205307967,-0.004883964927629471,6.684635919007311e-06,-0.6991094326880625,0.01201647974364833,-0.002238395345500616,-0.007225045520164447,-0.40097267337224435,0.07473162626735912,-0.04929055708269546,1.2544511281481514,-1.701845754677781,0.0024795910582138727,-0.005975931827478812,0.03975543498042952,-0.08008425046507595
4.15,0.23291149591231025,0.09524907630967115,-0.12421013690912919,8.747123709515977,-0.022443433064115007,0.07975570508937521,1.4081859148388898,0.1503600383164273,0.005560601205177552,-0.004883910228485567,-3.568519743030423e-06,-0.6549086796694207,0.01201647974364833,-0.0023398595558250476,-0.0075332148530507966,-0.4007551836252574,0.07436426672834201,-0.0364084569782366,1.0185204128795868,-1.7092628949780582,0.002479591058215033,-0.005274001424865731,0.011302697458381526,-0.07991992364730127
4.16,0.23390456589931446,0.09308971084730734,-0.10775860254491146,8.73641408992078,-0.021549385503547368,0.09225223493291827,1.0461166320837205,0.042197910916852356,0.005560601205112224,-0.0048838704282278865,-1.738923094614269e-05,-0.5970767637699126,0.01201647974364833,-0.0024135739493476144,-0.007467517559170197,-0.40106452281971977,0.07408817790967052,-0.02782734210611595,0.5897607363038948,-1.7133079513209426,0.002479591058215916,-0.004793509531801418,-0.03285222668167813,-0.07969008678373236
4.17,0.2348831282989178,0.09227601400761207,-0.08586090598743806,8.73198232782052,-0.020557696758008656,0.10092799466822969,0.5294840852948763,-0.04099422353137138,0.005560601205181956,-0.004883873788909356,-3.0209421870015418e-05,-0.5475487053582414,0.01201647974364833,-0.0024569296113796995,-0.007060946499000497,-0.4020196004963664,0.07385421491727022,-0.024933577884156913,0.07713163313904871,-1.7126135482496767,0.002479591058215927,-0.004869254719584438,-0.08563927934733699,-0.07947194216218822
4.18,0.23584870661846544,0.09260259203318032,-0.08058953876172666,8.731064575854482,-0.019512113313017256,0.10443191779979231,-0.08755568278251641,-0.08356086137961394,0.005560601205430774,-0.004883943706228272,-3.562595646551977e-05,-0.5211317876776739,0.01201647974364833,-0.002480924736769268,-0.00621813261592123,-0.403721557047734,0.07360707065398688,-0.027779034742578524,-0.39698569533838923,-1.7072323649488648,0.002479591058214553,-0.005755190868291903,-0.13430714399142318,-0.07935991502610078
4.19,0.23680075329215108,0.09331844155465709,-0.10553695096873328,8.732775668966573,-0.018466879954753938,0.1016296653968253,-0.7277649655786783,-0.0828269529234034,0.005560601205840004,-0.004884084355105348,-2.743327182169028e-05,-0.5202660152703025,0.01201647974364833,-0.0025013221255233416,-0.004675549328442752,-0.40624026252378637,0.07329871895038081,-0.03510802277149925,-0.7254021622238089,-1.6985154640496538,0.0024795910582116674,-0.007492634831861698,-0.16421482043594982,-0.07946284066492598
4.2,0.23773689524741895,0.0934714027888434,-0.1584782525852381,8.737854886188572,-0.01748334782519159,0.09199652984121005,-1.3018555342885294,-0.05002366356650818,0.005560601206301077,-0.004884267475866271,-2.574829329124151e-06,-0.5368972107559801,0.01201647974364833,-0.0025279472314466596,-0.0020934212414769706,-0.40955061288708594,0.07290077420730498,-0.04469766079822102,-0.8395746070349239,-1.6886274524275284,0.0024795910582078146,-0.009812372250280914,-0.16399253207403952,-0.07989618528683191
4.21,0.23865362423809097,0.09227860024378048,-0.2205291592407186,8.747781630847799,-0.016623278777755744,0.07608260122241951,-1.7247576833522473,-0.006104790315932711,0.005560601206616859,-0.004884427475097451,3.5893814625968566e-05,-0.5593104404845568,0.01201647974364833,-0.002556698342588644,0.0017348529983629533,-0.41345371581607543,0.07241166847296804,-0.05393230287246359,-0.722805500871875,-1.6799379867574518,0.0024795910582043317,-0.012145532536231496,-0.13011863003416785,-0.08075498144067396
4.22,0.2395477326719201,0.08945910501754688,-0.2625837484757048,8.763375380186952,-0.015938917361225016,0.05575632161556202,-1.9338607192432546,0.02601371041141153,0.005560601206547397,-0.004884472081684513,7.718808770842695e-05,-0.5788735994469147,0.01201647974364833,-0.0025677826437123016,0.006643841145451849,-0.4175328822729623,0.07185635853729865,-0.06042355302379676,-0.41082894485787985,-1.6745163773928526,0.0024795910582031504,-0.013795325220934917,-0.06901568850258677,-0.0820682862551673
4.23,0.24041889313048745,0.08544528921938604,-0.25672808167425976,8.783196526229458,-0.015462198091159191,0.03397054435334159,-1.9042255413714486,0.02961093445763371,0.005560601205903315,-0.004884312335306599,0.00010392396589742173,-0.592828097170958,0.01201647974364833,-0.002531761356947545,0.01195457957395394,-0.4211918634482564,0.07127914235673435,-0.06249580382909432,0.019540637331045514,-1.6737949390710671,0.002479591058206189,-0.014226552780194825,0.004355976794630446,-0.08375660782558944
4.24,0.2412725861444385,0.08134789360015876,-0.18814936205933083,8.802559828624076,-0.015196833525379762,0.014034701193113643,-1.6557110537272473,-0.0006103524339338472,0.005560601204668501,-0.0048839083497652005,9.681141478432128e-05,-0.6026676075644636,0.01201647974364833,-0.0024223582998947764,0.01653576828312345,-0.4237948290330232,0.07073228001272883,-0.05946200612883915,0.4703684765242073,-1.6783569542220111,0.0024795910582144005,-0.013329780068175437,0.07104298497747831,-0.08562293455392417
4.25,0.24212135586697642,0.07859543406673049,-0.06272078581319179,8.814143050408749,-0.015116682761552388,-0.0013299278035120681,-1.248978587100273,-0.058064978137605645,0.005560601203108614,-0.00488331745452484,4.2488892869436146e-05,-0.6102808296036073,0.01201647974364833,-0.0022320024864824696,0.019093383912148758,-0.4248732143162454,0.07026372234175865,-0.05170328546438414,0.8461004273344559,-1.6878301052091402,0.0024795910582267404,-0.011501938760403705,0.11410951553003507,-0.08739547328302888
4.26,0.2429825959528742,0.07833160455173781,0.09288622860120228,8.810515692033402,-0.015171709220661519,-0.010733087828365217,-0.7708529900461255,-0.12818442318280487,0.005560601201803714,-0.00488272237012106,-5.756345474921543e-05,-0.6148904694310255,0.01201647974364833,-0.0019835305874651827,0.01860770635467588,-0.4243150496099183,0.06990679949911274,-0.040567644666890716,1.075008251923847,-1.7009509965892136,0.0024795910582395254,-0.009479179809722738,0.12382262192668538,-0.08881035080668792
4.2700000000000005,0.2438729710266372,0.0808470795098627,0.2387135920424716,8.787632434150844,-0.015299893728279862,-0.014344985455498166,-0.31314412023537996,-0.19434627214004468,0.005560601201544881,-0.00488241394356737,-0.0001805676717959042,-0.6129517291053926,0.01201647974364833,-0.001730738902650256,0.014751595589330096,-0.4224488239344073,0.0696739986389198,-0.028065656552274543,1.1237149197034724,-1.715885345806207,0.0024795910582467136,-0.008002632917358352,0.10010559659285766,-0.08969573342138916
4.28,0.2448019200040249,0.08538190870211766,0.33377040823090404,8.747384563493608,-0.01544120112328995,-0.01357294614581239,0.048750788312537395,-0.2428289255090533,0.005560601203066842,-0.004882710577859084,-0.0002825362493457526,-0.6009083815412873,0.01201647974364833,-0.001543332812763789,0.00810528982708476,-0.4199793229822338,0.0695561569422317,-0.0163723297015704,1.001748414088301,-1.7307715196960143,0.0024795910582415146,-0.007498427355117818,0.051568571314039545,-0.09001684392855316
4.29,0.24576760871417486,0.09044387893406304,0.3484051872096935,8.697649473337965,-0.015549245068917987,-0.010400682957982472,0.2712482897782375,-0.26482512273560227,0.005560601206653174,-0.004883817317984245,-0.0003079376665435154,-0.5786018951984376,0.01201647974364833,-0.0014794023279965452,4.936702704878128e-05,-0.4177924862727571,0.06952709964153735,-0.007259917354215375,0.7555645677219769,-1.7442823154078793,0.002479591058219301,-0.007943128806839936,-0.008120997126292486,-0.08986631567299522
4.3,0.24675722054933294,0.09444846997223205,0.27244279653707665,8.649836684840363,-0.015597716708746627,-0.006704908165283158,0.3480801027785433,-0.255785805963295,0.00556060121173469,-0.0048856590130259515,-0.0002090496888891533,-0.5509296250791472,0.012016479743648332,-0.001558249988385964,-0.007652758661638469,-0.41669188597426415,0.06955199863411884,-0.0016690751499328655,0.4540656549426141,-1.75595133877157,0.0024795910581811437,-0.008970542044881397,-0.06478092744339041,-0.08941596292474698
4.3100000000000005,0.24775072024691305,0.09629179378112737,0.11677432860009057,8.615401864858939,-0.01558100257711742,-0.0037940293513299,0.30547656866370276,-0.21415663359774745,0.0055606012166749775,-0.004887754725756265,2.920343382464753e-05,-0.5268089442226683,0.012016479743648336,-0.0017500866447464534,-0.013434211639598886,-0.4171546702874662,0.06959650778179921,0.0004251920700860391,0.1696646699926256,-1.7661497056312871,0.002479591058136592,-0.01013182140272162,-0.10734692271888926,-0.08886042871383136
4.32,0.2487255998278325,0.09558409290154085,-0.09116057516233428,8.602975225813067,-0.015510350613386651,-0.002258217993673449,0.18985504214489593,-0.14143992533164237,0.0055606012189574,-0.0048892192166398955,0.00036750878180304337,-0.5160585123963136,0.01201647974364834,-0.0019902171470864913,-0.016437839882965793,-0.4191935421161752,0.069633917174709,-0.00015922134260217452,-0.040132220235869105,-1.775790852011486,0.002479591058103891,-0.01114164008070446,-0.12954557686509527,-0.08837338538259096
4.33,0.24966075005243324,0.09254216655675222,-0.31540173636086954,8.616816666623853,-0.015407601245967429,-0.0020784450602825983,0.05268586374635243,-0.043720671342921985,0.0055606012159144305,-0.004888964509608339,0.0007045743373318434,-0.5256238459631529,0.01201647974364834,-0.002209478299638136,-0.016755052901152468,-0.42237356328826947,0.06964887726130572,-0.002179250608557843,-0.1460548924379892,-1.7859311824057211,0.0024795910581060336,-0.011971547773705246,-0.1296802356445248,-0.08807863834244585
4.34,0.25053924063421656,0.08770880304088634,-0.5197157677408624,8.656472931467196,-0.01529817098107234,-0.0028684829233813405,-0.0627703772707615,0.06693969927151079,0.005560601205954679,-0.0048861182957899195,0.0008933658692372215,-0.5566815733750079,0.012016479743648336,-0.0023636119988884887,-0.01529629396626975,-0.4259686067127057,0.06963767557406812,-0.004378218731013588,-0.15229281992626792,-1.7974078493256493,0.002479591058162189,-0.012757243684751967,-0.10943543991341452,-0.08803244713206378
4.3500000000000005,0.25135050472873954,0.08167192444586836,-0.6735924840071297,8.717417111975225,-0.015204558178362824,-0.004121807573412743,-0.12963930032265747,0.17314468730483984,0.005560601189971781,-0.004880578753274025,0.0007845422919409772,-0.6036250799280926,0.012016479743648327,-0.002447791600391599,-0.013356346353117918,-0.4291885002624732,0.06960587026187601,-0.005824105686118551,-0.09280363574233975,-1.810587118285798,0.0024795910582760335,-0.013601407562996585,-0.07274513634980179,-0.08822044230060111
4.36,0.2520918194285782,0.07490052597579583,-0.7551707888700605,8.792595809229027,-0.015141522449174957,-0.005380078842349239,-0.1394708919563471,0.25564895457499626,0.005560601172346383,-0.004873511381352355,0.0002899457636658604,-0.6551047486610428,0.012016479743648311,-0.002492428264495529,-0.012065751722776961,-0.43139482026014053,0.06956419977373438,-0.0061198409839842306,-0.02013948439995579,-1.8252411610652466,0.002479591058424946,-0.014414726326473842,-0.0252557602593648,-0.08857434935433364
4.37,0.25276838239748,0.06776258804959452,-0.7517872733364802,8.874545338957974,-0.015113837566161812,-0.0062998390348009145,-0.0990578161986348,0.29884234264432064,0.005560601160811249,-0.004867509075061988,-0.0005528004474176946,-0.6968500976357568,0.01201647974364829,-0.002544809016586127,-0.01196077068810607,-0.4322485344277391,0.06952347191580426,-0.005477904630022636,0.010042124143438368,-1.8405414073565438,0.0024795910585558947,-0.014910055084788796,0.02582836221419107,-0.0890019410853458
4.38,0.25339193517363007,0.06071126435573007,-0.6595048768516175,8.957225318875263,-0.015116751833824302,-0.006643055443547456,-0.024146912511756102,0.2960418802074933,0.0055606011645860836,-0.004866140663415572,-0.0015419053256232216,-0.7159424861754603,0.012016479743648273,-0.0026454432359065655,-0.01284235927069111,-0.43177160027453787,0.06948909882492829,-0.00466481561747688,-0.0452691600367419,-1.8551509566609732,0.0024795910585939185,-0.014761233836361905,0.07218158444019915,-0.08941358902104875
4.39,0.2539791210598331,0.054505242840808314,-0.48267759205091676,9.036675960433582,-0.015138390351442306,-0.0062399924586902114,0.06756770956361259,0.25210589238135833,0.005560601190696959,-0.004872754853668996,-0.00232640077578428,-0.7056897697589134,0.01201647974364827,-0.0028088768628469272,-0.01396089651554236,-0.4303327608734043,0.06945630553760532,-0.00482014979390729,-0.2043921512384411,-1.8674041622023299,0.0024795910584663413,-0.013823447281875744,0.10560838755774143,-0.08973583558807548
4.4,0.25455064436002445,0.05024208776490994,-0.23379239953398873,9.110350507154212,-0.015162948979697508,-0.004966686751023317,0.1622048527188125,0.18196276181124726,0.005560601239240485,-0.0048886961682704285,-0.0024897151502090726,-0.6690287021733772,0.012016479743648289,-0.0030169558895239467,-0.014420177496302894,-0.4285731548010549,0.06940745041188773,-0.0071722561233673295,-0.4556096190516588,-1.8755595537832073,0.0024795910581399145,-0.012266317512380605,0.12003551652313596,-0.08991782697846792
4.41,0.2551305400648453,0.04905963963881583,0.06683260316005762,9.175882393430847,-0.015173769184224863,-0.0027517681889568327,0.25299350087283545,0.10561799644017128,0.0055606012993141204,-0.0049114704348577985,-0.0016940181221485712,-0.6178371637259654,0.012016479743648334,-0.0032280022013991827,-0.01360507444587935,-0.4272769160497338,0.06931277768635201,-0.01271096575697048,-0.7598453074765666,-1.8780973472751317,0.002479591057660088,-0.010528525601421273,0.11350674255878787,-0.08994033859919556
4.42,0.25574394026105146,0.05162921669756214,0.3920083697538949,9.230205287738059,-0.015155823309827161,0.00040543865646686957,0.3406556339799974,0.041877842863901504,0.0055606013480049,-0.004933735599774369,0.00015055277017779847,-0.5674039799985647,0.0120164797436484,-0.0033978639717468025,-0.011438554547595474,-0.4271875143046888,0.0691350885496072,-0.02190192918868751,-1.0606543520081089,-1.8740194799167902,0.00247959105717429,-0.009119253272910714,0.08917489336149964,-0.08982652735584462
4.43,0.2564134214323411,0.05780768835422945,0.7094324161970557,9.269308216887055,-0.015097358970564528,0.004440905907240718,0.43106857705169904,0.0033429544281916267,0.005560601354710145,-0.004944098912137984,0.002750366063692502,-0.5289117194131148,0.012016479743648471,-0.003500827486870647,-0.008359769087580066,-0.42879136843807264,0.06883753949056899,-0.03451190092473832,-1.2988657469368112,-1.8631056024857864,0.0024795910569184666,-0.008382189888035066,0.05461629417934192,-0.08964331144080442
4.44,0.2571563729666029,0.06674341135753724,0.9840227726741008,9.288344004395986,-0.014990390033184272,0.009276976093613222,0.5309399974729254,-0.005867105758167667,0.0055606012917556805,-0.004930389299186502,0.005390668925825121,-0.5048487838245767,0.012016479743648516,-0.003537016457339386,-0.005043569363282931,-0.4321323232518111,0.06839252808337877,-0.04957848109669858,-1.4278354442990857,-1.846058204807438,0.002479591057152176,-0.00835135084834455,0.019551870325940367,-0.08948374886622902
4.45,0.2579855675995367,0.07736026925478616,1.1806826224815827,9.281919597282515,-0.014829727630640277,0.014898237833913997,0.6427002349741145,0.010266409531804506,0.0055606011497339744,-0.0048852599851088516,0.0070406547115558485,-0.4904173504008581,0.012016479743648497,-0.0035230003248519766,-0.0019963664480091774,-0.4367486954578504,0.06778897567833138,-0.06553996990129556,-1.4249184583531445,-1.824428491661945,0.0024795910580443824,-0.008772063398258012,-0.007178880358713357,-0.08943233322979553
4.46,0.25891204895391107,0.0888239486594431,1.2677978140862503,9.244835558762652,-0.014610760992646802,0.021394857641621252,0.7601672593960361,0.041735371295277324,0.005560600952742869,-0.004812778188329948,0.006602404977491511,-0.47957059062541557,0.012016479743648388,-0.0034762562004097275,0.0007814500609675229,-0.44179625467310213,0.06703560609658536,-0.08053891936168563,-1.2957127855118349,-1.80023178808389,0.002479591059537603,-0.009267245426999604,-0.020199043015365684,-0.08952836984287176
4.47,0.25994662028731874,0.10061575665510569,1.2220308182118074,9.173639696348141,-0.01432712354456392,0.028916109485792967,0.8665982088553398,0.07537661932319725,0.005560600765957276,-0.004733453860570599,0.003249090759883317,-0.4709811048352059,0.012016479743648188,-0.003406978792896732,0.00389756042366723,-0.4463319039170569,0.06615888945370388,-0.09287564004509656,-1.0697751294055022,-1.7753190314634675,0.002479591061244799,-0.009541637727472314,-0.01877729402249317,-0.08974756433513899
4.48,0.2610964806171298,0.1121698970412554,1.034450561696066,9.068892809701113,-0.01396984713758042,0.037519794011113286,0.936314938951212,0.09805056383356449,0.005560600687352182,-0.0046845505895945026,-0.0032490904722311084,-0.46967794242726213,0.012016479743647945,-0.003319323856511842,0.008351922735052126,-0.4496361820879906,0.06519592582819221,-0.10148946815874234,-0.7893119165285845,-1.7507910427138562,0.0024795910624488314,-0.00949655149099743,-0.006321697329126812,-0.09001272264765625
4.49,0.26235717610206644,0.12240983278220964,0.7166864142205471,8.937273674614675,-0.013528924161532913,0.04696899321469703,0.9401249941424902,0.09967365172644217,0.0055606008184569435,-0.004713164932829289,-0.012328174237877248,-0.48366863647425823,0.012016479743647758,-0.003212745318582623,0.015043642282049163,-0.4514215268627739,0.06418456048560288,-0.106251519359686,-0.49487645503326766,-1.726815064627244,0.002479591062264279,-0.009204120237200415,0.01139065411759075,-0.09022731813448591
4.5,0.2637045493439319,0.12965631759298768,0.3043681315381853,8.792148295790785,-0.012996875677235686,0.05658270775124832,0.8534581488746635,0.07540584462729792,0.00556060121638281,-0.004861857462638251,-0.022650234185586877,-0.5183739074339347,0.01201647974364775,-0.003076566223209528,0.02416284028741438,-0.45184240440228707,0.06315473143477335,-0.10787635838259566,-0.213327858812809,-1.7030040837740898,0.002479591059976114,-0.00879888703417086,0.028402291388106116,-0.09031463484028639
4.51,0.2650930277954131,0.13213089906589134,-0.14523423382798312,8.651615429104991,-0.012373076309464156,0.06524887309947726,0.6649491459026665,0.026409893460914585,0.005560601839895804,-0.0051503362015612505,-0.03235733052661909,-0.5725955149364436,0.012016479743648027,-0.002883358310476701,0.03471111002822791,-0.45134726985689555,0.06212504239732289,-0.10744194647501586,0.04743926986930991,-1.6791554787371077,0.002479591055490984,-0.008384307549929176,0.040353273377594305,-0.09024625409826212
4.5200000000000005,0.26646342278839547,0.12880659950088758,-0.5629734164475435,8.534308416036014,-0.011667517603465093,0.07163620689404217,0.3826393604904059,-0.040756800215275724,0.005560602512654965,-0.005560632352312187,-0.03949245859462731,-0.6381905288923311,0.012016479743648617,-0.0025935050246286375,0.044397801603455,-0.4504910134388518,0.061106169705832124,-0.10574802023186032,0.29510972238387306,-1.6558896084287151,0.0024795910497440563,-0.008002561963111799,0.04537067384368369,-0.09005104588323776
4.53,0.2677576105062936,0.12005506100807974,-0.8835839374742122,8.454511033722655,-0.010902875188720214,0.07453776922957299,0.03538870715988509,-0.1155673323616263,0.005560602931696152,-0.006035087885219127,-0.04245745095699972,-0.703293497304051,0.012016479743649406,-0.002176919614098084,0.050063329417720404,-0.44980092236813457,0.06010906715405282,-0.10286774819297616,0.5425676068344853,-1.6347930859892534,0.0024795910448351366,-0.007651081395675049,0.044035991434392074,-0.0898027607694651
4.54,0.2689335394208247,0.10766680797693777,-1.0628565595231505,8.41854652170704,-0.01011391414282553,0.07321948813549149,-0.3315415999142809,-0.18542796851128157,0.005560602743242348,-0.0064931577153125595,-0.04036744696112928,-0.7571146386556674,0.012016479743650117,-0.00164449011580546,0.04859607672898203,-0.44970400157993384,0.05915313361696927,-0.09814943384757634,0.7951675530765616,-1.6180014689044326,0.002479591043669837,-0.0073105942612555,0.03871143531395078,-0.08958988315098854
4.55,0.2699742763701573,0.09423849205787331,-1.0900299740525798,8.423817084477404,-0.009343687142656874,0.06765715581201677,-0.6658857388314914,-0.23812185881465928,0.0055606016875581355,-0.006862336149187549,-0.03320998220344408,-0.7936935025436807,0.012016479743650353,-0.0010713357241966693,0.03809209414911494,-0.4504736616568876,0.05826926656195306,-0.09066305577776977,1.0413922993741342,-1.6074774240042016,0.002479591048995352,-0.006966270866340157,0.032597014309216646,-0.08947776157869008
4.5600000000000005,0.27088800174974215,0.08226654567580853,-0.9902309862398395,8.460783692149851,-0.008636830441366657,0.05858962366890921,-0.9201746332561545,-0.26464492185688926,0.005560599781536767,-0.007104913103052655,-0.021798615566338705,-0.8126576812216323,0.012016479743649722,-0.0005926990905851927,0.01884647096323957,-0.45217480918066644,0.057495399295027845,-0.07984019229984504,1.251287150872303,-1.6043366324997836,0.0024795910619546395,-0.006617680664803601,0.028802446967935606,-0.08947934241975787
4.57,0.27169975302271354,0.07336124577747229,-0.8152822221324343,8.51709407605656,-0.008031359487141211,0.04736376659084928,-1.0624702927352692,-0.2616524097933268,0.005560597470938718,-0.0072200691627055955,-0.007581720655138522,-0.8167556142678207,0.012016479743648032,-0.0003640935037304414,-0.006250631213476177,-0.4546283344270084,0.05686623722839457,-0.06597353528603546,1.383835523586579,-1.6084688011574426,0.0024795910805920033,-0.006275299116951962,0.029571063812601623,-0.08955051100841971
4.58,0.272438902784452,0.0678602899325071,-0.625721285600241,8.582315485660013,-0.007551298617115272,0.035603972890893634,-1.0828632492666839,-0.23255907259692885,0.005560595659640534,-0.0072200555842720565,0.007609738958298731,-0.8080288186706669,0.012016479743645505,-0.0004978722008901896,-0.03217414288052599,-0.4574274732847032,0.05640192769855481,-0.050339164562499476,1.400722147640035,-1.6185436594627882,0.002479591099018338,-0.005943588137831816,0.03569718240803954,-0.08961374476202329
4.59,0.27312774432397674,0.06492393085247126,-0.47046894815727713,8.65147952921996,-0.007202665335798167,0.024805667723825777,-0.9939785336133629,-0.18685484673450506,0.005560595530092573,-0.007104865872082341,0.021819209323034754,-0.7857143888089346,0.012016479743642899,-0.0010069316694925356,-0.05303642899416166,-0.4600255225185649,0.05610062494130157,-0.034899485621172975,1.281295444931012,-1.6323592715290405,0.0024795911080303184,-0.005600325270573454,0.04617494946865106,-0.089596191817249
4.6000000000000005,0.2737755250779741,0.06303332705243408,-0.3716553452365994,8.725993297029786,-0.006974288133310263,0.01599416977601813,-0.8257427625336393,-0.1378704175715678,0.005560598122278579,-0.006862241707332412,0.033216174582106094,-0.7479999239235693,0.012016479743641456,-0.0017866565953200354,-0.06380080329299458,-0.4618935249279739,0.055937659777162606,-0.02173381325023768,1.0330311240548113,-1.6473894896159382,0.0024795910977222914,-0.00519152212589531,0.05816694741587989,-0.0894602887989832
4.61,0.27437963572632285,0.06070492282263507,-0.32015647848583856,8.811430752446908,-0.006842899257829143,0.009568153070309207,-0.6165047367829829,-0.09965346758623551,0.005560603738500585,-0.006493010719090401,0.040353950080788396,-0.6966662554460831,0.01201647974364256,-0.00264543707479349,-0.06185758248608536,-0.4627071136295253,0.055871034896604464,-0.012439426289982226,0.6935059692209946,-1.661348483496479,0.002479591061960312,-0.004656412266496013,0.0674031942095836,-0.08921320213401183
4.62,0.27493290882082544,0.05715708230150379,-0.2831894203376944,8.913057591470592,-0.006780061979934997,0.005363281906305143,-0.4035839914527425,-0.0837888776287276,0.005560611366225818,-0.006034908879723673,0.042422949262507254,-0.6407182680909488,0.012016479743647147,-0.003368842511632693,-0.04789528918880611,-0.46247679976394795,0.055850927873096694,-0.007718629757262147,0.3229975519705608,-1.672632900535345,0.00247959100359428,-0.003976115639152089,0.0690504052296239,-0.08889740243172048
4.63,0.2754339032391259,0.0526646539000267,-0.22058451948833827,9.031064543877305,-0.00675808739362875,0.002875277936701558,-0.21611045330112158,-0.09690141678427752,0.005560618413911105,-0.005560478208694263,0.039442310229505985,-0.5951816912573734,0.012016479743654971,-0.003790181304508107,-0.02573721169785871,-0.4615421345157279,0.055830288885271334,-0.0072632490283813635,-0.0099550077504429,-1.6805802668986247,0.0024795909382679606,-0.003220140459334103,0.05892846571649178,-0.08857445565240067
4.64,0.27589588924022623,0.04846375801237541,-0.1030346001049458,9.15775875923645,-0.006753423771256069,0.001527782391386234,-0.07177232804170681,-0.13925622024005216,0.005560621071657321,-0.005150293987542817,0.0323052425564337,-0.5747213208868385,0.012016479743664052,-0.0038417736084484506,-0.0011862861921935381,-0.4604264434545447,0.055773938362218584,-0.009931202951786365,-0.2455396429872608,-1.6855405802060581,0.0024795908941354036,-0.002559839512163721,0.03477119607035698,-0.08831108497726738
4.65,0.2763502717599142,0.046251213704400794,0.07493413356147317,9.27823786708061,-0.006747866490967548,0.0008755858462035965,0.02261323518695494,-0.20456590601201807,0.0055606154816274225,-0.0048620166319056895,0.022617138446694274,-0.5858103357541449,0.012016479743670648,-0.003570095550852826,0.019720855973158594,-0.4596329419006336,0.05566429488185718,-0.014115865203435872,-0.3472504268857157,-1.688775434207379,0.002479590905247465,-0.002228196406359462,-0.0028603059060316447,-0.08816746964685201
4.66,0.27684175689597557,0.04745708677867875,0.29211891484143276,9.374674904286113,-0.00672887595688097,0.0006790019263378039,0.06821049226266894,-0.28099325428630617,0.00556059961143619,-0.004713570902568127,0.012337038932919544,-0.622664349833559,0.012016479743670065,-0.0031109499558808536,0.032449653407124975,-0.4594857981527726,0.055502866264098685,-0.01816682484155757,-0.3102308303699371,-1.6921733264725534,0.002479590998193605,-0.002433058111814042,-0.05032930383777246,-0.08818326984120196
4.67,0.27741584624297283,0.052561922081459315,0.5084591384617928,9.432717874927244,-0.006689945893181114,0.0008466459149061728,0.07101541323096107,-0.3533559246730193,0.005560575315296529,-0.0046851534172127045,0.0033158385429265017,-0.6699561361823851,0.012016479743658423,-0.0026351362812963644,0.03512420796378433,-0.460077940770231,0.05530764194940841,-0.020749496368341235,-0.16166294966752717,-1.6977515754038555,0.0024795911746672847,-0.0032668063588137423,-0.10143779893758588,-0.0883600786287185
4.68,0.27810342788291165,0.060785183904371806,0.6796953680726232,9.447211469314,-0.00663100712143245,0.0013020354965494721,0.04002792073484518,-0.4064976420772457,0.00556054967612941,-0.004734075396631945,-0.0031263171834295554,-0.7107919877479821,0.012016479743635044,-0.0022859603961515066,0.02877675511051398,-0.4613227197460319,0.05510711450162263,-0.021094124473298715,0.04626206475464645,-1.7069982145687626,0.002479591396180989,-0.004667655304262713,-0.1485412947542859,-0.08864763090749317
4.69,0.2789099490406312,0.0703691879900791,0.7725253116087106,9.4243065091599,-0.0065580846694948585,0.001863134793257072,-0.01287542185322611,-0.4293903006692513,0.005560534549865995,-0.004813124808860988,-0.00645140090910556,-0.7348333127553525,0.01201647974360464,-0.002133585900505843,0.016704753347854984,-0.4630556982307429,0.05493197267938726,-0.019116434898627403,0.24855122861524576,-1.720279392399968,0.0024795915797112982,-0.0064557237550158155,-0.18393339529445296,-0.08894958852675228
4.7,0.27981521157316436,0.07936338783201233,0.7742518579093846,9.378612424639737,-0.006481371010571838,0.0022172793488653047,-0.07228490626284909,-0.4187607640101625,0.00556054349300692,-0.004885000749584675,-0.006915558737437597,-0.7417174014419488,0.012016479743578118,-0.002164128196614247,0.003252733867601622,-0.46511720474850016,0.05480609414294149,-0.015390391876310291,0.3817413270340095,-1.7366148159508166,0.0024795916127643472,-0.008413215559709012,-0.2011679352214298,-0.08916126383918033
4.71,0.280784003956026,0.0864659864798721,0.6938045064642483,9.326796963322098,-0.0064116879516461075,0.002024358528209175,-0.11944965031294591,-0.38051830923331237,0.005560586068740404,-0.0049292984286330175,-0.0053605065484196215,-0.7385447629218006,0.012016479743570802,-0.0023041413514685934,-0.007515621279151477,-0.4673729304050867,0.05473914209395084,-0.010977614876632524,0.3973523073751857,-1.7539553847596001,0.002479591391709317,-0.010350269057487111,-0.1961185191058275,-0.08923072360040148
4.72,0.2817811961773361,0.09140472022383526,0.5549611652191236,9.281185211400846,-0.006356491246256962,0.0011061263781109655,-0.1346915327043266,-0.3277714720610647,0.005560660816076829,-0.004942229173337275,-0.002875119579946934,-0.7338540858800994,0.012016479743597442,-0.0024637977056859535,-0.012833614938851762,-0.4696807090291687,0.054722900363755114,-0.007177814886155504,0.27208047111474704,-1.7697987718606656,0.0024795908779940037,-0.012119775924629983,-0.16772578216164852,-0.08921152830998454
4.73,0.2827826441466936,0.09465332528459611,0.38571422475925826,9.246770243277181,-0.006317120671152074,-0.00038027411812303506,-0.10225591061876399,-0.2758445116169354,0.005560749570869805,-0.004931554742004355,-0.000449625856285486,-0.7318957479861471,0.012016479743664618,-0.0025751976964145276,-0.011702828470744464,-0.4718495514408303,0.05473218793619878,-0.005289669503159592,0.013174919294101731,-1.7818246501656263,0.0024795901549177013,-0.013590182681921642,-0.11843662597295092,-0.08927132251868242
4.74,0.2837771629705056,0.09677229136902735,0.20870450507620988,9.222576080764078,-0.00628835211972457,-0.0018905382815364987,-0.016282433693904277,-0.2364981011808622,0.005560816722042319,-0.004909871875736752,0.001270220103770766,-0.7302189048154663,0.012016479743762753,-0.0026078072005767533,-0.004817065437255639,-0.47363774285044935,0.054729657601687194,-0.006419736379266707,-0.34178480737699235,-1.7883296328473586,0.002479589457306159,-0.014614638224648015,-0.054268791492476605,-0.08963993357018962
4.75,0.2847614843742457,0.09792050198259268,0.036370882206882976,9.205432893678132,-0.006260003998973315,-0.0026135050898068086,0.11457204341679099,-0.2141546123842596,0.005560816634030399,-0.004888805734221842,0.0020706644552046967,-0.7215764489347261,0.012016479743861459,-0.0025580888769614917,0.0058935211874176965,-0.4748081085097521,0.05467292201321697,-0.011306834870556715,-0.7308186899212078,-1.78843892937717,0.002479589143735769,-0.015033011798831028,0.01567832551215316,-0.09051186910551928
4.76,0.28573385219074765,0.09786157613688183,-0.1281029749685502,9.193229443199243,-0.00621943058020805,-0.0017345455032608122,0.2664577806011265,-0.2057345154729076,0.0055607103173886735,-0.004875510597348436,0.0021015178840210666,-0.6988764199005661,0.012016479743912423,-0.002427827018295722,0.01787446354395998,-0.47522367596822385,0.0545223781788672,-0.020128289623505703,-1.0786017649546462,-1.7821715298256173,0.002479589591649206,-0.014718797905604266,0.08046011156731202,-0.09194581211053388
4.7700000000000005,0.2866903647024727,0.09630440708524136,-0.2854649231612176,9.186085078158422,-0.006153787788930561,0.0012478720091705507,0.4050908303174556,-0.20360072353619352,0.005560488499935406,-0.00487172128488348,0.0017043027131919866,-0.6603860805616566,0.012016479743862817,-0.0022121089895017084,0.028536050406634622,-0.47494152259300476,0.054248413238047896,-0.03232954494742153,-1.3112182634413394,-1.7704050676754797,0.0024795910222952847,-0.013652681189054985,0.1292850291675419,-0.0938123699353053
4.78,0.2876242219890772,0.0931733070998614,-0.4335710311870799,9.185913333922304,-0.006051792062399064,0.0062689963106195455,0.4954027776917179,-0.1996601256634432,0.005560193443980395,-0.004874804869894099,0.0012150309964968028,-0.6123621639389216,0.01201647974367871,-0.0019066963672479827,0.03572653054128939,-0.47425642408918334,0.053836949671354654,-0.04658510686861309,-1.3722080002734387,-1.754732223711819,0.002479593301033698,-0.011984502675801261,0.15394711941485345,-0.09582104932293876
4.79,0.2885261012489013,0.08861365807397469,-0.5621009995890313,9.195559274647596,-0.005905471365611813,0.01262028140520796,0.5133642520678794,-0.18869997850377662,0.00555992803102365,-0.004879923153700471,0.000816629015775719,-0.5676310412558783,0.012016479743372764,-0.0015264441408890611,0.038063138419192,-0.4736653151616876,0.053292415612809514,-0.0609727287655923,-1.2366408128027377,-1.737217339762013,0.002479595797119171,-0.010042553944561217,0.1510211795591475,-0.09761721474120216
4.8,0.28938504421895933,0.08288818063316934,-0.6510277576003857,9.217945727476975,-0.005712195052971203,0.019116900946149665,0.4558725399487111,-0.1699893625809098,0.005559840249265611,-0.004882434079648089,0.0004896244455984284,-0.5405811290440867,0.012016479743025034,-0.0011174316011508985,0.03511492730720534,-0.4737546544703347,0.05263752128881359,-0.0733367492745286,-0.9196361728624967,-1.720119303917239,0.002479597406589666,-0.008265358766495185,0.12301854672625062,-0.0989051055681428
4.8100000000000005,0.290190809455655,0.0763875576762278,-0.6737312817253415,9.254934588309487,-0.005476099539374148,0.02448839397150573,0.34467460401704364,-0.14708091657457473,0.0055600764578972615,-0.004879858131333577,7.050852573923335e-05,-0.5407718394035983,0.012016479742782636,-0.0007505623873558903,0.027421755588474712,-0.4750319951691545,0.051909877009150396,-0.08173146833523379,-0.4763514848397568,-1.7056261700740483,0.0024795968216495576,-0.007065489123463188,0.07792737829872787,-0.09954355856001336
4.82,0.2909381403215512,0.06975828654952461,-0.6042022314187596,9.30589811950968,-0.005207235136122327,0.027860328169010563,0.22199525373886728,-0.12630638478607026,0.005560708349593127,-0.004872962126451706,-0.0006125996206970819,-0.5683289398158775,0.012016479742826169,-0.0004979970845791958,0.016331938660923535,-0.4777359666385531,0.05115601021797912,-0.08484309016017096,0.007864185751370335,-1.6955323475463528,0.002479593056864069,-0.006674531266578345,0.027112455893353645,-0.09957777381779609
4.83,0.2916315477307837,0.0639692096925033,-0.4264837928862184,9.366710728502007,-0.004917594275756178,0.029129509207783396,0.138347054589509,-0.1147357958648488,0.005561654361410662,-0.004865701482072137,-0.0015865877146636683,-0.6137485997763418,0.012016479743300144,-0.0004059544003717927,0.003672897299149723,-0.4816874543123136,0.05042334057247581,-0.08233793957142344,0.435953273573015,-1.6907689025166828,0.0024795861219078213,-0.007041700767181389,-0.01779554990033607,-0.09920146691624429
4.84,0.29228832339159055,0.06019042691304326,-0.14359427193788982,9.429928931778369,-0.004615231320447875,0.029061658062173736,0.13591610902003598,-0.11824209126717906,0.005562631080126987,-0.0048639372843544085,-0.002632212210610005,-0.6623665329598633,0.012016479744220822,-0.0004793623882983477,-0.008672247713131607,-0.48627009578242403,0.04975085012727997,-0.07507365169754754,0.7223730700211944,-1.6909141480125094,0.0024795775943890802,-0.007850648566696336,-0.047949240756440824,-0.09867310865785263
4.8500000000000005,0.29293830697747736,0.05952790368190635,0.21708885262357785,9.486166309605276,-0.004299202586450241,0.0290539045870524,0.23283970675846988,-0.13993441735357265,0.005563176059810991,-0.004873078133629696,-0.00329224509822688,-0.7009668773125378,0.012016479745393759,-0.0006848254724147934,-0.019158764995774395,-0.4905967463239791,0.04916031485273017,-0.06504577120433155,0.8151489900929149,-1.6940586854474788,0.0024795707524520975,-0.008670116128972434,-0.05921445713026094,-0.09822343813706612
4.86,0.2936202955195691,0.062751741837403,0.6044371492695556,9.525885930855868,-0.003957755693073044,0.030649984171918755,0.413841038180339,-0.17913558281436112,0.005562772339198843,-0.004895138877073405,-0.003010946368923236,-0.7230982936176203,0.012016479746387327,-0.0009669892229820956,-0.02681808996639136,-0.49382052624880435,0.04865120426304811,-0.05495294914360071,0.7103786543606908,-1.697320809128805,0.002479569946290138,-0.009169890951701566,-0.05241536504706153,-0.0979858568116528
4.87,0.29437578566605016,0.0701047572455987,0.9512286832148439,9.540835894987081,-0.003570475472145923,0.034994074599768825,0.6309229657464063,-0.23132200926350655,0.005561072414895663,-0.004926122125954048,-0.0013773004542208171,-0.7311072768028563,0.012016479746607764,-0.001268991934971271,-0.031270652381747865,-0.4954517798273362,0.048201918893226954,-0.047428028815945586,0.4543576051241907,-1.6978879511039073,0.002479579076539288,-0.0092678696919897,-0.032059845493050194,-0.09796778078003542
4.88,0.29524083589392475,0.08116156783119517,1.1879245237491072,9.52508820521738,-0.0031135098053119642,0.042407313511239504,0.8146966838624474,-0.2893791403121771,0.005558169061943012,-0.0049549596275829146,0.0016055877121288274,-0.7348230967146991,0.01201647974549768,-0.0015503431808686558,-0.032544708052463026,-0.4955261837251505,0.04777755385055567,-0.044201351390167044,0.13185278417981539,-1.6940728209646334,0.0024795994110346957,-0.00910508912956415,-0.004302596884937782,-0.09806986929310209
4.89,0.29623699455258706,0.0947015869270324,1.2595426039049253,9.476171961276595,-0.002566572888731518,0.05219490112627707,0.8934620812228818,-0.3458863313590474,0.005554806571762978,-0.004965255775424681,0.0053345691469651145,-0.74761947526211,0.012016479742831869,-0.0017974633774238806,-0.030824737388366406,-0.49454965598707484,0.04734153182956535,-0.04554904621367847,-0.1567484447578551,-1.6858635829707973,0.00247962743183764,-0.008874187206558009,0.024940021203279983,-0.09814714002184223
4.9,0.2973633694272543,0.10870943478254574,1.1410728091224986,9.39640573532888,-0.0019205838484744543,0.06271940148886164,0.8145107148446515,-0.39550302349206873,0.005552393025302577,-0.004940516537191182,0.008610170408151778,-0.7806702150931658,0.0120164797390211,-0.002020890970239571,-0.026287324548092985,-0.49326642713558294,0.04686713488000958,-0.05025094434009348,-0.3230558937293614,-1.6747961282869455,0.0024796537911299056,-0.008642324578985493,0.0511223250053022,-0.09808682935523907
4.91,0.29859337622403187,0.12070209869721224,0.8465665428635765,9.293689546111079,-0.001184375426443325,0.0717394421649909,0.5611737176203392,-0.4364436768180859,0.005552690128681662,-0.004872332680337126,0.009888188439881802,-0.8368636176463068,0.012016479735278822,-0.0022362466003978385,-0.01913244293058274,-0.49238019318590354,0.04634560080664958,-0.05603866051956532,-0.3149754552668605,-1.663358012110925,0.002479664534154597,-0.008304675558633654,0.07138472328085124,-0.09786539838354137
4.92,0.29987916886297394,0.12839880186162922,0.42834060193943196,9.180797951537224,-0.0003879957339871271,0.07696714033526467,0.160232453388004,-0.4704555537112118,0.005557141800136791,-0.0047693148568464985,0.007751583198271018,-0.907087721182404,0.012016479733489056,-0.0024376368647995345,-0.009801120390757726,-0.4923579395314438,0.045789061157214886,-0.06032461828238609,-0.13047049360813678,-1.654252352475117,0.0024796453023873876,-0.007691372328624147,0.08439404286028805,-0.09755697684242935
4.93,0.30116327228731393,0.1304445039988034,-0.03450326582280611,9.072997862006206,0.00041980461765513165,0.07671063998327414,-0.32285266859056777,-0.5013456949548343,0.005565953279625722,-0.004663010668931457,0.0014764901123029113,-0.9718957748394657,0.012016479735667124,-0.0025836766422528226,0.0007554816383527529,-0.49337461545372263,0.04522799890632807,-0.06095691301600948,0.1832115792721749,-1.6497253495874278,0.0024795881753711477,-0.00673235749479747,0.09010204081237659,-0.09729231208001735
4.94,0.302393070598705,0.12680596813677325,-0.4556313962228368,8.984828138077026,0.0011803516464055361,0.07039291737381,-0.7997336048622765,-0.5326781549429334,0.005577211625854499,-0.004606421388003423,-0.008506439153521264,-1.0093420334017167,0.01201647974304269,-0.002613201521300676,0.010953779728405071,-0.4953721093705789,0.04470380813435703,-0.0568045536939112,0.5443426348173318,-1.6510441665311337,0.002479499311021218,-0.00554858846252997,0.0895615974119551,-0.09719117252534398
4.95,0.3035328699610071,0.1186785261528899,-0.7636410846341541,8.927138332373909,0.001837729296752743,0.0587544972321285,-1.1814359162159083,-0.5655517944445007,0.00558647260131801,-0.004661955988425792,-0.020461636548895233,-1.0057343737572824,0.012016479754997728,-0.0024859739944432554,0.01875587992882336,-0.49815906911958086,0.044258011578469494,-0.04805065468896621,0.8607594862655269,-1.6582328151014616,0.0024794040826214736,-0.004400175309368488,0.08464517880590557,-0.09730014617457405
4.96,0.30457032064278067,0.10803691054940288,-0.9201940010983224,8.904965792832808,0.002351269994314429,0.043664362058158684,-1.4005818204469491,-0.5972965833616403,0.005587234645828806,-0.004879176699601087,-0.03163676951459311,-0.9633115871938946,0.012016479768298642,-0.0022202932444580024,0.0221614950586063,-0.5014835452071681,0.04392098925016414,-0.036119331352124896,1.055694023958239,-1.6701945058934196,0.002479345727977808,-0.003530430505393321,0.07744422806064029,-0.0975625320803352
4.97,0.3055163637534885,0.09706669904399583,-0.9285140319709345,8.916399976000124,0.0027039815898433645,0.027609067479556142,-1.4271907355257554,-0.6215986147097654,0.005572501071887115,-0.005268044660123021,-0.03896546483499944,-0.9000295651149174,0.012016479777171686,-0.0018983749622906434,0.01986002903789718,-0.5050539756369938,0.04370391052689566,-0.023231237083431742,1.0876960559057836,-1.6852045118513794,0.0024793744108017528,-0.00301851747859083,0.06936314209670291,-0.0978337302312969
4.98,0.30639892653856227,0.08761658431350809,-0.8296142451987911,8.952743350085493,0.0029045751960675554,0.013033234177487531,-1.2738182209523823,-0.6301295319439933,0.005537189324397151,-0.0057787976049236975,-0.03998750637192223,-0.8411800302019607,0.01201647977467399,-0.0016341465274682312,0.011784151797324597,-0.5085321709088904,0.04359681826474099,-0.01171222758339256,0.9591587228271778,-1.7015265939002977,0.0024795265201347973,-0.0027434446192808157,0.0602786622549557,-0.09794006312083224
4.99,0.3072512407703157,0.08072033150098314,-0.6875524975418457,9.000475888839249,0.0029827864500392275,0.001741954218482486,-0.989202460297488,-0.6153204457188919,0.005480597965098019,-0.006301969935147171,-0.03366961560748871,-0.8073771947366792,0.012016479755436531,-0.001524685286201317,-0.0006790491035831765,-0.5115384523763006,0.04357334885024164,-0.0033052588478284096,0.7117836160737899,-1.7178326478521573,0.0024797987433171514,-0.0024842682365757477,0.048317767879991605,-0.0977622553049039
5.0,0.3080973517162454,0.07628324174021127,-0.5685822678724727,9.044974038761739,0.0029798075706629714,-0.005453165713548001,-0.6430789737365357,-0.5734873173783421,0.005407764947058986,-0.006697433192614006,-0.020809693545599382,-0.8054011806127781,0.012016479719223606,-0.0016144134353537171,-0.014934841192814194,-0.5136886068487649,0.043599734801538455,0.001257191447927369,0.41144332158935387,-1.7332805354689784,0.0024801266559719877,-0.0020907851469380233,0.030618365345092807,-0.09730792733187012
5.01,0.30893979935217825,0.07311769452542059,-0.5210154385289044,9.074771133316412,0.002937240183108701,-0.008755376174417096,-0.3072364163521487,-0.5071464753479398,0.005328729023420132,-0.006847115281279777,-0.003847468970843753,-0.8263938009106089,0.012016479674028527,-0.001887671559704938,-0.027822904761215867,-0.5146557717888831,0.04364428610478142,0.002295650370184919,0.12793392134485504,-1.747352962031619,0.0024803810011071914,-0.0016111322947768088,0.004932731924343276,-0.09673233762340964
5.0200000000000005,0.309755345160835,0.06944692384583859,-0.5622124483870764,9.084464333392416,0.002888166107575524,-0.009110548779279283,-0.038496508821178166,-0.4254128077890675,0.005255634249684821,-0.006707234407215409,0.0138614229177574,-0.8515925539733166,0.012016479636910748,-0.0022847728871054685,-0.03644700709492244,-0.5142437658389396,0.043684107607968536,0.0008921737041587253,-0.0838711414892197,-1.7596648794166025,0.0024803937558083083,-0.001288867311312938,-0.02860069655702463,-0.09628659006200639
5.03,0.3105018964840861,0.0637201695501447,-0.676459099383752,9.075018013563275,0.002852591856484721,-0.007782845693958922,0.13193393281909174,-0.3420624761845589,0.005198860130352889,-0.006328566422419256,0.029024729643984264,-0.8621263842843505,0.012016479630850908,-0.0027261730257923736,-0.03893004274574201,-0.5124628142198349,0.04370761048597142,-0.0015711513854153778,-0.19611600724224362,-1.769875542945123,0.0024800184231894367,-0.0014290677201649932,-0.06641924063191547,-0.09621045415912526
5.04,0.3111341417519794,0.05531266311550121,-0.8235567489920986,9.051777763100587,0.002837531340254754,-0.00594778604479066,0.20076923152698195,-0.2717511251215484,0.005163963986007394,-0.005830538114050022,0.039256400234980705,-0.8481431692469977,0.0120164796768624,-0.0031333924403205682,-0.034876547483303794,-0.5095917811438826,0.04371322052258253,-0.0038612990394777977,-0.21069069465586301,-1.777710025829792,0.0024792146900477264,-0.002220047703867143,-0.1018824401794008,-0.09661737445556207
5.05,0.3116205582104951,0.04471264933433125,-0.9542702532166728,9.021718146813424,0.0028404030837859205,-0.0044256329461701245,0.18739267534550438,-0.2255620404149056,0.0051506614257145235,-0.00534561792406921,0.04346764670516431,-0.8133855147022877,0.012016479782493728,-0.0034444075214159165,-0.0254340607045731,-0.5061923858902565,0.04370581132652996,-0.005197261914781157,-0.15319646819939814,-1.7830169791720727,0.0024781298492738803,-0.003618667738178176,-0.12702895069347925,-0.09742356529573865
5.0600000000000005,0.3119539293260391,0.03314258996334163,-1.026770156166414,8.99144028986301,0.0028537559809289357,-0.0035967071475955315,0.12391423936134308,-0.20750714103258,0.005153870887508432,-0.00496727813617727,0.04171896507448362,-0.7734044715327892,0.012016479930293027,-0.0036248153269323354,-0.01296753877511436,-0.5030343459060518,0.04369263060381342,-0.0053488263726483715,-0.06133310986014444,-1.7857960575738554,0.002477134942744576,-0.005354610060128282,-0.13509391253941966,-0.0983524657236308
5.07,0.3121515079021594,0.021927519503614334,-1.0185359244225816,8.96644798654471,0.0028695469276907234,-0.0034680644013475935,0.04424426497758214,-0.2135928307421565,0.00516595523968627,-0.004726473536185733,0.03471731717496289,-0.748401937883526,0.01201648007189767,-0.003672793284286187,-0.0004549054953510553,-0.5009179431455169,0.0436800693521408,-0.004547437143767246,0.027918448780257843,-1.7861786745603279,0.0024767714663031155,-0.007036282648390006,-0.12276327387648482,-0.09901267207246987
5.08,0.3122464942192703,0.012017279653685726,-0.9304759146033564,8.951189198516596,0.0028819111418506146,-0.0038221433921858347,-0.02458145862442167,-0.23409095562844925,0.005179127325831637,-0.004601181809912814,0.023318569841332792,-0.7541761713468103,0.012016480133926703,-0.0036136185465435217,0.009242117083068753,-0.50043485227014,0.04367191812479907,-0.0032802691490144377,0.08832292642116697,-1.7843824045685792,0.0024775828943255475,-0.008297285658514881,-0.09125737533506739,-0.09901611714299383
5.09,0.31227605630849026,0.0038628998939181703,-0.7831135898536276,8.949027150311329,0.002888180154377249,-0.004374811178640417,-0.06697381940511188,-0.25798874565427293,0.005187332488692537,-0.004547376793491725,0.008378521985401479,-0.795211540276442,0.012016480039622923,-0.003485394668195271,0.014074190620937933,-0.5017529427361899,0.04366909117214496,-0.002059838330235352,0.10920027627954677,-1.7806616411055793,0.0024798470810059575,-0.008914423467270316,-0.0458703893862975,-0.09808757714943735
5.1000000000000005,0.31227120075371767,-0.002443549142792734,-0.6073002768494506,8.961759361431918,0.0028885152504435365,-0.004891558433092738,-0.0790734866616385,-0.2774338674065711,0.005187380730800726,-0.004533373622407205,-0.008917300354524132,-0.8623082263003217,0.012016479744720558,-0.003326392684588202,0.013329626991648543,-0.5045143915349902,0.04367037265732905,-0.0012467052742495522,0.09464116836436352,-1.7752621036016478,0.002483283789508897,-0.00885055487893012,0.0057309309545381625,-0.09612435493191947
5.11,0.31225151083282754,-0.006990555351932559,-0.4332218582231647,8.988974669480541,0.0028848084325111068,-0.005241147860895532,-0.06589965517825415,-0.29023952362371785,0.005179402156379087,-0.004561076587114102,-0.026428496241009177,-0.9349115678072725,0.012016479278119302,-0.003173106965063034,0.007876747560353718,-0.5078975168476647,0.043673595593776364,-0.0009672665055941253,0.058537345598751477,-1.768377037285471,0.0024868671139597997,-0.008220263597215437,0.05565342015427414,-0.09319138993367745
5.12,0.3122251804477919,-0.009971732951134623,-0.28134770005825904,9.027841190369417,0.002879482046204741,-0.005393001763229227,-0.03716111832611838,-0.29979571175796105,0.005166760362240747,-0.004664259362058575,-0.040581553234542864,-0.9870913592429121,0.012016478770109515,-0.0030648829469398964,4.1556867134490196e-05,-0.5108309825941016,0.04367674299464599,-0.0011305841390400982,0.017833454728100082,-1.760105407952514,0.0024888966660711947,-0.007214812657332347,0.09748022225178385,-0.08946655388243072
5.13,0.3121930207072709,-0.011685288993239886,-0.15782293110413495,9.073681024889735,0.0028746046606474298,-0.005380828416271225,-0.0034086708531052105,-0.3128973728036138,0.005155454299956606,-0.004883090761093145,-0.046538836128125434,-0.9957522176892991,0.012016478447013016,-0.0030406222945807983,-0.006911447396368491,-0.5122899864139497,0.04367865507498503,-0.0015166356103556793,-0.013551762007664376,-1.7504188596277468,0.0024874443510898205,-0.006028663146067651,0.12696123695349928,-0.08516650818297591
5.14,0.31215422507713664,-0.012493466766981914,-0.0551924609226181,9.121157487909963,0.0028714699129709685,-0.00525892879229697,0.02645787837297883,-0.33642677905632973,0.005152930287232948,-0.005223609444261713,-0.03930359070281587,-0.9489469475193155,0.012016478575387136,-0.003119327959462352,-0.009641023134351346,-0.5115743343639493,0.04367923635270586,-0.001889387425147606,-0.02842384298128211,-1.7391468429170858,0.0024811787718940982,-0.004811193449785082,0.14167753363981667,-0.08047877921296961
5.15,0.3121114893000801,-0.012682389620964506,0.04226581404045346,9.165510854063601,0.002870565238663907,-0.005071804368482861,0.04616900832316662,-0.37386509391511114,0.005166271035221136,-0.005618672924080139,-0.015618157640388498,-0.8511809485099007,0.012016479354014295,-0.0032740735443947005,-0.005759644923787491,-0.5084806554458003,0.04367921993184359,-0.0020884294277772695,-0.027035228294198625,-1.725990699161764,0.002470389309914104,-0.0036506610281170546,0.14018679740820025,-0.07551054416023556
5.16,0.31207364005581234,-0.012285775122768265,0.15060894087362617,9.203317410250918,0.002871746379261914,-0.00484644557997935,0.05207678230838009,-0.4226874528905306,0.0051999992052473324,-0.005910620292247202,0.02397530693966511,-0.7228070878937009,0.012016480776599683,-0.0034207275732782375,0.005253976971375105,-0.503322949021934,0.043679643904129956,-0.0020707712711269875,-0.01528904220628694,-1.710577958339747,0.0024578392386635046,-0.002592644368587936,0.12140408723986876,-0.07025442197133906
5.17,0.3120551432905224,-0.011006708289403151,0.27842763226327916,9.23260960045002,0.0028744372220742996,-0.004604443486341672,0.04296450408338026,-0.4736307306300414,0.00525414750802242,-0.005872877257712181,0.07386153928466169,-0.5927906766324248,0.012016482515840275,-0.0034379587519825718,0.02158828518293805,-0.49680547911256245,0.04368123719683446,-0.0018985943000261064,-0.0015437633949847802,-1.69255569399397,0.0024489615735080192,-0.0016871537112403848,0.08483518398906306,-0.064571416415174
5.18,0.31207320285733237,-0.008330557578961395,0.4218571883802084,9.252549896920467,0.0028777606457611633,-0.004381388940121274,0.0203083275208399,-0.5123504195201102,0.005323541797130533,-0.0052762010425304725,0.12376986891964081,-0.48736690472099575,0.012016483898402685,-0.003217172799263133,0.03932264603762839,-0.48979514985963724,0.04368391864383407,-0.001689341448402119,0.006708395305248894,-1.6716910584840003,0.002450976531699943,-0.0010352902590024086,0.03181657977063487,-0.058194508661918526
5.19,0.31214392410156133,-0.0038034005472076604,0.5641971049341545,9.263018816408067,0.0028806233227902187,-0.004236317634607232,-0.010871962623603416,-0.5233105262729381,0.005399038798225828,-0.003985913862051824,0.16130149482310308,-0.41959364469755206,0.012016484035907517,-0.0027206746979009516,0.05337679226249053,-0.4830664146697776,0.043686593937438505,-0.0015566287242903556,0.0052897567781282,-1.6479208820646085,0.002470828362227368,-0.0007906749306207882,-0.032674266670947257,-0.05075497032002199
5.2,0.31227894519842025,0.0026597664040653004,0.6804034846488981,9.26446735274067,0.0028818738627547974,-0.004235535767928082,-0.04100924822050764,-0.4950526417905561,0.005470569928770144,-0.0020542834083354332,0.176174558685654,-0.3846655349957428,0.0120164821379197,-0.0020161621156203555,0.05895437546827067,-0.47709370720786937,0.04368738494577344,-0.0015695528431674236,-0.005597726463315445,-1.6213058887670426,0.002512395222516228,-0.0010977133653715285,-0.09853392827899561,-0.041826407635210665
5.21,0.3124833353171029,0.010601568413755934,0.7450192260912305,9.258177077906968,0.0028806911930483836,-0.004403219311468094,-0.05565157606974025,-0.4251397010066003,0.00553071447690568,0.0002425802361230165,0.16495048454253036,-0.3626833663371343,0.012016477958339274,-0.0012647285214101094,0.05303712585239058,-0.4719470544353648,0.04368432977970278,-0.0017424648475513583,-0.021718654126131286,-1.591903661416621,0.0025740580992077303,-0.002003025715029481,-0.15038084521731707,-0.03097714173574142
5.22,0.3127549495920645,0.01908373808555805,0.7408677006154126,9.246672145265109,0.002877324476676941,-0.004644661509180908,-0.03661237525531746,-0.32243455759163747,0.005577115075787839,0.0024676897296978233,0.13449993950844052,-0.3266705170532171,0.012016472232632703,-0.0006643667336723745,0.035430538638489883,-0.4673138319455282,0.04367644261454542,-0.002046784134697822,-0.03626180308599873,-1.5596348907171942,0.002648093320593337,-0.003396180747255067,-0.16941648050777552,-0.017827281742621787
5.23,0.3130852127610376,0.02697167938753021,0.665552933799264,9.233703237306317,0.002874210983315606,-0.00466460679860904,0.03498775548122526,-0.20502455163189223,0.0056128526680043695,0.004194825972305949,0.10260006910031517,-0.2520342166313685,0.012016466885112565,-0.00037620370555620735,0.008997714727768842,-0.46263146341598005,0.043664839418204704,-0.002426586367810482,-0.04196304649373541,-1.524226286137615,0.0027230506627100044,-0.004996118638643631,-0.13727832114168584,-0.002118837596354348
5.24,0.31346137670508084,0.033323657385012834,0.5335971149202351,9.223391111705464,0.0028773809146591042,-0.003918586365863758,0.17408966277022797,-0.09441992130544885,0.005645304256783779,0.005242684042132309,0.09489048324635564,-0.12461891460150287,0.012016464770643184,-0.000470471242417059,-0.021007780678998125,-0.45728342032903274,0.04365347806144964,-0.0028058718423147415,-0.033418704577324314,-1.485262911882451,0.0027890902570443066,-0.006351140244367216,-0.04099377699808412,0.01618717402891718
5.25,0.31387004254025247,0.03770064497383128,0.37356447042147345,9.218818289839922,0.0028979573045706444,-0.0016407325768865993,0.38650947545095266,-0.009115411059623641,0.0056849035626076105,0.005878403700150809,0.1387043414115455,0.05425203388240974,0.012016468807830834,-0.0009161439024425939,-0.04829999898030736,-0.45079426645899245,0.04364901957805313,-0.00308897552838977,-0.009116036101727827,-1.4423172456644844,0.0028446459924612835,-0.006823220998951736,0.12258349125419164,0.03678577738200704
5.26,0.3143008635980727,0.040233982721254426,0.221142777130303,9.220986942793973,0.0029534714182169737,0.003026162276913329,0.6646987743630622,0.039123283647847874,0.005744987626731293,0.006885261049407615,0.2555321177087763,0.26702594382794753,0.012016480577677253,-0.0016099398719659644,-0.06719136062185267,-0.4429598057659639,0.0436594830973498,-0.0031653931991298904,0.02730223799252825,-1.3950871262700704,0.002901780581053255,-0.0055805203781084224,0.34471229074137255,0.05890940077821537
5.2700000000000005,0.31474871210060423,0.041432190089908144,0.1102850724585872,9.228907041257115,0.003068563937413831,0.010817671583595917,0.9859432990169731,0.04529673085399579,0.005842745509503737,0.009426520967439143,0.45452000260023717,0.48428645253462654,0.012016498768044814,-0.0024186003105787232,-0.07402442256847884,-0.4338672227203715,0.043691778134789166,-0.002931030394522416,0.06700945534107862,-1.3434766365344601,0.002987814318113538,-0.001673277427397503,0.6064118587725473,0.0812895412269354
5.28,0.31521341328509284,0.041901767026918064,0.0648674269108208,9.240670750730635,0.0032744038336597146,0.02212187611337021,1.3139722257895716,0.009397771404513889,0.0060000902094559045,0.014724396320818922,0.7291183551757925,0.6732893860067356,0.012016518141035524,-0.0032097562929641263,-0.06802715762853596,-0.4238029774509487,0.043748774420463946,-0.0023295134542568466,0.09755088581499005,-1.2875821879079894,0.003141949777616755,0.005739654807258404,0.8838294112789613,0.10228072072950233
5.29,0.3156980704403921,0.04221499412489154,0.09297832622324279,9.254573741691422,0.003606081036953,0.036828373323039267,1.6040698796431483,-0.0646815367005309,0.006243102771025943,0.023678348683867142,1.0578521286496874,0.8075407742975871,0.012016529835697638,-0.0038658625059778593,-0.05139873807797026,-0.4130978574627135,0.04382706083321025,-0.0014030854796421915,0.10602855707166244,-1.2275948039826339,0.0034072413482597293,0.01704219547291963,1.155567089285234,0.1201754711477093
5.3,0.31620789820600687,0.04298252414116097,0.18520381228197896,9.269483106237992,0.004097709039097249,0.05430362021163318,1.810814018283573,-0.16873339606219626,0.006599775954479008,0.03660017660669759,1.4086700575756983,0.8738681830446237,0.012016523631953808,-0.004293045325339778,-0.028640476428228565,-0.4019807017773475,0.04391656400862924,-0.000328901992488886,0.08348158519330863,-1.1636766808880246,0.0038203191547866323,0.03186411878208405,1.4087552472785405,0.13363385889137064
5.3100000000000005,0.31675004967742776,0.04493163622684857,0.31734207310717033,9.284582527184721,0.00477597881711441,0.07347627999561886,1.8967940312700566,-0.2895097022335471,0.007097161610545492,0.05318714456741404,1.7451228318621155,0.8751364213542101,0.012016492198414013,-0.004437846976246444,-0.005328853619749247,-0.39049001729089894,0.04400250149402463,0.0005890877752825168,0.029496847321430875,-1.0958780501558383,0.004403236929463782,0.049087726674193234,1.6404512800891802,0.14204597525658427
5.32,0.3173327964106419,0.04873709364197351,0.45695389404023223,9.299328851436147,0.005653832659988176,0.09297138047649214,1.8402939551404929,-0.40971670327194293,0.007759453451350496,0.07271326531164997,2.0322575075330103,0.8286193343513736,0.012016436382207847,-0.004309890808304363,0.013342748451923177,-0.37845712743328935,0.04406907507179937,0.000994953312710331,-0.04429422676330329,-1.0241284980043543,0.005162071090884072,0.06729965759062462,1.8525685302264239,0.14561375828484338
5.33,0.31796249110787345,0.05460904233736752,0.5720978318599419,9.314110010713835,0.006726203922724826,0.1112496375364277,1.6400522602942427,-0.5119505734656187,0.008607618329612744,0.0942940384127083,2.2407057488408615,0.7608421232042039,0.012016369538774392,-0.0039918419185208534,0.023869191720319555,-0.3655588217798464,0.044103702940786846,0.0006252002514710127,-0.1131939638037728,-0.9483109194551556,0.006093992905688711,0.08552392174259935,2.0417188843400886,0.1450422406333076
5.34,0.3186394828875852,0.061972655735969794,0.6397686561424598,9.331010256213533,0.007969307703244157,0.12676811253926545,1.3158263171097009,-0.5846535019243844,0.009659713123185963,0.11706389133336897,2.348616475452424,0.7001416577110234,0.01201631821063849,-0.0036183884335944014,0.02523431170911786,-0.3514345652984816,0.0441008817198599,-0.0005014609538476898,-0.1417999579425938,-0.8684269071809106,0.007199131870022807,0.10375911455131662,2.188762267869797,0.14096828725159866
5.3500000000000005,0.3193566268944065,0.06960540812348841,0.6514085621264102,9.35345726989225,0.009343962599028855,0.1382056263349863,0.9044987184895145,-0.626938947525852,0.010930260233041172,0.140198679720459,2.342195417306795,0.6688153839627573,0.012016316701586396,-0.0033268058880412043,0.018988304502111843,-0.33584495779829326,0.04406543603325475,-0.0019060071017351244,-0.08980396788346529,-0.7848476735936799,0.008489145121799867,0.1228344236932578,2.2545859597850155,0.1334953644300999
5.36,0.320103116035585,0.07624662075316233,0.6137399425252327,9.384226306363798,0.010802110447414859,0.144735963987634,0.4526613360483511,-0.6488114726705589,0.012427618463999793,0.16283274591017619,2.2160981592437254,0.6771560165862776,0.012016394676970655,-0.003204189944122175,0.008592226167541723,-0.3188119489434966,0.04401514457324048,-0.002566362530213444,0.07972357187907236,-0.6985826649990323,0.009985027647712464,0.1435272413676718,2.187194507862796,0.12223107071521296
5.37,0.32087239018733216,0.08128481298214492,0.544918247915602,9.422877750484446,0.012294493230951376,0.1462329495274779,0.0076719476879412735,-0.6657930763903858,0.014149752518797996,0.18397990262260908,1.974579930304573,0.7214588818487674,0.012016559853088724,-0.0032598567178020975,-0.0017538889949562703,-0.30066408987750426,0.04398237691956585,-0.0010033202139630305,0.3913324182581682,-0.6114404916663729,0.011702846492797086,0.16545464446767041,1.940538256026745,0.10694867746571582
5.38,0.3216692169877648,0.08503923247264578,0.4678538300427709,9.464705252753415,0.013777037421383637,0.14327431697374557,-0.39030058330266193,-0.690686289754555,0.016080252556677,0.2025541527079171,1.6333775925708356,0.7870117797319545,0.012016781455883294,-0.003434394408126762,-0.00842021272689116,-0.28194722134050954,0.04401397387172086,0.004459969244537817,0.8495845118659089,-0.5259837516156947,0.013633943445537804,0.18650038597373714,1.4994319482587721,0.08856738011191734
5.39,0.3225106563746738,0.0884413686534372,0.40350650001517485,9.502538311002326,0.015214354444820518,0.13691802845549372,-0.7130482595460109,-0.7272821940171191,0.018187010054396574,0.21752264345634165,1.2213129268855418,0.8551766338918889,0.01201698304633797,-0.0036345100481260722,-0.009378685100801443,-0.2632340510416558,0.044168746301840374,0.015352534595405127,1.434707938915644,-0.445282192973957,0.01573090960445721,0.2032835125441896,0.9003491030980081,0.06983483712737545
5.4,0.3234189770758286,0.09234760009086228,0.3664607171685632,9.530691358719958,0.016580384513136613,0.12835830696730702,-0.944893559623752,-0.769549607487445,0.020425114758998893,0.22814110906024027,0.7800877174767735,0.9116485430072828,0.01201705368243206,-0.003771271291139646,-0.004647535280739775,-0.24491584722524776,0.04451272971247289,0.0327550388015321,2.102673798474789,-0.37254661820096535,0.017909180914746962,0.2125522034637046,0.23743253511411314,0.055119960571910535
5.41,0.3244098633656407,0.09697397403310433,0.3634796681171539,9.548583289802744,0.017857367510587967,0.11862055175693219,-1.0796782153060813,-0.8061401374042636,0.02274362926734679,0.23416749129869527,0.3609719443736958,0.9520602927714812,0.012016882554069814,-0.0037845332226573536,0.003954337089514879,-0.2270561672187984,0.04511314974725832,0.0571307063040415,2.789935539769506,-0.3107138089909078,0.020066448723463786,0.21276375381141543,-0.35243586888617007,0.04916227032594315
5.42,0.32548312085555925,0.10185744290864773,0.3940843094803043,9.561478112403273,0.019034420535194153,0.10842119349873644,-1.1162200185807711,-0.826888802776321,0.025094132927484886,0.2359666085591145,0.01800777409220581,0.9822837015735102,0.012016413634787497,-0.0036506578637450575,0.013614156686214185,-0.209351005100945,0.04603223151189239,0.08828147822962447,3.422182187475806,-0.26200456893319957,0.02211278510935406,0.20498767434633022,-0.7237452681181379,0.055259041207195374
5.43,0.3266224141373113,0.10636035917690903,0.4515982065220936,9.577575749206561,0.020106579082488675,0.098245493595078,-1.054827137593707,-0.8276741640869127,0.02743844792618149,0.23449082998349116,-0.20137083355762186,1.013769902194916,0.012015705012905414,-0.0033811308266797407,0.02158381539711828,-0.19119904579803104,0.04732146624905337,0.12536174870717584,3.9257339335981145,-0.22748742599671762,0.023999728816405812,0.1927712938054606,-0.7657959243614406,0.07374061470430804
5.44,0.3278050593965728,0.11032301866676053,0.5238635013639886,9.603117168663061,0.021074844741730107,0.08859260390557594,-0.8967976087583095,-0.8118139029568728,0.029753811389361434,0.23117323442919238,-0.2662279742907062,1.057048968136554,0.0120149663399008,-0.003019746692584758,0.026106292525784947,-0.17185351316744932,0.049016409633166357,0.16690048706371607,4.239673262116186,-0.20675501509972655,0.02573816771490277,0.18119426729379445,-0.4408130779492003,0.10143272085707188
5.45,0.3290160203692612,0.1143440646890914,0.59425476717944,9.63858282553861,0.021947469469412218,0.080224718022785,-0.6472160723557673,-0.7878972487998303,0.03203502406142343,0.22775771695767041,-0.16980375973801437,1.1169188976319184,0.012014543177182164,-0.00263794002403334,0.02687910756822107,-0.15061454300555102,0.051132198322657384,0.2108541424251776,4.326471847653956,-0.19786724834640015,0.027399322768736894,0.17551274729844699,0.19731089704507265,0.1323383616420945
5.46,0.3302569114543771,0.11943112591806115,0.6444338669626274,9.678488664086867,0.02274203866284132,0.07422406409309878,-0.31953091687687574,-0.7649976387803432,0.03429390240346841,0.22605774032492784,0.06757434192817721,1.1910188830893376,0.01201482504479316,-0.002320030536459334,0.02489263725496367,-0.12702319791852648,0.053660698364058526,0.2547600632706324,4.178848564642041,-0.19765702892581585,0.029098034358662424,0.17972744601051333,1.0116965913213045,0.15931274615684463
5.47,0.33154384170297235,0.12623602057898273,0.6596221517397876,9.71503223040349,0.023487023764687774,0.07177093886988138,0.06075790090940455,-0.7473483220328222,0.03655647548788828,0.22764367541243544,0.40185471094485437,1.2714566408901318,0.012016078096732418,-0.002132625541339334,0.02172102361394116,-0.10101274828653983,0.05657073891885755,0.29603424139988105,3.821063404049126,-0.20235450596634283,0.03096278846516469,0.19541829092092633,1.8173583713062764,0.1761712758746618
5.48,0.332895674857868,0.13443316980345435,0.6352399057602092,9.743285940924723,0.024221043583661547,0.07373894420140713,0.4558570862762724,-0.7314483951547018,0.038858194902671395,0.23351134473337695,0.7746810264652765,1.3481202840385573,0.012018241063337733,-0.002087944277447373,0.01857868983152809,-0.07296045416827601,0.059812385027789995,0.3323825299729365,3.3039419103249976,-0.20836536168340083,0.03310147438070001,0.2211976608702648,2.431859421081708,0.17950921478147835
5.49,0.33432101487399496,0.1427420441776358,0.5818575357079739,9.764501235585644,0.024988757617940557,0.08031977770239469,0.8200829061987276,-0.7077462431794606,0.041237537102805755,0.2438394474907815,1.1267163826452826,1.4118956808311924,0.012020763805105321,-0.002127662114814723,0.01559115431425016,-0.043594795327537135,0.06332473200454408,0.3622255619513769,2.6945162784795618,-0.21299876057411019,0.0355736400130862,0.2530008262447594,2.725553044901614,0.1696102484516706
5.5,0.33581270892496373,0.1496497755235536,0.525026761843686,9.785299564117604,0.025833989822194422,0.09087018675154326,1.1081310826392095,-0.6663901055289353,0.04372905498148701,0.2579542975140144,1.411231463578697,1.4562621749273437,0.012022593375984136,-0.0021505692138394546,0.011683757469802375,-0.013763143283784727,0.0670452349540049,0.3849998013795218,2.0628142811497012,-0.2149436733422552,0.03837808808586692,0.28520621963268117,2.655121162789363,0.15016573117239554
5.51,0.33735301190800854,0.15438911126905516,0.49837855272281206,9.813258099818556,0.02679230427245832,0.1040529690251207,1.284752492966254,-0.6039056469166233,0.04635782723869547,0.27455768807236,1.6038922171384202,1.4771341166763108,0.012022401868670898,-0.002076386500522353,0.005246131137130884,0.015868949578418067,0.07091795965180411,0.40119814312761776,1.4693637182617838,-0.21430976529027074,0.04145959764766777,0.31232522957380543,2.269893908960302,0.12695221920768343
5.5200000000000005,0.33892564294224287,0.1575396951607803,0.5316451944293343,9.851637245645275,0.02788567772040458,0.11819986357541358,1.3327193912454462,-0.526993246664376,0.04913745294867711,0.2921574435134484,1.7056442981359468,1.4724094464346067,0.012019088383718082,-0.0019046310976853793,-0.0046410108264978035,0.045069786716423456,0.07489851993569803,0.4120830599929053,0.9568342856467206,-0.21215946362072804,0.04473192213797031,0.33075654978256797,1.6900817546234845,0.1059431420491855
5.53,0.34052732705989364,0.1608545499236622,0.6381963794018665,9.896330518423294,0.029120861085079986,0.13173245421042926,1.2565617780288016,-0.4512466515627258,0.052072551205657056,0.30954075126501795,1.7377558573025402,1.442655334902896,0.012012476016454509,-0.0017255806352523726,-0.016967642252128472,0.07413318636557446,0.07895469523328659,0.41916023795107266,0.5477716586883443,-0.2097034574405908,0.04810820823242802,0.33994287574134335,1.0659563713076448,0.09148571207991023
5.54,0.3421723334418781,0.16639026151427327,0.8075159525750374,9.936683301088467,0.030491220594787517,0.14348041426671124,1.081044963211981,-0.3953260919916554,0.05516456166029779,0.3261074978696397,1.7307491266004118,1.3926873729870135,0.012003991527890114,-0.0016725093928608198,-0.02822156865173763,0.1037617965956395,0.08306349933894083,0.42366030200626664,0.24807077227387067,-0.20755310069381958,0.051526845816368405,0.3423351379940604,0.53327371143246,0.08516834036241118
5.55,0.34388788108398105,0.1754440323573579,1.006165046228483,9.959663790321112,0.03198043006224235,0.15281406864056177,0.8450553326649312,-0.37346181348535507,0.058417834925759006,0.3419363561163402,1.7111410238151863,1.332452560040373,0.01199701534442036,-0.0018417909182302328,-0.03296784954276034,0.13478677716408585,0.08720704515067866,0.42629413064342203,0.05365478882500633,-0.20541028016769555,0.05496263826382555,0.34203208955275327,0.18030027189334902,0.08580959717236003
5.5600000000000005,0.3457036272274819,0.18791509500367035,1.1871007133400946,9.955100112292632,0.03356616761018565,0.1595999862495537,0.5927969476187973,-0.3899897391714253,0.061842673555869795,0.35755856055598056,1.690745945695613,1.2758816758716427,0.01199659301209444,-0.002223725373611936,-0.025597982900868285,0.16784191734352813,0.09136989142881251,0.4273776109044248,-0.04320913958335834,-0.20232356805447918,0.058420615145791964,0.3427370514711214,0.03576001817858852,0.09055389184563024
5.57,0.34764150453114623,0.20242636101241335,1.303666883721479,9.919275773249694,0.035222896615566684,0.1640529884314821,0.36463385825773276,-0.43843480029015064,0.06545333831985582,0.3735329237778171,1.6623827541127123,1.2375772193550485,0.012008364042397652,-0.0026770245330925094,-0.0026959931021913286,0.2031269002675381,0.09553935155651416,0.427192003309846,-0.05088365578860303,-0.19732753497625521,0.0619191327198207,0.3461944320531317,0.07770687105534266,0.09649416473482651
5.58,0.3497108732981784,0.21705327322977402,1.3229250435213398,9.855375882173682,0.03692398587889559,0.16658250584836493,0.1896042807045869,-0.5050762697410152,0.06926145236707196,0.39000978538317443,1.60347141232017,1.2282561198159527,0.012036894921558017,-0.0029566050643640087,0.03495076769852326,0.24034469023495644,0.09970834070589887,0.4263224735919969,0.02048988741796621,-0.19008778555787528,0.0654738248129832,0.351988149285093,0.25509469226348486,0.10193993161536881
5.59,0.3519096314319428,0.23016735617355524,1.2338767846267653,9.771206573590426,0.03864393559001241,0.16770137783138123,0.08091543624043072,-0.574705541484302,0.07326759986548854,0.4064845616685734,1.4860909587183695,1.2504930820975755,0.01208400768144933,-0.0027841554984187164,0.08171910659163943,0.2788107639559837,0.10387889187219064,0.4257564048805218,0.1552201600055136,-0.18118868403471036,0.0690912888109523,0.35865365501725976,0.51036210271562,0.10669368623794238
5.6000000000000005,0.35422821554203876,0.2409314955093781,1.048772729585484,9.675923618298546,0.0403611259899154,0.16798672503614628,0.03496186363663663,-0.6358236705458671,0.07745507699656756,0.4218524848604364,1.2897183686520852,1.2965902827481637,0.012147952864502867,-0.0019397805111090404,0.12851705684776552,0.31766318613298894,0.10806403357611959,0.42667288868629666,0.32882714397816476,-0.171913457693624,0.07277377504801216,0.36520777671389876,0.7938107936901163,0.11135090964721812
5.61,0.3566527546193102,0.24928206753845164,0.798509998054732,9.577600399147014,0.04206073904991843,0.16802041658325403,0.033790150851472314,-0.6835962816612118,0.08178905042917778,0.4347356508874616,1.0119619016568726,1.350074606147095,0.012224079281779838,-0.00034657805181995875,0.16601752363850925,0.3560887447864882,0.11228627617978754,0.430025415228616,0.5084192345781059,-0.16365202650468966,0.07652906522608613,0.37203840827974094,1.0669801480716108,0.11623886134114882
5.62,0.3591654699683473,0.2555383964035683,0.5246991738216003,9.482612361665785,0.043736869356690355,0.16826040587606544,0.05045170523882562,-0.7202615831103619,0.08622195693448595,0.4439396051658005,0.6734325905394514,1.3910057542441627,0.012306879008210788,0.0018838805949252051,0.18878438285883198,0.3935068702149863,0.1165722905821048,0.43612708857863564,0.6580184748482534,-0.15725051276233326,0.08037710435983098,0.3806391016152084,1.298770631160916,0.12076680204877095
5.63,0.36174291853454654,0.25994213475754036,0.27091617423227327,9.396559484489496,0.04539266273499092,0.16888374180003168,0.056245223036590075,-0.7534053006218946,0.09070298512428984,0.4488546354113002,0.31506511702161905,1.403276350434069,0.01239238863453768,0.004473798878754254,0.1987353939749288,0.42967707513804987,0.12094512103935312,0.4444478552517239,0.747576856844723,-0.1526019603742397,0.08434753015293071,0.392475880393363,1.4612451773999813,0.12362029353362189
5.64,0.364354669951665,0.26244011142692786,0.07460021170371642,9.325377282253848,0.04703776723910836,0.16970425895224897,0.028422033795926113,-0.7925164399023044,0.09518770823940612,0.44965273004572337,-0.01117684436036526,1.3807119365807476,0.012479776043636117,0.007082540305068703,0.20636082596805128,0.4646936023078117,0.12541677684217686,0.45374328189371926,0.7622744703895737,-0.1486407802174012,0.08846824025328062,0.4078104038572645,1.5305790884867494,0.12363748140186748
5.65,0.3669656839856684,0.26287958630450425,-0.039850530117848865,9.275056516111443,0.048683463349340206,0.1702385317970362,-0.043375445231867246,-0.844349007115738,0.0996444694092414,0.4472275687050918,-0.25516587175642846,1.3292137639431545,0.012571835221072244,0.009477119009464416,0.22875781605756346,0.4988303245481894,0.12998438903681817,0.4624986370003375,0.708058121286199,-0.14374518829517013,0.09275118825443135,0.4252727543592392,1.4939854623205435,0.12072910672597717
5.66,0.3695440427642746,0.2614935135186864,-0.06624549078732489,9.249392139661323,0.05033709464535318,0.16989602250472452,-0.15364606037618592,-0.9085137691528834,0.10405629408962623,0.44293819917072647,-0.3810750084630287,1.2641679776370032,0.012675180498672873,0.011717805215999749,0.2846864629569256,0.5322545503745634,0.1346317547403207,0.46952622918631365,0.6106234244576042,-0.13639683444937303,0.09718397245600668,0.44243661621156166,1.3586721798258186,0.11616851166246556
5.67,0.3720719042372589,0.2592717953588635,-0.018779665058977626,9.246975140704821,0.05199797825997149,0.16819466914018047,-0.28172618035291247,-0.9757103639515063,0.10841926733128132,0.43828444433749403,-0.37588122138090124,1.2045808212790092,0.012801006286537646,0.01426945543639097,0.3880871528899701,0.5647369866222033,0.13933555852890997,0.4744493361704604,0.5076182171358414,-0.12581437570442008,0.10173270678496343,0.4569892459781206,1.156759670756541,0.11202497750473407
5.68,0.374553896020362,0.2578006354992432,0.07049467676629757,9.259898618967204,0.05365641675507542,0.16492245648305634,-0.3968576806623414,-1.0304619178245717,0.11273937240096006,0.43462814776368947,-0.25177417935841534,1.1667665410510655,0.012966234581415811,0.017944606971847736,0.5422898906527313,0.5955431304321799,0.14407339380684223,0.4778211298372684,0.4365728471477491,-0.11225437769972095,0.1063551081693546,0.46776438188430025,0.941597858416034,0.11011296403282099
5.69,0.377016824552896,0.258507563590078,0.1598411940630504,9.27605670591858,0.05529623060554909,0.16023756793115868,-0.46658918838107294,-1.057632837481777,0.11702963278450164,0.4330069789582902,-0.04219166403285741,1.160278994643075,0.013193762369699677,0.023648020221281763,0.7370875984136619,0.6235976112031579,0.14883025587083012,0.48079897839466895,0.4227223102407133,-0.09682787507994384,0.11101710118203265,0.4750977957586287,0.7749837083582897,0.11113277878250474
5.7,0.37949872392651873,0.26175023113847684,0.21040630203850744,9.284513417839381,0.056900018399782176,0.15471843080162456,-0.46633132408634037,-1.0492256294283744,0.12130834951317374,0.43402956117477165,0.20709143774248898,1.187155098674956,0.013510448563967027,0.03201144556397419,0.9498742247899803,0.6478194527949931,0.15360143395690842,0.48454796076849693,0.4708143716328506,-0.0809552002308072,0.11570491828126792,0.48047039786673224,0.7091271793178386,0.11449101558693399
5.71,0.3820316763095166,0.26642020943621175,0.19933502136097903,9.280954936644502,0.058455384795334096,0.14932348424884012,-0.3872646482458732,-1.0075800395763475,0.12559785029780096,0.4378289795877599,0.4492346271945859,1.243510542936435,0.013942601672701348,0.04309942461114299,1.1505322387545012,0.6674153027917756,0.15839159486911833,0.4897164309210035,0.5633862568012249,-0.06579557493039677,0.12042785170379496,0.4858213321772666,0.7697407478175735,0.1187945720640344
5.72,0.38462720456140553,0.27045081029850904,0.12825563665273934,9.26976584078786,0.05995990746608559,0.145194720963101,-0.24001669423165214,-0.9436289800375977,0.12992249977887432,0.4440736272990793,0.6469426025963888,1.321606587407176,0.014510290192914832,0.05634463295102752,1.308352971946916,0.6819890711949379,0.16321137927233378,0.49626871111175935,0.6657022719228196,-0.05196485403440339,0.1252120297558256,0.4929521035269808,0.9463873715000192,0.12259582042216494
5.73,0.38727212843315223,0.27198887157389773,0.02308770290737345,9.261290391182305,0.06142297840851839,0.14330806381071384,-0.0526600981576719,-0.8720329644081911,0.13430553770426873,0.45205502735871467,0.7796954167184835,1.4111163524252814,0.015222807285789201,0.07073989485474068,1.398624540372207,0.6914847216725976,0.16807355987612843,0.5036924699694935,0.7355794718273342,-0.03959531741502882,0.13008962085647902,0.5031538641740699,1.1936036155196872,0.12491869647298434
5.74,0.3899368565869148,0.2704896362100295,-0.07543721735060115,9.26590807357322,0.0628638047871015,0.1440965818899502,0.13663369013243354,-0.8063174280520509,0.13876576467754972,0.4608669534253183,0.8458255595599273,1.4995439833145592,0.01607735900088744,0.08517256671125906,1.406905464906508,0.6960822749297861,0.17299020288702782,0.5113294472630981,0.7352934905121894,-0.028527419383851033,0.13508849971668171,0.5169247486456054,1.4425752824391176,0.1253897393694437
5.75,0.3925909079634959,0.2670165339503349,-0.12704045399602334,9.288495497442327,0.06430633275504931,0.1472478011754749,0.29011810155684403,-0.7561561128627665,0.14331531006760076,0.46965358875865004,0.8590814276437226,1.5726516844527643,0.017061388940686043,0.09872571937479255,1.3301828910105666,0.6961750101722497,0.17797034864039032,0.5185432780813299,0.6426509302387626,-0.018399064128744615,0.14022508025141892,0.5337130803818857,1.6197285561121522,0.12412182806015115
5.76,0.3952167918795636,0.2635746121285372,-0.10681631100597591,9.32634430694462,0.06577304296369262,0.15181937194440512,0.3808398015866022,-0.7269919812436906,0.1479585659099687,0.47785233105162106,0.8408926963188325,1.6160038087555764,0.018156827402287697,0.11080788239790856,1.1754670267637821,0.6924785220567995,0.1830164040901642,0.5246628087404238,0.45875057463831426,-0.008596766865251843,0.14550084834555416,0.5519110074575455,1.6666230207805801,0.12155263841999085
5.7700000000000005,0.3978156526125412,0.26197469003193213,-0.0139191617800678,9.371124063715001,0.06727983191754479,0.1566327876359676,0.39953056931446146,-0.7207526287058774,0.15269189109537765,0.4853256557212188,0.8108770915391976,1.6180712361617193,0.019343669936564476,0.12108221806414442,0.957223462497039,0.6861786697434095,0.1881190855029145,0.5289005061950118,0.21058377217486698,0.001778408916906181,0.15090317501239567,0.5693506797526731,1.5554920694971932,0.11826568869674497
5.78,0.40040424587002926,0.26300042602147944,0.1289667254351499,9.412962782267304,0.0688333940093884,0.16072447180046112,0.3559212939487838,-0.7363057553562105,0.1575046750969809,0.4923038239178162,0.7787563550118001,1.5738673796906681,0.020601491760078087,0.12929275370927804,0.6950320899529816,0.6789190581459296,0.1932544515454448,0.5304923350567298,-0.05259584551435231,0.013770239467785649,0.156411094456673,0.5841291123070028,1.2964669640157205,0.11474564295496618
5.79,0.4030077091022465,0.2663306375527908,0.28439826573224525,9.443976394303574,0.07043130297640787,0.16361526815828462,0.2743140139210028,-0.7693792749886065,0.1623828139393549,0.499148619054613,0.7404808802688971,1.4870951116965219,0.021909555185193632,0.1351475591446377,0.4121151655589131,0.6724990548109043,0.1983879679213388,0.5290949460811462,-0.26909239161750537,0.028239482217409313,0.16200416887981234,0.5952014142678413,0.9351495988515555,0.11118308408664754
5.8,0.4056526790676021,0.27106447903000835,0.413154626495516,9.459779048313365,0.07206415303341739,0.16531341237285307,0.18512739985274748,-0.8128610256354097,0.16731394715344958,0.5060479499866298,0.6800105858932535,1.3694632182327686,0.023247028218350247,0.1383622639842373,0.13441069244203063,0.6683769861517265,0.2034867084852994,0.5251997610927682,-0.379232813529868,0.04549656179956003,0.16766936642834346,0.6023818472972927,0.5417438854433365,0.10756111000237666
5.8100000000000005,0.4083620062819637,0.2763303386781809,0.4864449288856308,9.45930475034546,0.07371888519646802,0.1661438806590708,0.11526912950262191,-0.8584265487162931,0.1722913617767922,0.5127916617369903,0.5762549725082963,1.237584787123007,0.024593994858854364,0.13883306777332766,-0.11073633361418059,0.6672444365747059,0.20853424640665164,0.5202346742958825,-0.34135256742872844,0.0650863735818611,0.17340160024096019,0.6059760551120785,0.19466855525206944,0.10403290030214231
5.82,0.4111498964308751,0.2815623823250154,0.49345258322083596,9.444189499296058,0.07538257225115313,0.16655609726829432,0.08028420624547053,-0.8991882203883377,0.17731333418439427,0.5187313009679475,0.4128005170178147,1.1091863366544341,0.02593280320701311,0.13680823736038375,-0.2971053418580754,0.6688988949098137,0.2135397012796573,0.5162139750878495,-0.14515429613430683,0.08581576134044867,0.17919870097772683,0.6065419277341717,-0.03768961823889123,0.10123107723484095
5.83,0.41401712911721505,0.2864044575327558,0.4425028729657992,9.418512953249587,0.07704607358765356,0.16698936891146496,0.08041631672456794,-0.9318476458310225,0.18237783141606925,0.5229313344572203,0.18693773871380673,1.00046072443964,0.027249249630287603,0.1329397918457661,-0.4034950340503634,0.6724429752929687,0.21853617739216313,0.5151034238895681,0.18158358570263022,0.1059685863857562,0.18505625462351993,0.6049713267716765,-0.11332004891427999,0.10011706096787892
5.84,0.4169485266323112,0.2905054274933526,0.35630572001774774,9.388555212823954,0.07870671732569048,0.16777336352922909,0.10140832273534466,-0.9570523685346997,0.1874762091397998,0.5244435711923364,-0.08541415471727462,0.9253215048424789,0.028533831084894472,0.12819225722306368,-0.4182068777508889,0.6766548450002281,0.2235708809358766,0.5182249059075602,0.5755292340188336,0.12359656789036855,0.19096735804410775,0.6026478262810107,-0.027445651972482495,0.10138521615684266
5.8500000000000005,0.4199158234523471,0.29349662078163236,0.2632459686413822,9.36160579049449,0.0803687765151878,0.16902239342003292,0.11951068704857934,-0.978128346276955,0.19259028816785886,0.5226116044611602,-0.37098272725420284,0.8956422403820997,0.029783492220717498,0.1236637925699331,-0.34268958406874,0.6803382932039901,0.22869293419111333,0.5259266317333431,0.9497475776466737,0.13683324098961855,0.19692783200248948,0.6013756142501608,0.18516824316182962,0.10484117440875526
5.86,0.42288684735091436,0.2952093590184611,0.18747155296835727,9.343496863048935,0.08204091967315916,0.1705507324879229,0.10910514807855073,-0.9994932097338277,0.19769461693865087,0.5173202882923926,-0.6266133859101394,0.9204840257634446,0.0310034817008191,0.12038399143957838,-0.19285047173856462,0.6825613298940945,0.2339431369679721,0.537529724901972,1.2126859549050273,0.14425298942372114,0.20294299874134272,0.6030019275425043,0.45819188902086605,0.10918569084429311
5.87,0.4258377067359126,0.29590918216760487,0.14068966801250618,9.335933007140051,0.08373128789856828,0.1718828272174427,0.05077558947659329,-1.0257201019913418,0.20276241946989365,0.5091182200989527,-0.8107466994354143,1.0029689249205043,0.032208002225483014,0.11912739917705666,0.002891544489118765,0.682799753878357,0.2393462237668935,0.5514441943151835,1.2897752347102347,0.14527486823957209,0.2090301912673817,0.6087949342940505,0.7112605750561214,0.11237304617594886
5.88,0.42876162810663804,0.29625335579048173,0.11815922353152458,9.33550319266266,0.08544223655388254,0.17238324621894466,-0.06236991473149939,-1.0610474232312324,0.20777200136028934,0.4991580856933764,-0.8952119500490687,1.1358292917409292,0.03341838411575004,0.12027055684843582,0.20874166321718182,0.6810109099900631,0.24490468593076933,0.5653923498588616,1.1423068625564405,0.1404959891532814,0.2152126107885616,0.618735713766363,0.8730353732235825,0.1124581880662012
5.89,0.43166899332304565,0.2969014660553791,0.1003009324664093,9.33552938900973,0.08716691949504836,0.1714433636705133,-0.22184181796321792,-1.1086049193169563,0.2127107893279055,0.4889419846921426,-0.8733878333785264,1.2990708879437651,0.03465868286870369,0.12372248103946515,0.3887237365313781,0.677607863883813,0.2505946064522594,0.576769378165189,0.7786718910457826,0.13176030325732835,0.2215057220551304,0.6311377904863494,0.9029024271808628,0.10861030235098351
5.9,0.4345780714570996,0.2980291142444872,0.05971085861199705,9.330031501420537,0.08888891661400211,0.16863365780488823,-0.4052246491411385,-1.1692715468081234,0.21757596285029826,0.4799313323406547,-0.7619080578604178,1.463202139399902,0.03595001918621803,0.1289515044131211,0.5140564178651581,0.6732912114555958,0.256365837618243,0.5831700413673205,0.2547581590220024,0.12183892341447551,0.2279042392091223,0.6430943533869794,0.8035973787067126,0.10174183368578336
5.91,0.4375016100014737,0.29911213015267885,-0.02842578050919148,9.317542080304735,0.09058488155159378,0.1637813229030539,-0.5817146135446538,-1.2409673594089867,0.22237244260198782,0.47314996068014387,-0.5952558539337648,1.5982956937755515,0.0373056120140322,0.1351119330052994,0.5686728550360368,0.6687584288710288,0.262148809677245,0.583001643447634,-0.3370508149204741,0.11378284409305965,0.2343793359623751,0.6517577034809795,0.6193681563462546,0.09425585586426533
5.92,0.4404366597637121,0.2991526458261704,-0.17580533677463486,9.302524347965228,0.09222927282544965,0.15699997469760815,-0.7204238679835452,-1.319119723651932,0.2271097604137731,0.4689274646972644,-0.4150511028050545,1.6849186400298444,0.038728041816255054,0.1412486291970751,0.551354130022323,0.6643986874630611,0.2678678355242027,0.575983874976006,-0.8878735250941404,0.11017004652823484,0.24088922132780888,0.6557393955100915,0.41941607254630603,0.08892558414667398
5.93,0.44336246649166505,0.29718762199040843,-0.37386693248378255,9.293698623189924,0.09379974760956197,0.1487096000793914,-0.7992656199106576,-1.3980168581506256,0.23179901978853754,0.4668816560691385,-0.2576935744608733,1.7210166240577498,0.04020933134693282,0.14652774093359192,0.4739810087304147,0.6601291659055172,0.27345747958528316,0.5633120614521283,-1.2964727474713635,0.11251110570876255,0.24739707355974352,0.6557594325729175,0.2723130817521058,0.08752643233217071
5.94,0.4462463795155412,0.2927349281125047,-0.5926012581099658,9.300485306985538,0.09528173896204864,0.13962931364887787,-0.8118126213998577,-1.4719994160129641,0.23645049181746025,0.4661491632155725,-0.14458013271192435,1.7207624539968729,0.04173349094070477,0.15041821343523326,0.35663397200085906,0.6554881823540802,0.2788765669098649,0.5473696504378753,-1.491526802438027,0.12099824787811125,0.2538862477078265,0.6542145775092337,0.22111706798164252,0.08999874505228062
5.95,0.4490539626090772,0.28592362026578466,-0.7861249411557545,9.329650236386156,0.09667099390630136,0.13067235200708832,-0.7697733652065221,-1.5358642337788102,0.24107203520479445,0.46577641102560363,-0.07813327474509021,1.7059812073440805,0.043280498255908705,0.15275720903090548,0.22126527611661215,0.649965628045735,0.28411512056001087,0.5310710340899532,-1.446559999835534,0.13462806279477674,0.26036549659304836,0.6539903838061234,0.2688875797325611,0.09454708125609419
5.96,0.45175875743083865,0.277328848810355,-0.9039150815922765,9.38354658378689,0.09797325407570384,0.12270077983207103,-0.6997765483819726,-1.584887800084482,0.24566859060334992,0.46510892307598706,-0.04472144557181873,1.6950254796402286,0.044830440957929436,0.15368333130538525,0.08606875425861917,0.6433985649075079,0.28919267573577523,0.5170901814835179,-1.1841554143399662,0.15157176765333621,0.2668626855610925,0.6571254177892115,0.38001146924870915,0.09855707579804439
5.97,0.4543491211862983,0.2677574743006985,-0.9049920102906256,9.459849141635493,0.09920089103737326,0.11620129030654855,-0.6348712855285086,-1.6153231378235458,0.25024307029537063,0.4640064979712904,-0.023036157929985684,1.6951649847897907,0.04636681736321101,0.15348620792970222,-0.03767337732937186,0.6362048145666048,0.29415018883604954,0.5072759344363398,-0.7689937160689535,0.16960380194586158,0.2734105415382036,0.6639067919415543,0.49606937092953807,0.09985403723293002
5.98,0.4568321203427607,0.258211377985399,-0.7713171827085684,9.55178788165707,0.10036734931888219,0.11104053868420648,-0.6030779845702348,-1.6257403210376309,0.2547985949399668,0.46279805165253135,0.005431474258694091,1.7020642864694118,0.04787852220651151,0.152454564032511,-0.14546605626885145,0.6293148717919738,0.29903979492353305,0.502432192988795,-0.2920411842901606,0.18647489528865321,0.2800312751433687,0.6728024485938608,0.5590045901499242,0.09770294917869557
5.99,0.4592351710445291,0.24999694788798715,-0.5164004790928888,9.648343296453307,0.10148136592802681,0.10646824232004035,-0.6167440616891475,-1.6187097751002326,0.259341247896931,0.46203190552892115,0.04780077445275098,1.7054875407297378,0.04936045310789771,0.15078621632507455,-0.2366582135537832,0.6238348358374131,0.3039158246704942,0.5024239889713282,0.14994144340045748,0.2002509188951192,0.2867272521544537,0.6812704656550015,0.5318370609063716,0.09307550688892388
6.0,0.46160448853297986,0.24469164761438292,-0.18580902755914633,9.735045987541262,0.1025433231678012,0.1014323820194233,-0.6666714501426879,-1.601712482641282,0.2638818356418492,0.46216896195163065,0.09623813160223865,1.6969329362722843,0.05081281846278665,0.14857320390079334,-0.3102237503187684,0.6206259707191023,0.3088278731799979,0.5064110674309259,0.4747939925602292,0.20967859444119502,0.2934813182996746,0.6869923807657242,0.40911376990598247,0.08809645705703412
6.01,0.4639977580782262,0.24370337568969366,0.15185172299738522,9.796553475627482,0.10354537733999465,0.0950962038962575,-0.7236782654090279,-1.5862294013229585,0.2684351552551816,0.46334926334346943,0.1306183550030546,1.6747257576383832,0.05223933791617833,0.14583896421559017,-0.36131864724890583,0.6200177992480164,0.313814727463936,0.5130264455177778,0.6309628593538139,0.21451599638165986,0.3002651111326712,0.6888435496342025,0.21452815697280678,0.08502916322266099
