Lr-2002/DM_Control_Python/ic_arm_control/control/di_data_from_gh/processed_data/dynamics_20251011_131131_ic_arm_control_filtered.csv
time,q1,dq1,ddq1,tau1,q2,dq2,ddq2,tau2,q3,dq3,ddq3,tau3,q4,dq4,ddq4,tau4,q5,dq5,ddq5,tau5,q6,dq6,ddq6,tau6
3.86,0.20771029661282772,0.04302643360172794,3.134967349892301,9.130996329560782,-0.007865146528173063,-0.004949354690269564,0.11870571164338362,-0.028718644756984116,0.005176701284541794,-0.0048834674274915646,0.004382839912099906,-0.7923728355179267,0.013923857481217251,-0.002512665744101561,0.032704492705641935,-0.41709769860425505,0.08793759678037363,-0.002641830719912895,-0.4033135749733877,-1.7843515906198548,-0.0024795910618291245,-0.007357504077982963,-0.05091236125734839,0.026859093891572528
3.87,0.20911774903394134,0.0743977768850347,2.3686425374895155,8.92463725399151,-0.007845526717257224,-0.00378208203089852,0.1282736875839329,-0.018689931048026572,0.005047873160960804,-0.004853874999944452,0.0016037238925439047,-0.6105786182188673,0.013923857481450435,-0.0021918393211805653,0.043828936472873385,-0.4168447653155777,0.08792268735317339,-0.006613015281302291,-0.31770635716957973,-1.7902644352614328,-0.0024795910632688634,-0.007868702385907252,-0.06472605433241722,0.026861660843071507
3.88,0.210468220977921,0.09956608719721022,1.6163982768707594,8.746023087916301,-0.007815489506608281,-0.0025839451149221875,0.1310351262171523,-0.0021651552271005265,0.004934264827175131,-0.004821937983229151,-0.002011678931325556,-0.46260490589633224,0.013923857481466588,-0.0017831641525272684,0.04978897501718099,-0.41707551748263794,0.08788837326730076,-0.010333223720666853,-0.23669099836369648,-1.7970166823844582,-0.002479591063052703,-0.00845357831635551,-0.0730132348730027,0.02686589861923362
3.89,0.21172197897047332,0.11476160418138749,0.9019463486523155,8.613638216825176,-0.0077697710913454746,-0.0013658325151310426,0.12209619681479235,0.027121952515145476,0.004847316759976363,-0.004802006803946004,-0.006349996808527242,-0.37467132788658564,0.013923857481131778,-0.001283967270237737,0.046665363221851074,-0.41811080625355945,0.08782260715976799,-0.013522998066786383,-0.17122610722959827,-1.8050312352178097,-0.0024795910603260356,-0.009131772822768945,-0.07116376217858214,0.026870688868842602
3.9,0.2128666552576215,0.11957326970156286,0.25954093109639537,8.532394728592354,-0.0077097077444052975,-0.00017116720838346728,0.09971026708260214,0.07343809989110071,0.004792099188960379,-0.004810815739492553,-0.010470886454223196,-0.3580791786388991,0.013923857480407297,-0.0007698790954380234,0.03292707294079404,-0.4200011432181798,0.08772203609764419,-0.01594458425050228,-0.13792001700316658,-1.8140561269448259,-0.002479591054975437,-0.00983528028245392,-0.05656796677861558,0.02687399189280256
3.91,0.21391589235119265,0.11634816266507488,-0.27348638870677106,8.494786914341182,-0.007642531772872187,0.0009007526339999116,0.06632714610339537,0.13660820059704173,0.004766721470942399,-0.004860598394158377,-0.012682041122338481,-0.40603966747194176,0.013923857479424007,-0.0003786992777835737,0.01011897785407706,-0.42250413289983607,0.08759110345633117,-0.017585880334853532,-0.15564878619375652,-1.8230905599267115,-0.00247959104811477,-0.01042743359344903,-0.029398253951423113,0.026873316884285202
3.92,0.2148974856649204,0.10853108242586566,-0.6689592186440977,8.486849362181962,-0.007577806969154062,0.0016978371568656372,0.02866125579058127,0.20982979369709923,0.004763868851517566,-0.004950416638585742,-0.011058410255942024,-0.49536643002233705,0.013923857478516271,-0.0002575972229254866,-0.017191831556790726,-0.4251701684637335,0.08743694913350444,-0.01883981611410256,-0.23806168801952934,-1.8306116744153178,-0.002479591042248607,-0.010737465691954917,0.007081712105826045,0.02686668710480354
3.93,0.21583729894383769,0.09903019275631489,-0.9179675405152938,8.49545545481324,-0.007522772308241312,0.0020674635700090693,-0.0035894281970983623,0.27958672568704424,0.004773686201170304,-0.005058943860331376,-0.00430462879870963,-0.593155117514789,0.013923857478175294,-0.0004955681359911686,-0.042360602007469904,-0.4275158429098427,0.08726228610615817,-0.020532316120052654,-0.38473593386203964,-1.8350343976642667,-0.0024795910408451417,-0.010605492797135727,0.046937750953821286,0.026853911274739718
3.94,0.2167470489847294,0.08941985557970282,-1.0336473831561244,8.51333618760235,-0.007478961194299788,0.0019480738122801364,-0.020372655077271443,0.32876863625990943,0.004786818588675566,-0.005143121917278596,0.007308154988495778,-0.6667343409073462,0.013923857478898077,-0.001072812756262445,-0.05838974118438127,-0.42921775180830174,0.08705982523022039,-0.023717929496847475,-0.5749660082272728,-1.835194183564499,-0.0024795910471863145,-0.009946078487834482,0.08278913282899573,0.026837711751128885
3.95,0.21762094704146115,0.08010021078079635,-1.0456957242928153,8.540039180710329,-0.007441610547046581,0.0014545276965473204,-0.014696737479235066,0.34231571936765504,0.004796635287110363,-0.005146813861399565,0.02130656902406619,-0.6936198997431097,0.01392385748094586,-0.00185269214876787,-0.060021181830158546,-0.43024048182743,0.08681121060788378,-0.02929189301019518,-0.7677622400374353,-1.8306551651648233,-0.0024795910626423056,-0.00881242099764288,0.10760591817379235,0.02682406941194488
3.96,0.21844098003900048,0.07097196343162028,-0.9896423044546442,8.579452667500979,-0.007401718770827477,0.0008968517664250817,0.01425524217445438,0.3130688131563005,0.004800202661649571,-0.0050211071293066335,0.03304463882117667,-0.6679049965992533,0.013923857484078532,-0.0026210863949369745,-0.04557224716509949,-0.4308410568247864,0.08649129765362902,-0.03756725350555555,-0.9095895818310972,-1.8218198442640132,-0.0024795910848866396,-0.00741341270188349,0.116570441929569,0.02682115922543876
3.97,0.2191868936758939,0.06205068934554573,-0.8956073308599979,8.636019662101198,-0.0073493312149978465,0.0006950852575906517,0.05959165133530859,0.24506242865917804,0.004798069882715383,-0.004753266301035386,0.03660448569897024,-0.6007794800219395,0.013923857487381956,-0.0031539523365080925,-0.01787908788302028,-0.4314499970617836,0.0860765391556053,-0.04798191039902125,-0.948387800171059,-1.809947361293392,-0.0024795911068970626,-0.006050488241621981,0.10839276257865692,0.026836581350378547
3.98,0.2198459290916025,0.053684742153921314,-0.7805702365936884,8.711792693407006,-0.007276445430838875,0.0012099521156577618,0.10770278422974353,0.15256369480635437,0.004793211437360465,-0.004395551160140922,0.026488900652856747,-0.51513594656494,0.013923857489327257,-0.0032845191661865837,0.016068730479078242,-0.43248154752123474,0.0855550382935642,-0.059057750285932124,-0.8496362161523813,-1.7971047491147567,-0.0024795911176906625,-0.0049968227568271415,0.08562537793981682,0.026873261687683163
3.99,0.22041850220396647,0.0464096670149699,-0.6461440193523074,8.805366561459808,-0.0071787514386231766,0.002565647570289324,0.1418804707869398,0.05528233187318261,0.004789533447762982,-0.0040804425487746005,-0.00030570254019553753,-0.43657650369720835,0.01392385748816746,-0.0029516839687864314,0.04682665140588265,-0.43415224115773354,0.08493508113144627,-0.06867363404872971,-0.6088539582167776,-1.7858965886918925,-0.0024795911054375625,-0.0043889819618045,0.053880997879891285,0.026925271001381482
4.0,0.2209185261331459,0.04071239748129485,-0.48178181179651747,8.912356250474405,-0.0070564633160524705,0.004554086888921688,0.14761545445579588,-0.02786426723654161,0.0047902947461946855,-0.0040082305153724945,-0.04250465468362395,-0.3846356897500299,0.013923857482671834,-0.0022244513359681506,0.06511153863320732,-0.4363845905237437,0.08424855072255014,-0.07462828992133612,-0.25569087372084953,-1.7788303340477598,-0.0024795910627992985,-0.004197511358554497,0.020253214840237368,0.02697558419420504
4.01,0.22136985477569643,0.03694821598638472,-0.2719627243224282,9.026401990245105,-0.006914771064475191,0.006670159725685855,0.11779105244498171,-0.08360977436285666,0.004796727945356995,-0.004399032574858116,-0.09378440625591843,-0.3677379254418831,0.013923857473032078,-0.0012983354241045413,0.0645832495183042,-0.4388415034381363,0.08354650921835888,-0.07534299302587626,0.1524341231959862,-1.777459255673062,-0.002479590993152304,-0.0042877926588463745,-0.008512280315673287,0.026998036202953837
4.0200000000000005,0.22180174398350797,0.03542708279023893,-0.005244266218499103,9.13996643653759,-0.006763776082895177,0.008268451920675789,0.055792435288611955,-0.10627133388736817,0.004807128574493979,-0.005414748897604855,-0.14352570783561766,-0.38323024578100884,0.01392385746159346,-0.0004545851417215721,0.043924646858389135,-0.441080781025556,0.0828871874549979,-0.07044051354550517,0.5453374163818347,-1.781744827670332,-0.002479590915143201,-0.004518607747990628,-0.027546250732862796,0.02696501028165489
4.03,0.22224556960068106,0.036514090400399234,0.3171740729180995,9.244816326963834,-0.006617153950901525,0.008788093327002543,-0.024848893213513714,-0.0970309159911689,0.004816692421146531,-0.007074112389430292,-0.1791383439191602,-0.4212509748652152,0.013923857452949025,1.987445006853693e-05,0.0075194855397034575,-0.44275933026931413,0.08232051017532144,-0.06093225272777211,0.8585500609901704,-1.79007855114405,-0.0024795908623626885,-0.004805264969765559,-0.034735917940031,0.026860534954931754
4.04,0.22273336497755927,0.04062855889331559,0.6757546474038996,9.332338344528656,-0.006489179222217395,0.007967601494775286,-0.10442615363558821,-0.062000387961644636,0.004818340190776743,-0.00919782432286852,-0.18943553494786522,-0.46987695494309456,0.013923857452980746,-6.993207802199104e-05,-0.03556103490395847,-0.4437901510249572,0.0818754347003219,-0.04889205473543397,1.048719184417071,-1.8000500446115515,-0.002479590875465433,-0.005112033653866476,-0.03087234786080451,0.026695747553347613
4.05,0.22329740948421908,0.04815368121965192,1.03187414165028,9.39379740438712,-0.006390909297994704,0.005963030072937846,-0.1633972158332805,-0.010500640262774735,0.004804578671000482,-0.01141917699038844,-0.1680713179518771,-0.5191280685660552,0.013923857466708899,-0.0007539221595554518,-0.07402004006789598,-0.44438118105812724,0.08155510371768142,-0.03673215906181013,1.1006863687913253,-1.809588285235612,-0.002479590986234844,-0.005401119883391819,-0.01917214596376748,0.02652097797438949
4.0600000000000005,0.22396931397229392,0.059284141076465735,1.3332156774492936,9.420829973636367,-0.006327171467391618,0.0033067363470451663,-0.18885295328810528,0.04601933720458175,0.004770069777987508,-0.013271372738848873,-0.11589864833718866,-0.5623711468052242,0.013923857495317828,-0.001883498488137891,-0.09752700031700949,-0.4449442021997307,0.08134102108878156,-0.026395509409787545,1.0245470717180782,-1.817855142078209,-0.002479591196770469,-0.005599634363911523,-0.004352337922164272,0.026427387075518016
4.07,0.2247766819538115,0.07377743276637351,1.5248721365905933,9.406776596983997,-0.006295759894951019,0.0007095525086988398,-0.1787207684737676,0.09514488877059865,0.004714100510998441,-0.014325316978581446,-0.04136262823369977,-0.5952245109527258,0.01392385753334579,-0.0031816447448879555,-0.09967198605095205,-0.44591764356459596,0.08120343190724279,-0.01882808304961295,0.8452665541814163,-1.8253926036445276,-0.002479591461223866,-0.0056235907784876376,0.008557884490953358,0.02653261274646637
4.08,0.22573635162749683,0.09063567763406223,1.563661157035636,9.349089096074087,-0.006289094811761114,-0.0012134771319074283,-0.1421016229594466,0.1256383109446231,0.00464182533065653,-0.01432531697858134,0.04134592574228122,-0.6137536200225443,0.013923857567519,-0.004331046827751062,-0.0797806796977805,-0.4475779488985582,0.08111255951532259,-0.013965602723949477,0.59047883261486,-1.833438525015908,-0.0024795916805630644,-0.005441845234291224,0.015466656843831443,0.026950026309912268
4.09,0.22684614745560938,0.10794087046708374,1.4313784421312756,9.251823832638038,-0.006297373456931632,-0.002172170153677107,-0.09558315207109516,0.13050853108363034,0.004563363445406039,-0.013271372738848559,0.11589694107917099,-0.6142301907406765,0.013923857578758842,-0.005065325599520059,-0.04304927021065375,-0.44991678234040666,0.08104523978699214,-0.011212986064031583,0.28247177166466414,-1.8428006319548933,-0.0024795917205079772,-0.005125111733414631,0.014270816219358202,0.02774918200551702
4.1,0.22808014495847775,0.12313360855960624,1.142199871973491,9.12635294675776,-0.006311717242431866,-0.0022832991035024956,-0.05689574899777134,0.1098708200364114,0.004490770376142748,-0.011419176990387934,0.16809329942366935,-0.5951895874760353,0.013923857548214878,-0.005236487354889316,0.0010127532996767336,-0.4526359046862228,0.08098413046387846,-0.010128903335597905,-0.06216171107177183,-1.8529452622816123,-0.002479591457247009,-0.004834075513135586,0.005409643147376357,0.02892260930177799
4.11,0.22939215175352679,0.133772420274172,0.7408371163182239,8.989127692592557,-0.006326118707725578,-0.001974660423861974,-0.03827396709730627,0.07210203367496107,0.004434132844384162,-0.009197824322867894,0.1894787177952856,-0.5601238105238309,0.01392385746668712,-0.004845714129819095,0.04132517694737097,-0.4552613166190117,0.0809111001931779,-0.01090835877997743,-0.4259713492253034,-1.8618331585218821,-0.0024795908445299332,-0.004743826900299681,-0.008312128225065859,0.030375762045688825
4.12,0.23072746888796872,0.13841761430661656,0.2911877267460773,8.857244071229786,-0.006337731779533531,-0.0017659307073040341,-0.041968739429582194,0.03221152192990438,0.00439860829539968,-0.007074112389429703,0.17918715267261834,-0.51814351772958,0.013923857344761386,-0.0040358606811978165,0.06831560961411409,-0.457323119513597,0.08080005450207559,-0.014378768833692589,-0.7818653319495481,-1.866591182341377,-0.002479589981479881,-0.0049487169176308755,-0.02265527627988004,0.03194833398871208
4.13,0.23203754059235682,0.1371244322838187,-0.14103601359758355,8.744054622743592,-0.0063457855692064516,-0.002036240752655752,-0.0595234739700481,0.007327578534744865,0.004383622830736166,-0.005414748897604546,0.14355405227603935,-0.4813673571837019,0.01392385721907669,-0.003049609372893655,0.0764182380146878,-0.4585213789652092,0.08061485133794934,-0.02151309632622545,-1.0883621254330045,-1.8646633059754258,-0.0024795891481228347,-0.0054098114137976295,-0.033366902832411054,0.033459068136910824
4.14,0.23329034791316372,0.13126452060109245,-0.5055401014512434,8.656934580799744,-0.006349869564219385,-0.002880243848650683,-0.07503489441612776,0.01054485143615938,0.004384186779122621,-0.00439903257485836,0.093763603627753,-0.4603294853808113,0.013923857149390957,-0.0021610599429528195,0.06529561881634288,-0.4588176362282111,0.0803149305512664,-0.03272054518454941,-1.293540440218441,-1.854907045513598,-0.0024795887723872787,-0.005978936077764349,-0.03760378885635747,0.03475377919754462
4.15,0.23447233332108083,0.12281493349578115,-0.7781553229612947,8.597801529438334,-0.0063484497263417835,-0.004092414955142533,-0.07120838147822227,0.045559643508234944,0.004393345452852249,-0.004008230515373481,0.04241601814680438,-0.4600734278648847,0.013923857202550138,-0.0015964771129031374,0.03950992342317224,-0.45843579583709,0.07986701841039244,-0.047266950739951526,-1.3481754996953617,-1.8381892028223032,-0.0024795893050603445,-0.006480070002070353,-0.034841903017917765,0.03573750096310307
4.16,0.23558247239725114,0.11352343180436145,-0.9611519160521815,8.565402729709946,-0.006338260649084953,-0.005253496636726771,-0.036083162694803425,0.10466667051046942,0.004404594000134247,-0.00408044254877628,0.00015474692493104006,-0.47894108683571107,0.013923857423659399,-0.0014696982515388448,0.006857063204784118,-0.45779067923726596,0.07925816235010599,-0.0631150816294769,-1.223716875498591,-1.817237315671965,-0.0024795910108994725,-0.0067955641371124035,-0.02695243376804327,0.03638389868207109
4.17,0.2366226496609003,0.10434086156153967,-1.0735683998252645,8.557805952608428,-0.006314777941263863,-0.005866778577539338,0.03187955745846935,0.17128385651825015,0.004413457259944511,-0.0043955511601428835,-0.026662184341609815,-0.5102741764210174,0.013923857801235442,-0.0017576564440211398,-0.024031193775704777,-0.4573737587161334,0.07850441343097134,-0.07732521195928058,-0.9275814030977683,-1.7957559927840734,-0.002479593730177696,-0.00691152107389057,-0.017456671439497487,0.03672627472428118
4.18,0.2375895102884209,0.09531818891010692,-1.1361192735904282,8.57397419998807,-0.006273459777466941,-0.00550267694610618,0.12208434011978565,0.22588220470096568,0.004417983525245402,-0.00475326630103684,-0.03672623789119618,-0.5456561270523556,0.013923858240019992,-0.002324987867952266,-0.04603969096122996,-0.4576227623595059,0.07765074229949817,-0.08694319961106728,-0.5083380130946236,-1.7771251945797086,-0.0024795967110162035,-0.006906493954920776,-0.010279145177845998,0.0368377462243951
4.19,0.23847168498378107,0.08594786553752928,-1.1574611471175074,8.614064625820554,-0.006211075295140069,-0.003926862615249081,0.2141128085820186,0.25262079508701946,0.0044183463952854034,-0.00502110712930658,-0.03302443990989607,-0.5777811596085349,0.013923858559299233,-0.0029835802222413165,-0.05519224387468014,-0.4587992779512278,0.0767610459329467,-0.09005662684582366,-0.046919113308337014,-1.7632505924745059,-0.0024795986362209327,-0.006897519570614107,-0.008464171837206177,0.0368071588267706
4.2,0.2392534297029784,0.07575028789610325,-1.1279138417190677,8.678639407745086,-0.006126473028490237,-0.0011908760008890926,0.2834398388996149,0.24410813954757368,0.004415972521523894,-0.0051468138613971585,-0.021072588339131674,-0.6017107318398351,0.01392385853236187,-0.003559159334807849,-0.05116723356344918,-0.4609023133393945,0.0759014110482822,-0.0865438654830993,0.36442133860582365,-1.7541095219627993,-0.002479597944293816,-0.006977874806782615,-0.013264777424868791,0.03671673559266301
4.21,0.2399225757098875,0.06481218354145088,-1.0234750446034104,8.767236244254587,-0.006020673574126513,0.002339472071996343,0.3088589108193789,0.20299089629419692,0.0044126208220068045,-0.005143121917273659,-0.006853230364920849,-0.614581040894608,0.013923857971528283,-0.003938370444090968,-0.03672824115750774,-0.4636503426696187,0.07512297278199223,-0.07813262443808658,0.6484841915817741,-1.7481600137639226,-0.002479593457166494,-0.007184790422115608,-0.023818905968438178,0.03662669809032937
4.22,0.2404790063171145,0.05403782917492106,-0.8185424740589453,8.876774543664325,-0.005896775582868435,0.006037961400771837,0.27933467486428887,0.14034535371798146,0.004409706619969941,-0.0050589438603248675,0.004882341776068094,-0.6147814182795363,0.013923856843297697,-0.004082636093509047,-0.01643174053322457,-0.4665553688385517,0.07445075016560565,-0.06772170178779877,0.7654162001908434,-1.7433076825053835,-0.0024795851833289105,-0.007512646595315815,-0.03741148034144518,0.036569467627084074
4.23,0.24094045842015796,0.045047277501938605,-0.5020189307258367,9.00020208605345,-0.005760119836234527,0.009155282946819013,0.1980848037149866,0.07163300781351435,0.004407985537251117,-0.004950416638579949,0.011543621939318873,-0.6016001272561656,0.013923855374348171,-0.004013196098653987,0.004857154697583996,-0.46907991068773547,0.07388183861944882,-0.05828787733114683,0.7228336529843022,-1.7379033317154486,-0.0024795750023606303,-0.00794757931678139,-0.05017421261116983,0.03655256846661371
4.24,0.24134409742039642,0.03978976145237491,-0.08994367544594059,9.12589126560338,-0.00561838781934397,0.011015312531107503,0.0824580203884246,0.011564002041901219,0.004407560732841798,-0.004860598394156567,0.012782559150231134,-0.5755322472272865,0.01392385409084132,-0.0037846931717933916,0.023148917318789427,-0.47082397744623355,0.0733923544586631,-0.05186234904736639,0.5703155644020685,-1.7313684124438729,-0.002479566824677197,-0.008481461720224431,-0.05802087448773618,0.03656689998986585
4.25,0.2417432365331907,0.03995171885209826,0.37093709820440657,9.238545465415315,-0.005480758667541167,0.011220830054710954,-0.040562676570081675,-0.03026012327152111,0.004408091250420062,-0.004810815739497926,0.009921671980371947,-0.538717811858764,0.013923853732949706,-0.003462691983971216,0.03592459147860372,-0.47166673761735267,0.07294963494426847,-0.0489662718762942,0.38072369534402556,-1.7243142161735387,-0.00247956584316306,-0.00908948732774507,-0.05761786218003337,0.036596393935161085
4.26,0.2421987982334981,0.04626815449401972,0.8107199586305959,9.322152845495278,-0.005355751147914243,0.009800071873777388,-0.14200164562156012,-0.05119495668959345,0.004409062206497945,-0.004802006803960082,0.005069357995498074,-0.4950080219167974,0.013923855014304745,-0.0031087122376757255,0.04212167204069598,-0.47180677335422677,0.0725250810215272,-0.04866514172201282,0.22554804965952527,-1.7182036044449225,-0.002479576718400836,-0.009697204340139955,-0.047202884237987186,0.036625911847570726
4.2700000000000005,0.24276639571701347,0.05800597469582738,1.1527440517278018,9.364403920554524,-0.005248562409810557,0.007227160445275369,-0.19935748054402583,-0.054510078713343076,0.0044100097571155026,-0.004821937983250051,0.0002670941602657051,-0.4497536051183615,0.013923858254900702,-0.002770133696255276,0.04172026203335584,-0.47168998285203917,0.07210337930213921,-0.049161995776830274,0.15317460814607037,-1.7146920584876253,-0.0024796009728716064,-0.01017655744928071,-0.027077840162456762,0.036645794688621135
4.28,0.2434826831005845,0.07298253525304467,1.3332278313159645,9.360672768641447,-0.005159423625084689,0.004287913061270523,-0.203196706586584,-0.046691770432688955,0.004410647327685182,-0.004853874999965839,-0.003090027200050058,-0.40971724569725726,0.013923862994916495,-0.0024757197268090616,0.03524989939534017,-0.4718548520344591,0.07168539033989237,-0.04864643740357876,0.17715336724082414,-1.714898470110262,-0.0024796344191675788,-0.010386489065969388,0.00035791459110025243,0.03665299758855216
4.29,0.24435651074261408,0.08824781437436303,1.3175309415531775,9.315469755850483,-0.005084000239530189,0.001827341203241004,-0.159699190221245,-0.034691841506118856,0.004410890063963388,-0.004883467427503185,-0.004467502169432747,-0.3829770191420054,0.013923867768695175,-0.002240196511785836,0.02350194971727897,-0.4727467527260803,0.07128453979760506,-0.0460094108123087,0.2772309948533292,-1.7189493544393963,-0.0024796659093716815,-0.01023451711559535,0.031073180085176365,0.036649753167587236
4.3,0.24536885856332036,0.10110028169194324,1.1080782044057154,9.24065378086636,-0.00501553136895906,0.00046912570892393424,-0.08828339927068005,-0.023915456309401343,0.004410807311420016,-0.004902356521958105,-0.004084671480841609,-0.3778814826688247,0.013923870243228664,-0.0020768254763507705,0.007575737767778431,-0.47455967004929195,0.07091921547178524,-0.04112406709084054,0.41105557629416356,-1.7260246966151864,-0.0024796787887624403,-0.00971546088951427,0.06026982525494067,0.03664107042657761
4.3100000000000005,0.24648095072801057,0.10984949377886023,0.7423715990909007,9.151619118241477,-0.004947370367388241,0.00041028121953963536,-0.01509578496227836,-0.01711162985669187,0.004410544411326631,-0.004908586114926087,-0.002615316910782038,-0.4002975209304193,0.013923867864470117,-0.002010072974081233,-0.010822931071498888,-0.47715919668919055,0.07060497586105839,-0.03466351949470438,0.5310178684228254,-1.7348291622807663,-0.0024796559070855476,-0.00890279432378686,0.08341667262164851,0.03663221771545335
4.32,0.24764564223770574,0.11394643851027698,0.2830030531171778,9.06361038443025,-0.004874743043469314,0.001366474879075031,0.03543472120378243,-0.014305333450968393,0.004410249492468221,-0.004904863838388294,-0.0008441916042772266,-0.44991568571245993,0.01392385898771805,-0.0020781604720641043,-0.029084707057602226,-0.4801201412302735,0.07034955817859191,-0.02767049341955368,0.5997952974732433,-1.7441903604881248,-0.0024795877826518722,-0.007908745152637918,0.09716119065663864,0.036626907310087976
4.33,0.24881633878280507,0.11358982422577502,-0.1963274723493612,8.989629170871481,-0.00479556498182151,0.002692706745403787,0.048130905054277195,-0.013795043953789669,0.004410026266122208,-0.004896005310188205,0.0006032178147620807,-0.5179205827575131,0.013923844215968203,-0.002319287656732784,-0.04370991073949825,-0.4828715194361878,0.07015164756180345,-0.021135314332933107,0.5997536295218986,-1.7535025589215434,-0.002479481725856732,-0.006849486763031699,0.09986748560728402,0.03662644062830448
4.34,0.24995091108789647,0.10925021257313647,-0.6246633039803039,8.939845868014096,-0.004710837167364985,0.003641083770792488,0.021222306614964756,-0.013703468490119336,0.004409918001709279,-0.004886658924452775,0.0013983955105185035,-0.5881881730073804,0.013923827407378957,-0.0027437288253771923,-0.05084001577737712,-0.4848948728597521,0.07000276650864475,-0.01572506214513374,0.5344010890560186,-1.7628731386411731,-0.0024793679828630784,-0.005835612259984583,0.09165297766283804,0.036629744317811117
4.3500000000000005,0.2510125536008547,0.10148204000949139,-0.9447216519670333,8.921431745931281,-0.004624790927214278,0.0036542866428737534,-0.034088781557537064,-0.013157672455227934,0.004409916232321549,-0.004879918019252127,0.0015143599014513147,-0.6421746884925453,0.01392381566329481,-0.003303477994431235,-0.04728532491787996,-0.4858993956063911,0.06989103701098491,-0.011694202342509487,0.4231659655402688,-1.7729461863440459,-0.002479298142455326,-0.004978171790259802,0.0739579077201489,0.03663407243559558
4.36,0.2519714958687275,0.09105357264250194,-1.1197970435005986,8.937981633913337,-0.004544260535657624,0.002565959927627205,-0.09821398285142444,-0.012472391048736074,0.004409982394972388,-0.0048769274800601085,0.0011374067302330562,-0.6654009343389417,0.013923817711011793,-0.0038775230667939236,-0.031757705447404756,-0.48591558008834845,0.06980533393941168,-0.008952639694764319,0.2927329692553499,-1.7844813132616246,-0.002479332101270975,-0.004385953532701542,0.04883252277818852,0.036636122417625615
4.37,0.25280956049483094,0.07915467741635906,-1.13664512708283,8.988614495709777,-0.004476839521764696,0.0006224630572526263,-0.15008421778425773,-0.012515008734294428,0.004410070907884781,-0.004877242331889183,0.0005422080424578762,-0.6525575830238104,0.013923840546541222,-0.004289566370889558,-0.0058319816239981795,-0.4852894697687636,0.06973819098235798,-0.007228801861126531,0.16854443474905037,-1.79788954550838,-0.0024795133717732,-0.004141589909143009,0.018228338982109342,0.03663332611496315
4.38,0.25352602654220885,0.06742942846605904,-1.0046891551940067,9.067407099766902,-0.004428307582938762,-0.0016642970095658099,-0.1739035346330753,-0.013957777621864152,0.0044101459611926835,-0.004879550371912657,-1.9975567906014496e-05,-0.6090769652848432,0.013923884981919606,-0.004362524929176239,0.02583960756112862,-0.4845913726723006,0.06968632207058582,-0.006231336424809174,0.06907845309720484,-1.8129826620291651,-0.0024798381386946684,-0.004271997041164654,-0.016399099667632668,0.03662506018215246
4.39,0.25414121243602433,0.05773674444806223,-0.751896921026491,9.163760443835672,-0.004400570556458922,-0.003741555313983774,-0.16358220277409585,-0.016920923031434654,0.0044101890941338215,-0.004882399828417952,-0.0003899844364965723,-0.5487806258486447,0.01392394165558159,-0.003992342273392569,0.05631935551135238,-0.4844653739357669,0.06964896443577433,-0.005727581542943445,0.003845854356630628,-1.8290688256832375,-0.0024802296909250425,-0.00474424303623806,-0.053955431326057075,0.03661345561710022
4.4,0.25469467537820806,0.05169626193618834,-0.4179563347288364,9.263968772832616,-0.004391124568103402,-0.005208692569842361,-0.12370554809245385,-0.020924664501884026,0.004410198579696782,-0.004884703303810714,-0.0005191589496006516,-0.4889121314991506,0.013923989740710109,-0.00320495877753727,0.07807853940798001,-0.4854496869455091,0.06962546872069104,-0.005529800356352809,-0.02552321898475252,-1.8452950654892528,-0.002480533959523366,-0.005499064845565547,-0.09302179880248228,0.03660342444504501
4.41,0.2552372222589601,0.050186395346483635,-0.04613289040631437,9.353802851737536,-0.004394139295316788,-0.0059115315092528944,-0.06717070150246471,-0.0247991127454841,0.004410183817359122,-0.00488594302254569,-0.0004480284088697539,-0.44466847184833036,0.013924000554070535,-0.0021624418486585538,0.08512326688821371,-0.48780509298896124,0.06961367304434302,-0.0054494293768508765,-0.02266063466121592,-1.8610016430940122,-0.0024805506272092505,-0.006496838039938066,-0.13087341428449406,0.036601559575341315
4.42,0.25581908012693977,0.05305188676579981,0.323999136171796,9.421300425422194,-0.004402494175168671,-0.005932222448411569,-0.010645200340906049,-0.0265241165339843,0.004410158315696769,-0.004886123080683379,-0.0002646887353147365,-0.42506337702260444,0.013923947131189721,-0.0011116809768936683,0.07486602368184579,-0.49139971530121707,0.06960975521496494,-0.005285488620611475,0.00601768900484246,-1.87591362283803,-0.002480105146237748,-0.007735418234883972,-0.16270015965351825,0.036613797337518815
4.43,0.2564790890183186,0.05925759623445171,0.6606636476430445,9.458568475717469,-0.004409909210988696,-0.0055110915551851054,0.030549110039238873,-0.02342024260373519,0.004410133970922678,-0.004885576502139903,-6.22513118186293e-05,-0.4311918465603581,0.013923818512101126,-0.0003024892817433607,0.04909239923846867,-0.49569991031582467,0.06960931439300119,-0.004863344218726866,0.052516553696250315,-1.8901496100630648,-0.002479149940156448,-0.009221245606799645,-0.18160466763512767,0.03664219182531677
4.44,0.2572396062077006,0.06747908941388316,0.9396709372632933,9.461827908754314,-0.00441253539807619,-0.00494690780444015,0.04668034032705779,-0.01302808384246459,0.00441011794948967,-0.004884740589233144,9.12644003862382e-05,-0.4572201472922294,0.013923634431624064,8.541966488229105e-05,0.013651084553747538,-0.49989386859562135,0.06960892965926173,-0.0040891019919094135,0.10692993768641357,-1.9041215832750893,-0.0024778618626870113,-0.010910557681922005,-0.17977062793907309,0.03668174630644245
4.45,0.25810849691966414,0.07677992446635858,1.1408380917622616,9.430088550433512,-0.004409699565089107,-0.004509199181112784,0.03608956357318444,0.005627823951029083,0.004410112190459447,-0.004883982262480716,0.00016542125718671972,-0.4935541155434688,0.013923453409671563,-1.711582886444237e-05,-0.023086246705133137,-0.5031282409701605,0.06960737692203653,-0.002977736383830645,0.1561687190494163,-1.9183849491501044,-0.002476685663621019,-0.012656221130130967,-0.15076177455605805,0.0367187502066904
4.46,0.2590853574457004,0.08690545804105683,1.244019243209482,9.363862240846723,-0.004403743869771896,-0.0043762459388275434,0.005672584178800329,0.031212728828658047,0.004410114720668493,-0.004883509493566503,0.00016419405497193786,-0.5306825857480749,0.01392336642457974,-0.0005604598684102904,-0.052542250729009844,-0.504789881584777,0.06960586713151111,-0.0016482374582688442,0.18292398462614182,-1.9334428306786244,-0.0024762705040649972,-0.014189959939767776,-0.09236981802584897,0.03673215388513709
4.47,0.2601668158822556,0.0979637801626907,1.2283580637878535,9.265326263098101,-0.004399023475713255,-0.004597285251993708,-0.030395285777358116,0.060295261507603,0.004410121706817116,-0.004883364829989779,0.00011328561307172748,-0.5618695999128592,0.013923470921273858,-0.00139196838820503,-0.06832039179651124,-0.5047354568587675,0.06960695985396374,-0.0003169776393385786,0.16616964061971987,-1.949495669629331,-0.0024772681925043557,-0.015155142947940684,-0.009003612531286374,0.036698869917674536
4.48,0.26134672464290093,0.1096981637038633,1.0769116085003563,9.140165819339009,-0.004400188911264003,-0.005072479762623874,-0.05323924183071838,0.08839735437342452,0.004410129333945031,-0.004883472881374575,4.4986842893450355e-05,-0.5836627225699504,0.013923826553302755,-0.0022943313325514626,-0.06792865547303441,-0.5033739199774983,0.06961214634617509,0.0006762864001628175,0.08410541053062268,-1.9661710822749856,-0.002480011077345388,-0.015194601104851338,0.0874782060617809,0.03660240617336092
4.49,0.2626108716932604,0.12088238316858356,0.7857310834598792,8.999687499784795,-0.004409969984272003,-0.005547933374610115,-0.04273806377707488,0.11107532048929555,0.004410134988299492,-0.0048837071419672575,-1.3938249040536458e-05,-0.5946096768252782,0.013924403875309539,-0.003044953871074151,-0.05331844469678796,-0.501552296196039,0.06961846019273332,0.0008109518558735417,-0.08043713398192816,-1.9823268434062276,-0.0024841559245343814,-0.014079913221053697,0.17923304261455678,0.03644218319701653
4.5,0.2639303458336094,0.12934759274258975,0.37339964047457824,8.861011609909532,-0.0044268394422032585,-0.005629674725602814,0.01848168699726822,0.12438774869384651,0.00441013763121791,-0.004883948210990003,-4.861567381822642e-05,-0.5936168117752181,0.013925047192890155,-0.003481954035014178,-0.03009089060830932,-0.500276435899405,0.06961483221888703,-0.0006555688325431035,-0.3332304513246065,-1.9960440960261927,-0.0024884446462012954,-0.011835776857019392,0.24620622282132296,0.036239045880124346
4.51,0.2652595718597126,0.1327409922094374,-0.11427687707610076,8.744109714706282,-0.004443123777918543,-0.004823363553788741,0.14082361932401818,0.12477577481084906,0.0044101375445474295,-0.004884118415570057,-5.6631629472562515e-05,-0.5793727755400787,0.01392547811724204,-0.003551681485725934,-0.005642398271880537,-0.5003713284618854,0.06957922186797183,-0.004644356081704657,-0.6626186333437939,-2.0048921597341445,-0.0024907589382610635,-0.008795874455066197,0.2713456281216563,0.036032117452976645
4.5200000000000005,0.26654236998247144,0.1295948173922519,-0.6083116844576701,8.666606133415888,-0.004444220663814541,-0.0026020930405012323,0.3237364548264969,0.10889749502433926,0.00441013575779415,-0.004884190706397047,-4.4573836000268206e-05,-0.5513366800068669,0.013925361730725762,-0.0033172489975777865,0.013147916245225629,-0.5022066474182346,0.06947779614592219,-0.012083036122871146,-1.0366957106213734,-2.006451426568785,-0.0024885982749773138,-0.005554128375049631,0.245723422753284,0.03586481154346851
4.53,0.26772414598180083,0.12006364678159061,-1.0295959383539726,8.63886921740316,-0.0044094333441222775,0.001504003323820651,0.5527224180333129,0.07395914339401546,0.004410133452516163,-0.004884178500812165,-2.2964123034527847e-05,-0.5116240407843304,0.01392443913551662,-0.0029256672260179434,0.02195138759441289,-0.5055824829602509,0.06926746997379868,-0.023619483050561225,-1.4056425646753563,-1.9989615605070883,-0.002479970397787418,-0.002824047311642716,0.1718508191016966,0.035764352863853016
4.54,0.26876480812162085,0.10593500969835065,-1.3072376148987677,8.661678680765629,-0.004314499070274028,0.007808678886888206,0.7983765595651591,0.018682631870752107,0.004410131538038976,-0.004884116637641683,-1.6883688335556353e-06,-0.4663408893572207,0.013922699623257088,-0.002550331836080003,0.020110903257187722,-0.5098127604698398,0.06890261380230939,-0.03929816843750314,-1.709718355352805,-1.9818806529243747,-0.002464468432847365,-0.0012489028596550072,0.06391385428591653,0.035726818830131096
4.55,0.2696474692239263,0.08998722456840196,-1.3959978530981134,8.727067478330355,-0.0041353441999583285,0.01637325651701779,1.018541023712674,-0.055431705060919156,0.00441013046787279,-0.004884042646614028,1.2832126535608794e-05,-0.42494078957138287,0.013920530589234146,-0.0023330188636932255,0.010525786285399292,-0.5139746010145207,0.06834532270960321,-0.0583182292541176,-1.891442678661428,-1.956144962957196,-0.0024440895212947313,-0.0012147843416340026,-0.05538999211379925,0.03572066308136141
4.5600000000000005,0.2703808112826692,0.07508498581560712,-1.2869173796655238,8.821299211118996,-0.0038522670603706234,0.02692083306952639,1.1642618616308322,-0.1432011492366722,0.004410130265677018,-0.004883984057219632,1.8442049193688688e-05,-0.39724791179210384,0.01391875820336188,-0.0023433826698100887,-0.0016148626447093362,-0.5172274553070376,0.06757662854255908,-0.07899745687696658,-1.9087687087074101,-1.924004524824267,-0.002423250689655341,-0.002723085232875205,-0.16059483285682427,0.03571025148490446
4.57,0.27099560710466997,0.06342694285718532,-1.00796433507243,8.928372115441658,-0.003453823627386404,0.03876443607708556,1.189316063235711,-0.23592524118255334,0.0044101306757223175,-0.004883953486178135,1.6464708530653148e-05,-0.38946882601595334,0.013918494801101935,-0.0025632502378464955,-0.010790909203689303,-0.5190822008045735,0.06660455904376458,-0.09902381353002061,-1.745305641460618,-1.8884493641193931,-0.0024076371348673727,-0.005373695578561737,-0.23006198572334222,0.035684291900867
4.58,0.2715373900112621,0.05618690598099779,-0.615331461570874,9.032895239971689,-0.0029400235430430857,0.050760357036560955,1.061779764888186,-0.3230162724963603,0.004410131345219948,-0.00488395017860189,1.0108122234974469e-05,-0.40153286971850966,0.013920754584425626,-0.002895953563053336,-0.01312290243451176,-0.519536175562279,0.0654652535169894,-0.11597500880773375,-1.4143492092160983,-1.852418513340444,-0.0024020801193733806,-0.008480426426642373,-0.2513816871382405,0.035667828605901716
4.59,0.2720576044960219,0.05355234664839361,-0.17912624995683796,9.122066157688623,-0.0023246236141640157,0.06133174605472038,0.7748406539418332,-0.3947473687239593,0.004410131969974136,-0.00488396515244513,2.8315612521962603e-06,-0.42746432752588165,0.013925889445806772,-0.0031981652266117253,-0.007683832903915649,-0.5190497455524457,0.06421586989090805,-0.12794090965101287,-0.9554776386133779,-1.8181367584590122,-0.0024084129037291293,-0.011287983214521418,-0.22394583074651614,0.0357076733680137
4.6000000000000005,0.2726049159389626,0.05498528965220314,0.23157470296685898,9.187050185582908,-0.0016360005326996267,0.06864621525750524,0.3533921764287933,-0.4449810904687133,0.004410132371422066,-0.004883987019436927,-2.808515611779832e-06,-0.45859907196951993,0.013933012418587312,-0.003329067662967462,0.003290119756783863,-0.5183798257414576,0.06292178663116837,-0.1339794095937806,-0.4250145165638421,-1.7868998730354972,-0.0024245619879539647,-0.01320926106465484,-0.15805444386748915,0.03584079979666955
4.61,0.27321770381824606,0.059521593805086835,0.5601998796709476,9.223851901925833,-0.0009155611608839961,0.07100702301713901,-0.1465994776297405,-0.4726008301694898,0.004410132506241113,-0.004884006419867865,-5.6391513135661535e-06,-0.48767495059586635,0.013939674468185795,-0.0032053718965506296,0.015345858568596712,-0.5183145162668069,0.0616433652484992,-0.13419233589858134,0.11631310472031323,-1.7593532829618217,-0.002445478975610448,-0.01398639675548949,-0.07111572903100863,0.03606717980905353
4.62,0.2739190114597587,0.06603844763464704,0.7688059540971623,9.233235991927913,-0.00021277460003094433,0.06739264754946936,-0.6472249550964699,-0.4810634496471372,0.0044101324302812245,-0.004884018198242399,-5.758937741677164e-06,-0.5113716568442173,0.013942081851494956,-0.002842048090686867,0.023561580713981605,-0.5193936471767782,0.06042732607676879,-0.1294224688948663,0.6145557566819916,-1.7359760568432878,-0.002465331097260168,-0.013713660520223325,0.017576824418126833,0.03634348318655655
4.63,0.27471547741046365,0.07347800975908737,0.839368614495991,9.219396135721189,0.0004228537411870462,0.05792838244850078,-1.0648889093020224,-0.476473869814375,0.004410132244813036,-0.004884021471292406,-4.070359174616063e-06,-0.5301005153431846,0.013936030994990798,-0.0023563616285141044,0.02444973318077061,-0.5217248607158389,0.059304813536993836,-0.12078159040623138,1.0295829572012234,-1.7173900621924565,-0.002479699122238089,-0.012724432204480692,0.0917080520887517,0.03659835900709208
4.64,0.2756004222467199,0.0809656751070563,0.7722510866854003,9.188016596144687,0.0009509153757516161,0.044033816476484834,-1.32969433342108,-0.4652011878765599,0.0044101320483019265,-0.004884018340385678,-1.7228998522511874e-06,-0.545832882425813,0.013918476001761809,-0.0019255705798459136,0.01730727417300519,-0.5249696015508036,0.05829468239530028,-0.10927084709005151,1.3370788620106477,-1.7043086576267827,-0.002486812190914318,-0.011404635449716672,0.14106038018985226,0.03675864998958797
4.65,0.2765587083633032,0.08774650771496696,0.5839291802864739,9.14504713589932,0.001347575625084998,0.028119766108182575,-1.4024187928364797,-0.45206423633776216,0.004410131906669808,-0.004884012145641019,3.2973631213260995e-07,-0.559904267649323,0.01388927987321998,-0.0017127171040821185,0.004510300182812564,-0.5284911115894413,0.057408513583187416,-0.09565083525799165,1.526707753888004,-1.6972064375392188,-0.002487573638212126,-0.010028647838078365,0.16235864731208682,0.03677552733658338
4.66,0.2775698192948559,0.09298753442179931,0.30492474433463096,9.096975850795303,0.0016091383894252355,0.012925533623820918,-1.2838798610748596,-0.43962776977703016,0.004410131844502538,-0.004884005971471426,1.5595219169383337e-06,-0.5722470345070055,0.013852375822384015,-0.0017945824169121917,-0.00935085395509234,-0.5315876562142562,0.056654047407261064,-0.08055468834601444,1.5988398392310448,-1.69595209719595,-0.002484683133221942,-0.008701956752312416,0.15820085105147064,0.036644495300998996
4.67,0.2786076996282281,0.09566444914601735,-0.022593373118529495,9.051931827240622,0.0017508026275779582,0.0007557297431832605,-1.0137260619580581,-0.42851123795846496,0.004410131852273095,-0.004884001774200705,1.8818597152720554e-06,-0.582086903855704,0.013815510257388027,-0.0021270177906269937,-0.019159831534296606,-0.533717567737327,0.05603558415720277,-0.06470245349886077,1.562006667541121,-1.6996602980992659,-0.002481357622339034,-0.00742761877667647,0.134971709864348,0.03641634499480841
4.68,0.2796398189786241,0.09477063521765922,-0.34893229838694556,9.019866753626646,0.0018011952661215866,-0.007089128016947814,-0.6590607023391318,-0.41823035855524515,0.004410131901530019,-0.004884000173753717,1.5274216230715514e-06,-0.5890971695342136,0.01378818719440179,-0.0025641910840493764,-0.02114419175421714,-0.5346496207259607,0.05555220507224266,-0.04903451555674342,1.4319330516716653,-1.7068900149824986,-0.0024801052926305984,-0.006227482626014831,0.10065614623335926,0.036196096925892506
4.69,0.2806297430668515,0.08984927461514373,-0.6236940276709633,9.010556835383923,0.0017944585547185808,-0.010497004741744814,-0.2965381448184818,-0.4081161963263038,0.00441013196053158,-0.004884000731995342,8.572904916706821e-07,-0.5940039626588309,0.01377835748023425,-0.002921583199637632,-0.014236021924914554,-0.5345139804441973,0.05519599149217769,-0.034655409479618295,1.2314067320438495,-1.7161006342151204,-0.002481862795139168,-0.005215520768835441,0.06310037898047048,0.036126413282035905
4.7,0.2815447660517238,0.08149986437753971,-0.8047321458801399,9.030135242756803,0.0017623173583707528,-0.01033421240985879,0.006541998203661569,-0.39807285965123773,0.004410132005450714,-0.004884002457822,1.986346124687936e-07,-0.5983185474031232,0.013789275360552113,-0.003052948123508583,-0.0004505192677841256,-0.5337607487688012,0.05495207589446961,-0.022608920213547025,0.9893120272562941,-1.726119915326758,-0.002485665613605627,-0.004566065292590705,0.028819264672328607,0.03635397358514924
4.71,0.2823650895839629,0.07139495184285904,-0.8669606341830647,9.078577195410958,0.0017283515361460797,-0.007992748043313132,0.2067027901134599,-0.3891093411413239,0.004410132025401151,-0.004884004307586854,-2.532603596667998e-07,-0.6035082764691155,0.013818072368503992,-0.002906436318501778,0.01580531475443116,-0.5330429874818277,0.05480087839742855,-0.013598926267005965,0.7373848705580484,-1.7364036128730962,-0.0024889170490197125,-0.004400619529524337,0.0022064709779336415,0.036983435962140904
4.72,0.2830887156474689,0.06166711980057651,-0.8079384952920681,9.150177858082781,0.0017056627980773474,-0.004905675204135168,0.290754782411557,-0.38360697805769484,0.0044101320219734836,-0.004884005537176355,-4.556682520299763e-07,-0.6101644604308843,0.013856765323128937,-0.0025354506059812928,0.029194910905531616,-0.5330397208176278,0.05472148139458256,-0.007786593981933801,0.5045192729166008,-1.7470255340184628,-0.0024882307135976507,-0.00467806451823964,-0.014943753518218738,0.03803259370095768
4.73,0.2837291407940449,0.05404105651054911,-0.6479247104050334,9.236745664905634,0.001697789740980958,-0.0021905980305835042,0.27351686715199974,-0.38508237206287405,0.004410132005228533,-0.004884005857874622,-4.779653720265985e-07,-0.6176602537354748,0.013895143346481707,-0.002063464162232886,0.03514767716418961,-0.5342481862840998,0.054694618301792314,-0.004755502378325496,0.31009281822915286,-1.7584648211535325,-0.0024807024784162628,-0.005180146364261042,-0.02349307856065792,0.03940939782157867
4.74,0.28430818759654963,0.04928537986232229,-0.4241124654730581,9.331150655490774,0.001701737047358739,-0.0004837854563439934,0.1887426371768915,-0.39705558069164193,0.004410131988273369,-0.004884005418176324,-4.305323341337736e-07,-0.6245152011128203,0.01392410341935423,-0.001627887544875384,0.0312304184111995,-0.5368071961669797,0.054704130539622954,-0.0036743328928587095,0.15890135644439665,-1.771277604471227,-0.0024653007581670124,-0.005621755699871017,-0.026383293654051804,0.04092911398151716
4.75,0.28484891916885674,0.04725402887463572,-0.18094428307245997,9.428910554228429,0.0017116518863391288,5.274902032551012e-05,0.07688269660081062,-0.4211184866186359,0.004410131982082074,-0.004884004666673172,-3.954546621115807e-07,-0.629262853138216,0.013938046210963752,-0.0013366335217273777,0.017807695101846897,-0.540427569873958,0.05473644715413553,-0.0036159610417433427,0.04024666555274919,-1.7857189075909523,-0.0024438866983560906,-0.005817960140893507,-0.02737732028552909,0.04237259588129979
4.76,0.28537187744522147,0.04732104648140562,0.04034300881621914,9.527369000854415,0.0017219233338137128,-0.00038999968837429016,-0.02639254146889094,-0.45523105729676727,0.004410131991610413,-0.004884004154293461,-3.843677781628061e-07,-0.6313004303910006,0.01393570185660726,-0.0012540913055237633,-0.002131716006894935,-0.5444702728488493,0.05477838265298026,-0.003926099682696818,-0.06760730508201987,-1.8013958044957967,-0.0024212970730811308,-0.00579009612560663,-0.029427832703664645,0.043560569898567665
4.7700000000000005,0.28589453311388213,0.04882671542464239,0.20998781683309056,9.623823144935303,0.0017290275904495317,-0.001434509036952726,-0.09791913514400973,-0.49356586397006325,0.004410132013816062,-0.004884004323928245,-3.366654787287961e-07,-0.6312493172290533,0.013919550145229076,-0.0014067823202725677,-0.023854155126634094,-0.5481490706536327,0.05481428930861739,-0.004497789796360322,-0.18850679533234233,-1.8170819219197878,-0.002404105088453235,-0.005736830372493285,-0.03330587774353259,0.04440453937239548
4.78,0.2864319932646485,0.05129906044037213,0.3141169393287307,9.71432793237897,0.0017320137169669467,-0.002671697952393249,-0.12966184652582108,-0.528343154007989,0.0044101320379938145,-0.004884005327211862,-1.5742877823268007e-07,-0.6306830506899989,0.013894373057654164,-0.0017873821226265301,-0.042169318800814724,-0.5507842469895807,0.054824115049586696,-0.005820616864380003,-0.3379017583934009,-1.8308396150596493,-0.0023982396248587207,-0.005890482805098657,-0.03714718449834079,0.04491005158352402
4.79,0.28699714029368156,0.05443739332859523,0.355157696051081,9.794052876474263,0.0017319378992894593,-0.0037738085821980025,-0.12658792823403459,-0.5527761843879813,0.004410132048695017,-0.004884006908765815,2.1877887037276634e-07,-0.6313734591979359,0.013865501333901032,-0.0023471668951703067,-0.052762650176662304,-0.5520156974974844,0.05478380809685536,-0.008747619555797854,-0.5146192754866354,-1.84050221681775,-0.002406418644919701,-0.006352112525097161,-0.037219213387797864,0.045142504810014986
4.8,0.2875994141844147,0.05797579413996136,0.3491148548772753,9.858901033116359,0.0017307465862946912,-0.0045569335978484365,-0.10141709499305707,-0.5635695353650841,0.004410132031149571,-0.004884008403070627,7.625734014156021e-07,-0.6343597530508521,0.013837304939743635,-0.0029879561575967915,-0.053228045039273544,-0.5519000661667592,0.05466858394418902,-0.01405128248431012,-0.6982090585343562,-1.8443738812008816,-0.0024267158036246246,-0.007009937070417606,-0.02963828048517517,0.04518692626009351
4.8100000000000005,0.2882429208542388,0.06159116696187413,0.3208280814246031,9.907228035989197,0.001730111263823902,-0.004992975559297028,-0.06843467866465787,-0.5617562799211554,0.004410131978357575,-0.004884008885060723,1.3124323781857046e-06,-0.639266769575516,0.01381251516003685,-0.003573802658339618,-0.043549379418705875,-0.5508659827496072,0.05445813473609776,-0.02196522675974888,-0.8532092074179898,-1.8418545215075062,-0.0024530020098397468,-0.007590911796284944,-0.012286007706648772,0.045124097934207866
4.82,0.28892587553773275,0.06497675226503909,0.2980959973654303,9.940331661809385,0.0017306038321153313,-0.005174694402184457,-0.03839901650454284,-0.5515561250575659,0.004410131897925848,-0.004884007487641958,1.5920401984581433e-06,-0.6443482179979637,0.013792704144917463,-0.003969229913067745,-0.025928541939761386,-0.5495623320916876,0.05414174601214911,-0.031935785203745466,-0.9391267346346638,-1.8337298294497286,-0.0024768787421664425,-0.0078078485110949225,0.01394111807369421,0.04502348839014205
4.83,0.2896430959107866,0.068043475965527,0.3053291619688435,9.961201677707448,0.0017314413970108365,-0.005247207206789553,-0.015878975016637754,-0.5378720927945405,0.0044101318156814185,-0.004884003840486289,1.2954833590521758e-06,-0.6474414103528768,0.013779445647103646,-0.004086783020023875,-0.0040400532683091146,-0.5486684535449198,0.05372137687272153,-0.04269712797712659,-0.9228091561916307,-1.8220360580651307,-0.0024900550118607478,-0.007503558486377943,0.04510163733501448,0.044943556968980704
4.84,0.29039088717112577,0.07105765122446088,0.35748080754993333,9.972348071396867,0.0017308632382812838,-0.005329660225933772,0.0005985942692620867,-0.5238043683895336,0.004410131772755715,-0.004883998503817143,2.2954950473395613e-07,-0.647355505255494,0.01377497281573525,-0.003915874403988661,0.018037373476915766,-0.5487251852274017,0.05321202326626743,-0.05261015558509698,-0.7890540076546669,-1.8095616661957592,-0.0024863101941135584,-0.006704353520207418,0.07538143728084844,0.04493321338132646
4.8500000000000005,0.2911713719338879,0.07456122834828609,0.4553372232645508,9.974175138803727,0.0017270416064891823,-0.005453596948760012,0.01613549352890855,-0.5097110589685687,0.004410131813895161,-0.004883993197522245,-1.5275808684886157e-06,-0.6447238010969806,0.013781499496695734,-0.003516901787658078,0.03686406706558568,-0.5500161072076195,0.05263988479774988,-0.06009557778338635,-0.5460523971745498,-1.7991261612390883,-0.002462727510462498,-0.00556981765348602,0.09892356566837981,0.04503062284010053
4.86,0.29199363714728904,0.07912378107558761,0.5834930836772976,9.964747981232627,0.0017192718199907447,-0.005539051736271221,0.035973830940047975,-0.49442509994418404,0.0044101319675913676,-0.004883990603988209,-3.518275946907451e-06,-0.6416543675830336,0.013799627467830164,-0.0029871321699539103,0.050330333170714045,-0.5525103933729482,0.05203896131445629,-0.06400229351421806,-0.22421932117803572,-1.7928365576082468,-0.0024202388186710913,-0.004299649190872433,0.11153214280387179,0.04525503818140466
4.87,0.29287153076192335,0.08510209644468716,0.7121417414100425,9.94066970881814,0.0017090499533907696,-0.005418503137944096,0.062341523395711654,-0.4776870947444794,0.004410132222907049,-0.004883993596974312,-4.924243246734408e-06,-0.6404538548708137,0.013827165106366276,-0.0024197715827152127,0.05781038975634764,-0.5558733566561256,0.05144626516472993,-0.06383074008318251,0.13070392509943954,-1.7915726671046464,-0.0023636412782038333,-0.0030669602491601223,0.1115938003763752,0.04559269402956872
4.88,0.2938197602020711,0.09250845004471128,0.8030399772582569,9.898302472670961,0.0017005723182049095,-0.0049045656787652,0.09279728345984976,-0.46189514487365996,0.0044101325123261405,-0.004884003940415388,-4.7674702522432185e-06,-0.6423785750220792,0.013859394906493981,-0.0018764255117493733,0.059805782634082,-0.5595454869962588,0.05089606195233433,-0.05979256897665776,0.46759670104583523,-1.7949143407797108,-0.0023012396988853637,-0.0019990635115804843,0.09994895228956911,0.04598721546724388
4.89,0.294849708566301,0.10095222614445001,0.818810052991889,9.834960459949505,0.0017002488470658445,-0.0038813679797366995,0.12063216969210246,-0.4517058042833117,0.004410132712452594,-0.004884020785158093,-2.291630140025313e-06,-0.6471734984885756,0.013890708565557849,-0.0013807490280170274,0.05729820415296398,-0.56288266973291,0.0504144580939375,-0.05271247828920283,0.7396549658769636,-1.8015519607983914,-0.0022440337005239174,-0.001185238533744311,0.0788999900911795,0.046345995808575284
4.9,0.2959653345616766,0.10960284185107948,0.7334914815921239,9.750225029908293,0.0017150747471266243,-0.0023854763584357772,0.13711540434929592,-0.45149753628155004,0.004410132672519955,-0.004884039581702308,2.5630365981240957e-06,-0.6534507366630248,0.013916563251559402,-0.0009295283317580192,0.05112666068273581,-0.5653354102818199,0.050016076739242556,-0.04380506345577171,0.9112162178371167,-1.80998296249898,-0.0022039629547968157,-0.0006864061458974957,0.05088108187612719,0.04656414717701095
4.91,0.2971594214374396,0.11722644982714346,0.5414202531132166,9.647404397122044,0.0017501547525700244,-0.0006369041519152559,0.13470240292373709,-0.46217282705330065,0.004410132272811715,-0.004884052182525118,8.766821841759306e-06,-0.6594720202255095,0.013934615532569536,-0.0005135501043522714,0.0416629060877098,-0.5666207904043126,0.04970375679251157,-0.03440096927951965,0.9606912056143075,-1.8191365701601492,-0.0021908217543529936,-0.0005339820503870829,0.01742784626413755,0.04655785298588903
4.92,0.2984114314033099,0.12241568861035039,0.2615083592103162,9.53449597053304,0.0018062088499952518,0.0010066452903124592,0.10998731923478476,-0.47936189399825224,0.004410131501607096,-0.004884048772602057,1.4116892806264726e-05,-0.6638290605224753,0.013944583162019915,-0.00014039831111305388,0.028903573085129936,-0.5668254632391261,0.049470668867883906,-0.025711100795025536,0.8803632289929937,-1.8286112960431673,-0.0022085449234113775,-0.0007212521195362634,-0.021047379617804247,0.04629629319856614
4.93,0.29968878956644956,0.12402403506373555,-0.06499225718417141,9.423694274022836,0.0018782386229274541,0.002165196401679418,0.06530161183442439,-0.49447697964277737,0.004410130523538079,-0.00488402173832912,1.5661983625887153e-05,-0.6656341448118263,0.013947209791615501,0.0001508609032287319,0.01289769487525591,-0.5663926063815757,0.04930310299788478,-0.018687559998552688,0.6749916786308728,-1.8384353200570462,-0.0022528058903394737,-0.0012087918663819424,-0.0645034098041613,0.045822338459132084
4.94,0.3009522184600036,0.12160649482635684,-0.383313605568183,9.329089616880358,0.001956324919477768,0.002573387284895622,0.008384893129981351,-0.4984659840088677,0.004410129700727417,-0.0048839706947858465,1.0698374174793016e-05,-0.664142253684199,0.013943117542507991,0.00029367519216930393,-0.00572793465331243,-0.5659853557368094,0.04918213279240474,-0.014002961065863146,0.3611888213923731,-1.848506929958835,-0.0023117879384489414,-0.0019621569749987753,-0.11180913389046064,0.04525284815355849
4.95,0.3021635039414729,0.11559885215518642,-0.6385433764674217,9.263242365948807,0.002028575788841052,0.0021719806556498686,-0.04972467924496115,-0.4864030948866068,0.004410129528905526,-0.0048839068678516685,-1.835685261171999e-06,-0.658264670880317,0.013932235347611989,0.00021919604879893801,-0.02542863041018012,-0.5662629498963654,0.04908328424509028,-0.01214193264677232,-0.03160957925817599,-1.8580201663793703,-0.00237028483364188,-0.0030016973738502743,-0.15924024878174187,0.044751604667500174
4.96,0.3032929885606958,0.1071486140288055,-0.7898772225713777,9.233836865078272,0.0020849926013269274,0.0011105446641921893,-0.09780182724636798,-0.46039700144257245,0.0044101304706428545,-0.004883854298419897,-2.0015649198697354e-05,-0.6467276994043207,0.013914065682097857,-0.00010870232483233714,-0.043787405473834765,-0.5676423682765064,0.04897488816178099,-0.01354165895676357,-0.45955673522570295,-1.8652263167984753,-0.0024151941062519394,-0.004411781917448971,-0.19978671341490903,0.04447647075704177
4.97,0.30432491381489585,0.0977482859684619,-0.8215673619895545,9.241332998056818,0.002120431013176931,-0.000329932467313645,-0.12746592501048745,-0.4291593621809585,0.004410132708155919,-0.0048838454313311136,-3.829148080211668e-05,-0.6291372503773184,0.013888529995365299,-0.000668502480468331,-0.05797600408277583,-0.5701398105181494,0.04881749786303633,-0.01863605673811058,-0.8646800259147218,-1.8677942670390075,-0.002439571022741184,-0.006276595695976578,-0.22395742427751164,0.04451773284103731
4.98,0.3052598412757284,0.08886754611810598,-0.7472042918694098,9.278067289244714,0.0021354291976690043,-0.0018434429280276162,-0.13516723988915297,-0.40434664672248644,0.00441013589081109,-0.0048839100036159365,-4.821347480223398e-05,-0.607236335361392,0.013856740573097649,-0.0013810612458698894,-0.06548017513623049,-0.5733702978429591,0.04856741023902207,-0.027656528296349847,-1.179811132402276,-1.8637326128500709,-0.0024433336169198375,-0.008566777126674375,-0.22222907872454445,0.04485708658581578
4.99,0.3061134829687809,0.08165623431409719,-0.6058834599453953,9.329137149187899,0.002134926634367718,-0.0031819519916883848,-0.1226087673746477,-0.3954217405801352,0.0044101389986692515,-0.004884058818461055,-4.088116855122235e-05,-0.5851906194962316,0.013821007036332683,-0.002133181983513983,-0.06482585543103792,-0.5767132873335336,0.048185691651769884,-0.0402063354624919,-1.339517418775884,-1.8524244961465925,-0.0024307495618412357,-0.011045085841513869,-0.18853354420321897,0.04537169137816418
5.0,0.3069113254059269,0.07670133058256573,-0.45122389244009636,9.375328349038414,0.002125841079675176,-0.004194657808973197,-0.09565628339075247,-0.4054690325000591,0.00441014045666411,-0.004884267432394906,-1.0850608979579081e-05,-0.5683727062982714,0.013783871200515612,-0.0028095283583287785,-0.05604326704057284,-0.5795611924038631,0.047650685804841296,-0.05486117472253087,-1.2956379496327295,-1.8351465450487845,-0.0024066552666446345,-0.01326237804365035,-0.12352771158692624,0.04588352988453749
5.01,0.3076797385192997,0.0738531286449474,-0.3363853471870084,9.397805498774028,0.002114666122541551,-0.004832240281111016,-0.06226205391216055,-0.4298339900167799,0.004410138588617952,-0.004884467744147306,3.95793299028923e-05,-0.5612820146186024,0.013746847408787672,-0.003318027220144931,-0.04071044823980174,-0.5815266253975314,0.04696906630120834,-0.06913567399158764,-1.0331069838556306,-1.81473367382985,-0.0023738621612952437,-0.014675431204394317,-0.03618448317734388,0.046229339679799135
5.0200000000000005,0.3084362958809163,0.07220724229158132,-0.2994967401994244,9.383380432591194,0.0021058867554137853,-0.005130129345716071,-0.030154434190929332,-0.4580248093354601,0.004410132384601777,-0.004884556216476029,9.750282426883644e-05,-0.5658375587064532,0.013710097058103039,-0.00360458505657151,-0.021575592286327046,-0.5825238561604774,0.04618009422852435,-0.07998407151318399,-0.5801570525228306,-1.794600629716741,-0.002333167853171083,-0.014851350148610422,0.05732574478704133,0.04631946954656927
5.03,0.30918317499553144,0.0703430987201097,-0.3538161788159961,9.328488101166503,0.0021014684911957785,-0.005178978713463497,-0.004994911119597213,-0.4778921013251279,0.004410122385349632,-0.004884424333324069,0.0001400116979158554,-0.5808614936019446,0.013673611260435958,-0.0036600623956296596,-0.00190215194518369,-0.5827194686780597,0.045350093506138056,-0.08469353507441227,-0.007807404068834792,-1.777666105087769,-0.0022856319876779583,-0.013667055852624474,0.13751927164122602,0.046164743694087476
5.04,0.30990666648192516,0.06681989721299074,-0.48544025691937526,9.240108169374047,0.002101234461035976,-0.005089421763366281,0.010555261619358814,-0.48035503518075495,0.004410111315817646,-0.004884009188605077,0.00013973060549550702,-0.602710548183967,0.013638918761283704,-0.00351991023109062,0.015241926140712129,-0.5824069368544599,0.044558054098138365,-0.08179930730508997,0.5832146752746091,-1.7656314475993287,-0.0022354117832918434,-0.01140255602134819,0.18716088346560666,0.04586578292911288
5.05,0.31058308923146105,0.06074762240890746,-0.6589086324066885,9.133022979248672,0.002103723017217846,-0.004960280372026398,0.016763801258195904,-0.4629302749420486,0.0044101040100568865,-0.004883350960657687,7.518856614878553e-05,-0.6264971307767795,0.013609560341709162,-0.003252538694169305,0.02754196239924181,-0.5818755763962019,0.043876906406824234,-0.07162668916540153,1.0854613610514035,-1.7587585809897859,-0.002191033597721317,-0.008670906220527543,0.19660414058434453,0.045570996180765586
5.0600000000000005,0.311188152874745,0.05214106781974105,-0.8284736655665653,9.024577927331345,0.002107109432337201,-0.0048580317696213715,0.015969493319891552,-0.43084421917017346,0.004410106253081867,-0.004882632944593818,-5.635311064864669e-05,-0.6473387837995561,0.013589610379369623,-0.0029363311500396885,0.033721162020568296,-0.5813261132686902,0.043356718965657556,-0.056227467334980824,1.4110864237752787,-1.7560729057489854,-0.0021636941988286912,-0.006205699509601637,0.16692858581504524,0.04541812504059519
5.07,0.31170505142885757,0.041860214365085135,-0.9511079001797802,8.929401273985505,0.0021099030684647935,-0.004810478512344038,0.011348515222824849,-0.3953421584503954,0.004410122481874062,-0.004882174289797121,-0.00022831018199247606,-0.661322284329942,0.013581293953535998,-0.002634800363884189,0.03355362448990049,-0.58085279973862,0.04301514763467743,-0.038733820987190234,1.5133165346511235,-1.7558506571827592,-0.0021629380204305345,-0.004598001220308011,0.10962577489664804,0.04548083851105922
5.08,0.31212757288716125,0.03118129651512623,-0.9971610352410596,8.856346701485235,0.002111302674160772,-0.0048126510418832445,0.005754118334918927,-0.36968018161009836,0.004410152816315348,-0.004882351569867555,-0.0003823975868689971,-0.6661450724677204,0.013583484222026142,-0.002383010336456117,0.027705718063329887,-0.5804814049360845,0.04283753076724732,-0.022390475710438625,1.396331397667466,-1.7562265848691447,-0.0021918752848111103,-0.004098672131326494,0.04285774993954436,0.04574179839719815
5.09,0.3124577604753315,0.021255689341754046,-0.9559319954550383,8.80833307223724,0.0021112345632998564,-0.004840128649276042,0.0009771854904685772,-0.3640626553979022,0.004410190494335709,-0.004883446528113887,-0.00043959072816741657,-0.6615046066227829,0.013592155603508078,-0.002191307996797961,0.017535778660551435,-0.5802325506353647,0.042785513328027096,-0.009644404165344516,1.1107614464141466,-1.7557268581666505,-0.002244657665476487,-0.004566915388487786,-0.014401342105701487,0.04610214101959035
5.1000000000000005,0.31270102929079524,0.01276041213381333,-0.8355783798302795,8.78401858215484,0.002110175958803914,-0.004864427397480736,-0.002416527017697569,-0.38139222567335285,0.004410221209909318,-0.004885452180992431,-0.0003259276785714219,-0.6491592767015749,0.013602506539069296,-0.002061381726652528,0.00493226310208952,-0.5801740890000834,0.04281038932780756,-0.0016162669906271741,0.736876120618026,-1.7535580578574907,-0.002307823036926625,-0.005572468821613826,-0.04825771834273121,0.04642017306475838
5.11,0.3128627241012851,0.0058915026573044885,-0.6587145155224959,8.779668739339181,0.0021088793019468565,-0.0048660881881579686,-0.004732321954629618,-0.4157498153849989,0.004410225784639498,-0.004887908662712043,-8.583527394796423e-06,-0.6324547233961882,0.013611351902840196,-0.002002828413688823,-0.00782682618104089,-0.5804339928475277,0.04286636646777582,0.0019170262623223438,0.361418476252869,-1.7496034004023961,-0.0023650675023542188,-0.006589155382335065,-0.05378638631696363,0.04656188290327107
5.12,0.3129482552977292,0.0006054125306099783,-0.4559595646096015,8.7903154521768,0.0021080865607368032,-0.004842615419237755,-0.006510197424178723,-0.4545968320670256,0.004410186791285086,-0.004889866969384272,0.00046924838213619624,-0.6153087579395853,0.013618207529940187,-0.002038478128536051,-0.0182915602731103,-0.5811635886766755,0.04291985618622751,0.0021235783974529365,0.05556003056480609,-1.7442122035821608,-0.0024031478613773514,-0.007190714131502757,-0.03569044357834422,0.046447077010615324
5.13,0.31296594322234916,-0.003135336764035225,-0.25943919633609436,8.810365858108055,0.002108285905361837,-0.004809815539455799,-0.007924147025397291,-0.48397361507537595,0.004410098158934322,-0.004890072703603461,0.000971080562597683,-0.6010393633966339,0.013624490004649954,-0.0021926607120783506,-0.024235725324452097,-0.5824649443336096,0.042953043391914525,0.0005359159168567399,-0.13973549677235966,-1.7379204605807412,-0.002416066079968809,-0.007180663005879275,-0.0057313285768064385,0.04608076956511391
5.14,0.31292988661577076,-0.005301037480062929,-0.0973118149419089,8.834229894690797,0.0021095394909641874,-0.004796237998095318,-0.00850137318422026,-0.4943136669475881,0.004409974756980152,-0.004887406959811351,0.0012836772003066768,-0.5915849173490222,0.013631679244931243,-0.002466308002241277,-0.02423295935167601,-0.5843184054924803,0.042962272595843475,-0.0014696354180150613,-0.2178057145251682,-1.7312125887041012,-0.0024058503374562116,-0.006627729253234358,0.02192651661590449,0.0455631372805787
5.15,0.3128603586640597,-0.005927325758855013,0.01046190281222714,8.857226861327318,0.002111407942368969,-0.004831585455403937,-0.007300046028413859,-0.4839658345870606,0.0044098572226122885,-0.0048815163312955585,0.0011759683894417045,-0.5874127439534189,0.0136398418271495,-0.0028131563186165804,-0.01825541211651489,-0.5865561756007196,0.042953266662607334,-0.0029836830496793583,-0.20045144971026987,-1.7243850880214857,-0.0023802863161413736,-0.005810641461546377,0.03567349460969398,0.04507332508148754
5.16,0.3127807202061567,-0.00530694665094241,0.055144229525691243,8.87656589882121,0.002113005677051955,-0.004931432820866613,-0.003466756380215667,-0.45871132174230456,0.0044098068921686285,-0.004873431355558396,0.0004937472864525067,-0.5879450278063053,0.013647224457859038,-0.003136406206231377,-0.008005660437598474,-0.5889137609429634,0.04293555478110136,-0.003635936155537277,-0.12572009137722107,-1.7175226495151452,-0.002349340395421534,-0.00509684458021907,0.02998959039700295,0.04482713691902397
5.17,0.31271168639000346,-0.004077064387999188,0.040761254258953335,8.891999885937661,0.002113222261835403,-0.005082336089977742,0.003122216996894058,-0.4279230930942813,0.004409887590451682,-0.004865861973897284,-0.0007355967806369589,-0.5920100646584473,0.013650707835249638,-0.0033177155421251084,0.0033101775334209178,-0.5911501149711267,0.042917959884510186,-0.003489793494596759,-0.03413070000426533,-1.710548174163477,-0.0023219577005085972,-0.004797390619368137,0.006499445903333463,0.045017803595499964
5.18,0.31266526653964943,-0.0031025009848423017,-0.016530141918026563,8.905845903483495,0.002111119438446526,-0.0052328147149477994,0.0115571482174485,-0.3999439425098887,0.00441013562448927,-0.00486283708638418,-0.0022304011259700815,-0.5978820704261703,0.013646761564980807,-0.00327085407212273,0.011885572450176336,-0.5931796937449056,0.0429060567039892,-0.0028529196953835144,0.04236475986306904,-1.7032849620121358,-0.002304028162960889,-0.00505529088787445,-0.027531434539041,0.04575729356717222
5.19,0.3126411061716756,-0.0031727056584159516,-0.09187564856376726,8.922285872897646,0.0021064539812207022,-0.005295641466189596,0.02030126319231649,-0.3793721845109305,0.004410525922024859,-0.00486848546653899,-0.0034610642854704587,-0.6029220506454717,0.013632846079227278,-0.002993617573239324,0.014702310212232795,-0.5951430678398819,0.04290160795433697,-0.0020855676701477407,0.08617653910970242,-1.6954902003754486,-0.002297624849163029,-0.005819164468599559,-0.062437350566786294,0.0470363052848325
5.2,0.3126269929347254,-0.004654566518374076,-0.15780958623083424,8.946080922572202,0.002100196948231879,-0.005164173271359214,0.02842126336371267,-0.3672454852938834,0.00441094876175805,-0.00488506109717783,-0.0037684015940251158,-0.6034178204356909,0.013609034269277483,-0.0025869994489332465,0.010906649532505934,-0.5973763411587375,0.04290339540656214,-0.001460180089535385,0.09431013679841005,-1.6868644128913566,-0.0023013218501212714,-0.006911643381529415,-0.08979358883735954,0.048715606957561226
5.21,0.3126035210013057,-0.007299011046171191,-0.19164639849802448,8.981018323542843,0.0020948572552498637,-0.004739561907910918,0.03733414602581909,-0.3629214711234215,0.004411214703659712,-0.004910748696592014,-0.002592219767867808,-0.5953570211889031,0.013579058470951368,-0.002223062204155433,0.0025364555388520515,-0.6002991995981674,0.04290866195334398,-0.0010982611192029562,0.0744968902756799,-1.677072845621691,-0.0023111315869368586,-0.008141231627904704,-0.10512169716548934,0.050555845351844576
5.22,0.31255129576644103,-0.010329832431447744,-0.1818685525554679,9.028558285496269,0.0020944236588775443,-0.0039575891235175496,0.05232153047928249,-0.36542774422970964,0.004411101641817883,-0.0049382052922953825,0.00024090780107603038,-0.5761505775444958,0.01354998890997237,-0.0020682904787309416,-0.005889471956213134,-0.6042815638614404,0.042914494215023496,-0.0009848932911377655,0.03955340103987866,-1.6658077001378704,-0.00232145620624447,-0.009376489785754156,-0.10876195872298922,0.05228611084910453
5.23,0.3124581731327722,-0.012781442060660267,-0.1311262327068742,9.087173642041979,0.002103859376344226,-0.0027968676163655187,0.08281594807621058,-0.37301420517920514,0.0044104452082933555,-0.004954986778992712,0.004269617325417343,-0.5462795351906299,0.01353051111681191,-0.002196880447578592,-0.008984155041901452,-0.6095442473287729,0.042918753008804406,-0.0010357677278983678,0.002190328518913009,-1.6528813619030993,-0.002325873216647526,-0.010537305370183644,-0.10469144595885174,0.053697838636177476
5.24,0.3123240302169868,-0.013910982891265711,-0.05450520097106113,9.152658068499562,0.002128323714194293,-0.0012501859755674383,0.14061693271454798,-0.38175766119598803,0.004409253077432143,-0.004946747240262856,0.008313407754342323,-0.5095349171882273,0.013528462858226809,-0.0025401317371216386,-0.0028236049784171996,-0.6161125264215374,0.042920451905645564,-0.0011734954627664127,-0.028322395219129815,-1.6382974515940292,-0.0023183309263602784,-0.01153907056247619,-0.09775645745986204,0.0547334121270607
5.25,0.31216146951077167,-0.013484845493597136,0.026482379684129063,9.219269548884368,0.002172583859071774,0.000744918896136496,0.23583770789064717,-0.38541148543615056,0.004407800607841628,-0.0049032474905538305,0.010657598972531067,-0.47131022597407196,0.013548405020705657,-0.0029024616314830905,0.012916028611032214,-0.623810191679333,0.042919691279345674,-0.0013716292084757847,-0.04728090545851747,-1.6222311784981214,-0.002295324234927583,-0.012275404544974625,-0.09033221316034395,0.05553071852235726
5.26,0.31199238270503,-0.011824524608149707,0.09196325839563753,9.28124123894938,0.0022412330946251515,0.00338978476906764,0.3713929940484758,-0.37794212859153753,0.004406649690208815,-0.004825842388559637,0.009542488813215844,-0.43562241178151817,0.01358984310630782,-0.003041394145805015,0.03401340020212306,-0.6322836977221472,0.04291734027389892,-0.0016483241107734733,-0.05396397112444111,-1.6048911411046156,-0.0022584344354211585,-0.012678580613859628,-0.07971570613187283,0.056395367874328674
5.2700000000000005,0.31184174879376136,-0.009615124001129042,0.1306945295821824,9.334164961123324,0.0023400741548130414,0.007062644354459321,0.5378578642024207,-0.3578188730484096,0.0044065367041787595,-0.00473360311984898,0.00387899752901531,-0.40240047551295854,0.01364662441118111,-0.0027784724221995745,0.052595222268910315,-0.641071967997767,0.042914640487423876,-0.0020233056086638914,-0.050234657595871264,-1.5863230888111874,-0.0022154570465152215,-0.01279076970456276,-0.05750533320443295,0.05769866657556091
5.28,0.31173074889868047,-0.00757824508463464,0.1432467711559946,9.375956461222756,0.002478217127086083,0.012243628291530313,0.711062306038391,-0.33109136484055224,0.004408108556473193,-0.004664221244638922,-0.006008203550162147,-0.3667337338467154,0.013707884634874438,-0.0020926808951302945,0.05981852351860002,-0.6497432242806052,0.042912832777560396,-0.002472175774959529,-0.039137786447616556,-1.5662835163286657,-0.002178549004418049,-0.012733280704114672,-0.011733036830841558,0.05972826910985666
5.29,0.31167117657008087,-0.006167816523887811,0.14020105089331247,9.407257532868112,0.0026694443581733135,0.01930046015280621,0.8544138876153095,-0.31053015353820795,0.0044115485374651405,-0.004666106665926965,-0.017889742119554155,-0.32101757817281235,0.013760486082554434,-0.0011518298489176014,0.04951098189843224,-0.6580750724335562,0.04291283727340486,-0.002909641524708358,-0.02392851324849771,-1.5442833410940446,-0.002159273394599664,-0.012542394492018253,0.06841165325648237,0.06253580344635239
5.3,0.31166265650252195,-0.005426610525687602,0.13624118824980294,9.43114521071062,0.002931056834987233,0.028191596325274654,0.9265550106760693,-0.3106466514396724,0.004416212744335036,-0.0047802082613399265,-0.027663473581542183,-0.2593371571968184,0.013792319912883454,-0.0002620782330955191,0.02139254667782875,-0.6661920782840854,0.042914985025938976,-0.0032133637779733592,-0.007563153854617639,-1.5197885464714664,-0.002162103474093499,-0.011980870144343079,0.1865843610456318,0.06582797503759828
5.3100000000000005,0.31169358688202875,-0.0050390976050825,0.1427204066139096,9.452135073978514,0.0032793488877374192,0.03822560217714303,0.8929207020174901,-0.34112431765791257,0.00442046407380223,-0.005014034144875403,-0.030055199486417463,-0.18180455668889905,0.01379549308042214,0.00024656599247120344,-0.017554174308782977,-0.6745698071395232,0.0429188182849121,-0.0032777643333404133,0.007543331513426551,-1.4924578643973543,-0.002179056289266065,-0.010496202607240337,0.3342760245119266,0.06894043152543078
5.32,0.31174566025011874,-0.004513090881036895,0.16192454154765643,9.474789755044064,0.003722738623251332,0.04803847102341254,0.7378348306124716,-0.4019968448155419,0.0044219051966577355,-0.005315175455887512,-0.01991002865264276,-0.09613735295883279,0.013768443902980626,0.00015110050882287838,-0.054483845331658134,-0.6838871379290498,0.042923026335144714,-0.0030711399872298266,0.019677730130396098,-1.4622808351915961,-0.0021881701123393784,-0.007412060772632577,0.48924203443789527,0.07092154696641882
5.33,0.31180028353928574,-0.0033957875462711016,0.185591258029718,9.502517212719141,0.004255313736619884,0.055877953709819954,0.47285345165207904,-0.48280782343865586,0.0044181390061944215,-0.005555397745574561,0.006260823783390843,-0.015079728168606475,0.013716388196193604,-0.0005694984320857516,-0.07483115526261244,-0.6947996563995759,0.042925625349144444,-0.0026628563993333003,0.02793280807128253,-1.4295551331366338,-0.0021574073306261667,-0.002279447946997494,0.6189370226895623,0.07073366203565752
5.34,0.3118442255787785,-0.0014618938106595967,0.1985371632700398,9.53706291264755,0.004854050266245997,0.060133895592614575,0.13772650318339075,-0.5662406739987244,0.004408012824505108,-0.0055365510241671655,0.049001169897541025,0.04935123095644069,0.013650065671876065,-0.0017093876724383545,-0.06809897987530268,-0.7077454365035842,0.042924479048387136,-0.002198167231810857,0.032141630507739584,-1.3947431329081341,-0.002053615654485126,0.0047888145897466,0.6887114190264326,0.0675473120052943
5.3500000000000005,0.31187234547078824,0.0011642468021743587,0.18614160209982072,9.578781505188688,0.005481761971052222,0.05990603293040209,-0.2074325878917734,-0.6349471694190113,0.0043930625089529905,-0.005024135235320026,0.10543966012635372,0.09182376804432059,0.013583267550103624,-0.0028909904014601715,-0.03338171855964136,-0.7228598500286177,0.042918162753300494,-0.0018294967926887366,0.032539855928342895,-1.3583028121691412,-0.0018540135247647027,0.012967425813750441,0.6724560131948902,0.06106096670563503
5.36,0.31188692704609783,0.003998076011654863,0.1427343151175771,9.627320825963011,0.006095331581962595,0.05535492176196506,-0.49713598051217683,-0.6787184533569524,0.004378648585528586,-0.003803363532774108,0.16996069034473124,0.11664237246319956,0.013529850789493578,-0.003690281362000555,0.017517896468299165,-0.7399964999611833,0.04290700225118544,-0.0016447178335852889,0.029230913164768908,-1.3205722679493148,-0.0015560309529027833,0.02084282445020582,0.5619818488976841,0.05173943013283698
5.37,0.3118947479939688,0.0063408620107351064,0.0773062061901696,9.682159746565102,0.006656227199623935,0.047677335031726886,-0.6783223885037104,-0.6985499048244047,0.004374192718073226,-0.0017398435567478185,0.23594605416195683,0.13623657198465267,0.013500852223926529,-0.003806167683648991,0.06101379362606027,-0.7587839196674947,0.04289392307862225,-0.0016361405049469075,0.021755409537234024,-1.281727251774536,-0.001181179611168575,0.026811215588714524,0.37144746359015385,0.040855846398282505
5.38,0.3119037666194325,0.00757247120905133,0.01371936531156344,9.742589245750942,0.0071392928894276775,0.038725465972255534,-0.7253328695761618,-0.7054698329282924,0.0043920997848321975,0.0011795156998858827,0.2980473318547974,0.1662135815117305,0.013501985834506208,-0.0032315193324238,0.06717234190637117,-0.7786448684372386,0.04288462006985417,-0.0017253456993451413,0.009165167474052108,-1.2417778723614314,-0.0007705840064686418,0.02963919815875366,0.1347590174155206,0.030268965664710813
5.39,0.31192117536289504,0.007488055968059962,-0.015454332316634269,9.807093827295315,0.007536945439539345,0.03043812788867487,-0.647113211628711,-0.7148741407950321,0.004445430733093893,0.0048435344753682405,0.3541044157002929,0.21941781384933615,0.013531487794274015,-0.0023676811044430904,0.008616776648133966,-0.7987676148510454,0.04288661260851945,-0.0018239090182529366,-0.009152287293518026,-1.2005635114935929,-0.00037336506742912567,0.028953488030852865,-0.10350576156248925,0.021965609154480214
5.4,0.3119537932566779,0.006519418219227026,0.02014359076364695,9.872484610581413,0.007858197761459011,0.024294682106856664,-0.4841506722961062,-0.7395894263118039,0.004545042747581862,0.009054996453917894,0.4057922756987252,0.301188326531874,0.013578337785289937,-0.002019929421828739,-0.12951816141440325,-0.8180897088831844,0.04290706730002807,-0.0018929709718830414,-0.03204689114779502,-1.1577439218144936,-3.241887867100495e-05,0.025385836644123267,-0.3005687519787314,0.017509991488673844
5.41,0.3120105594512801,0.005714018824999172,0.13664828631519624,9.933368093133033,0.008123710090680072,0.020949017654720525,-0.2959985229366857,-0.785034943463798,0.00469738583184546,0.013601610473450095,0.4574503537868179,0.406984413991315,0.013621383303063051,-0.003235634315622812,-0.3417385424096132,-0.8353769952993859,0.04294983236637464,-0.0019696533078733276,-0.055187299317629654,-1.1128268423399446,0.00022675699782694005,0.02025423779042449,-0.4269285589036241,0.01760630869763424
5.42,0.31210553928508566,0.0064464221075936565,0.32733756257014196,9.982468239182401,0.008358649721454902,0.020120693416831502,-0.14329696708609554,-0.8479122983923144,0.004904045558897166,0.01834438455078906,0.5132610537010193,0.5228883407142328,0.013630384697641464,-0.0070035170366960255,-0.5993613009199646,-0.8494424295190071,0.04301277244435846,-0.0021454335204191483,-0.07053384843405515,-1.0652738551609664,0.00040036901323682887,0.014955352787430539,-0.4729508155132912,0.021949251410536757
5.43,0.3122590334704305,0.009949271241072205,0.5609302047527639,10.011946742721022,0.00858508575781698,0.02075699844213984,-0.06992614057129393,-0.917927894449075,0.00516338684144899,0.02329454823773126,0.5737550876567591,0.6293209772300209,0.013569910482421566,-0.013897632254419173,-0.8543426044739186,-0.8594729908827539,0.043086878807153894,-0.0025007643796986856,-0.06745197941598757,-1.014684551514577,0.0005034141932471276,0.01043107633733898,-0.44871289565903866,0.02941451844642578
5.44,0.31249490841936145,0.01682604281306381,0.7880214416916689,10.01537726183687,0.00881566115124723,0.021419870917426316,-0.09078415102655343,-0.9814152616210201,0.005473647042011082,0.028629777897277615,0.6331790504054324,0.7076942309014772,0.013406092796639442,-0.023789442989315235,-1.0494399285880542,-0.8653548447464235,0.04315831982543813,-0.003016879707169066,-0.03561576567048502,-0.9610056228077563,0.0005620149230341514,0.006983330755122083,-0.37784617795272085,0.038496013464305104
5.45,0.3128342272856019,0.0267292055030912,0.9539257088516657,9.989701303947102,0.009050289932440916,0.0207827206022345,-0.18877680952239995,-1.0257809292316347,0.005836004078998805,0.0346017062041353,0.6792367703089365,0.747988782274392,0.013114832216027054,-0.03574501926275231,-1.1323386562588746,-0.8678553656151883,0.043213381711154276,-0.0034977729149098446,0.031039964594921303,-0.9046745100049044,0.0006043086806292044,0.004446633306007308,-0.28814132809372683,0.04780592501653894
5.46,0.3132876164243716,0.038353262340025326,1.0138301731989119,9.936456885055126,0.009277058919598402,0.018074759208896014,-0.3216194388912302,-1.0435987825484008,0.006255866596943207,0.04134049070813393,0.6959786330886504,0.753509570350383,0.012688956633518213,-0.048168727889057655,-1.069945434891578,-0.868568584254377,0.04324462229522072,-0.003540218607142395,0.1308727048473685,-0.8466047872681591,0.0006525805167835437,0.0025204535151014474,-0.2023872343292511,0.05645276615400242
5.47,0.3138500425479333,0.049791643735806336,0.9453235108383541,9.861786633934669,0.009477190983486187,0.013322933601800717,-0.4359924710960747,-1.0349910814552898,0.006741229104335668,0.048650599314021895,0.6693481396358503,0.7396860503228009,0.012141860886962978,-0.05916405054567227,-0.8587553438117076,-0.8696315521169806,0.04325561456520112,-0.002584137808241472,0.2534381738187742,-0.7879674779439425,0.0007184464686254399,0.0010303040131310903,-0.1322761466116533,0.06418619715217933
5.48,0.3145007529899726,0.05914235451801791,0.7543920663796936,9.775152583015112,0.009632410221910562,0.00731625596329839,-0.4844452185251548,-1.0072597594252573,0.007298427444449703,0.055938308575711845,0.5935928510350478,0.7273070253535067,0.011506284964320625,-0.06699734293227912,-0.5281764463818266,-0.8732977963929167,0.043262123710084276,-5.529911793564474e-05,0.38206046409185196,-0.7298185051616265,0.0008020968410325256,-7.877940765715005e-06,-0.07678141649737244,0.07130072222898756
5.49,0.3152083302875819,0.0651000221918228,0.4734156557727856,9.687205732078663,0.009732159145285128,0.001321925255148527,-0.4398399660177937,-0.9718507697686919,0.007927307929424322,0.06235444224815095,0.476017438257649,0.7342075770990402,0.010828370976456258,-0.07052270231704029,-0.13564572669083624,-0.881463484930936,0.04328911540953207,0.004427433469729009,0.5000197474589642,-0.672731890023874,0.0008955167957333301,-0.0004907527480742439,-0.024915976338566733,0.07837051707969178
5.5,0.31593811225484736,0.0672716068686108,0.1524935454180962,9.607592883818718,0.009778247875894692,-0.0033290641566542617,-0.3031632415933867,-0.9400733786602513,0.00861851833475181,0.06710986162027392,0.3378364448787704,0.7698318988066768,0.010158294908887758,-0.06946189289142636,0.24532847353181442,-0.8952301770283336,0.04336475398833842,0.01086278909096904,0.5985519825358037,-0.6166526395590236,0.0009883208730894141,-0.00035899541936117727,0.038319244645229296,0.08591778970071479
5.51,0.3166587243097622,0.06611908658543318,-0.1525770071163281,9.543415623072168,0.00978549768172303,-0.00563730184904876,-0.1027608006845122,-0.919522209124188,0.009354697687414083,0.06982267639143824,0.21018519642669165,0.8343280667625791,0.009539575028235317,-0.06448212511580799,0.5411315713008343,-0.9146257955064548,0.04351387155085255,0.018817477296937408,0.6834435593875778,-0.5611208146744916,0.0010741219547172078,0.00037564163255530037,0.12460190524560008,0.09411148217476181
5.5200000000000005,0.3173460358499637,0.06262421059036359,-0.39188483292362364,9.498699617416651,0.009778320107388874,-0.005195443330919039,0.11430424586554082,-0.9124717932370872,0.010115350529308597,0.07073936406736558,0.12619509337853616,0.9209073925103924,0.008999719510632415,-0.057048869096416,0.6939579360550975,-0.9386224901160836,0.04375387228171995,0.027611673306528004,0.7767318604593968,-0.5058380337953569,0.001155532772674142,0.0017268236529323928,0.235646749408588,0.1025803622565675
5.53,0.31798464722434383,0.05787219074354723,-0.5297908229775397,9.474774591245996,0.00978441116202249,-0.002265626607064126,0.2958449120759402,-0.9163023373840685,0.010883445048630326,0.07072481548313297,0.11166111341884839,1.0192681208047676,0.008544765625344607,-0.049084280814392006,0.6738043067005187,-0.9654530580486407,0.044095263771113384,0.03671931710785378,0.9113324807328433,-0.4513286232229175,0.0012463957081269683,0.0038476185975546773,0.3593525656369865,0.11041040225708477
5.54,0.31856801795873857,0.05276981085692401,-0.5491368881997095,9.471002348435634,0.009827461233835743,0.002315340887391614,0.39897176830801123,-0.9252210706199278,0.011651172848201207,0.07101328954312745,0.17750446492851535,1.1184971612026404,0.00815904930709617,-0.04253974147287242,0.4838870444921379,-0.9930339137923555,0.04454688519732981,0.04620953589586219,1.1190742601095653,-0.3993232373727616,0.00137018299898073,0.007024152611489243,0.470479158189006,0.11636338058009046
5.55,0.31909855428891404,0.048034330995846704,-0.4518619685933811,9.48513497780794,0.009920948334125327,0.007359388749158795,0.40128460758380213,-0.9324577837376068,0.01242283529050951,0.07282203048645812,0.31663763752280166,1.2087887339120724,0.007809717671803362,-0.03902316921257578,0.15863389488230373,-1.0193079316900144,0.04512326437485687,0.056973907789513126,1.415679885655931,-0.352578899970091,0.001554099904009501,0.011494618823173585,0.536629545389927,0.11929150490022238
5.5600000000000005,0.3195880919704587,0.04437633245457751,-0.2572732787566394,9.513098758469807,0.010064774854168363,0.011620253841179755,0.3059602276771966,-0.9323451191855217,0.013213979003812788,0.07699125509877433,0.506204812595042,1.2820929283972595,0.007454159379011117,-0.03956523756992773,-0.24476855836209588,-1.0425111540190342,0.045849972555090504,0.07054997131993014,1.7883284460280167,-0.3141287087031867,0.0018197482253252241,0.017164352818599612,0.5286713906319304,0.11864542658703336
5.57,0.3200576075850529,0.04260584346266584,0.0010626079389588427,9.54880454021053,0.01024570519684349,0.014089328342424804,0.13973368759266808,-0.921861594830758,0.014047240937516357,0.083783432105997,0.7141849266342363,1.3323132735192058,0.00704822126173286,-0.04452252935665153,-0.6589150091766092,-1.0614532664664662,0.0467635234613651,0.08853727387829062,2.1914270904082898,-0.28625121495254974,0.0021729930130374403,0.023374600300043735,0.432781614617238,0.11490569904608937
5.58,0.3205345650991905,0.04346550136202356,0.27955955098864693,9.584734146646738,0.0104413809244568,0.014227096948014231,-0.05523092857688534,-0.9013268809770283,0.0149465499843841,0.092885581898676,0.9078377853601621,1.3556337648706536,0.006553441841230104,-0.05358011814644136,-1.0197974281646516,-1.0757756990095781,0.04790498212740422,0.11181441392996234,2.5537645186017697,-0.2695931435275973,0.0025971247953820963,0.028904056846257322,0.2598367775274121,0.10973481372488246
5.59,0.3210479232616724,0.047287025216098906,0.5302022122391319,9.613348201119711,0.010626583521052604,0.012074404391539157,-0.2329972065662734,-0.8741137366453212,0.01593196946776097,0.10358426893059587,1.061047975736035,1.3510314883943517,0.005942038154987208,-0.06583714908774484,-1.2785794727613735,-1.0860221853628464,0.04930949959163555,0.13990731012124435,2.796079081177088,-0.26283253196506146,0.0030535542395811735,0.03231429331156522,0.047801971985896245,0.10568288090343142
5.6000000000000005,0.32162249903104195,0.0537367908060638,0.7075442848909738,9.628718349746672,0.01077982628134785,0.008212062736199111,-0.3556744942691018,-0.8454420179530048,0.017017107205171706,0.1150427310543399,1.1583934324703986,1.3206659932443883,0.005198957807551763,-0.07998486236702812,-1.4093115172709378,-1.093406450352833,0.05099587122307751,0.17084285977579455,2.8538705341308845,-0.2630526506536232,0.0034921148860072447,0.03256813565556462,-0.14541547806751554,0.10542589977305504
5.61,0.322274141023549,0.06180965003591956,0.776490576299584,9.627870457465164,0.010888371143649671,0.0035741798819442037,-0.4022138383086571,-0.8205346434983029,0.01820961385987807,0.12657492963666586,1.1953296746738933,1.2700070039314033,0.004321073208033293,-0.09457473390792315,-1.411443867885875,-1.0993351128566766,0.052960053117058856,0.20160919239921968,2.6978122345418485,-0.26665962023506257,0.003868609057421135,0.029636442978667722,-0.25782039770413795,0.11075530771367866
5.62,0.32300611306160903,0.07005343967434456,0.7195015781382216,9.611664650767068,0.010950287401629913,-0.0008319731685698035,-0.37204362794650986,-0.8027162282642327,0.019513545915704558,0.13779556773574347,1.175502879418336,1.2077689276206085,0.0033143676262289016,-0.10832682622289601,-1.3071878790883493,-1.104892286998199,0.055174600732023446,0.22903445343523648,2.344524257086325,-0.27040570925940427,0.004162780949762183,0.02474939636716912,-0.2433573045137755,0.1217400126266514
5.63,0.32380726784799435,0.07694358551360472,0.5415314631154726,9.585028606585462,0.010973143464806368,-0.004205437059433606,-0.2829778168393904,-0.792240769247063,0.020931388406244752,0.14857980989663178,1.1071597197011749,1.145486635669578,0.0021903832316823883,-0.12038451769407951,-1.1348243543369048,-1.110526227669587,0.057593615930340146,0.2507005123720655,1.8536927751021242,-0.2720985135952432,0.004388683033846956,0.020118276331536154,-0.0891427696708961,0.13647752102510857
5.64,0.3246533234436275,0.08129781703357537,0.2712747662321347,9.556286438195194,0.010970121293598522,-0.0061333697488168085,-0.16445119326134225,-0.7864132966126507,0.02246398057810496,0.15888095074662628,1.0005256846751325,1.0962813156003413,0.0009631204496322275,-0.1304267525237116,-0.9397413187438218,-1.1160691602420356,0.06016146175779492,0.2655468145545004,1.3123198941492145,-0.27084831633279377,0.00459245631661018,0.01821023191360565,0.17693145628950005,0.15160454461461237
5.65,0.32551167266485886,0.082554288150203,-0.04199856482036474,9.535637070717026,0.010955214060210607,-0.006626554664232004,-0.048341015759729926,-0.7809779593215607,0.02410821686155188,0.16853989150795848,0.8670109821700069,1.0725237995105708,-0.00035297867473055815,-0.13861376076586035,-0.7651700215596002,-1.1210184101516298,0.06282317845241381,0.27400812620789344,0.8113737588154043,-0.2669499455033065,0.00483785183107856,0.020841293343077362,0.49207488952156636,0.16339925678392495
5.66,0.3263481324878327,0.08077749983197717,-0.33590448909863424,9.533186468165384,0.01093925345571264,-0.006027545027915279,0.03989137050455104,-0.7721273061545636,0.025854163820756337,0.17721341199989957,0.7197554088735892,1.0825567428794185,-0.0017441909482120582,-0.14542456323027042,-0.6443039754631791,-1.1248591675581718,0.06553414008564735,0.2777086665204451,0.4225684453374688,-0.2615340480435391,0.005184734369804346,0.028441380938196936,0.7769510721351499,0.16905982748219994
5.67,0.32713355812092987,0.07647696049970189,-0.5458396765736427,9.556832606995817,0.010927887867162447,-0.004851282037349025,0.08733314364512573,-0.7581131809776688,0.027683976077707364,0.18446765367904921,0.5740756496810299,1.127182130716611,-0.0031986486937004848,-0.15148004117857086,-0.5949122239520905,-1.1272431175879043,0.06826611941549397,0.27884783877617214,0.18258987757508244,-0.2560638645408903,0.005668821246832785,0.039834132901809115,0.9606741973095781,0.16766709317656314
5.68,0.32784973040858034,0.07048541260159535,-0.6177986753690318,9.610069024856802,0.010921751376135727,-0.003617670902655464,0.09558322972099403,-0.7395823919750859,0.02957424122204124,0.18998424729190555,0.44634641926458235,1.197333627499006,-0.004708025933426726,-0.15741051510653647,-0.6169498672513779,-1.1280045675877386,0.0710079471618943,0.2794918808670111,0.08910021810969468,-0.2517783999875868,0.006290960813006971,0.052688821661981515,1.0038134181799494,0.1604399898108979
5.69,0.32849485391506733,0.06401629220799425,-0.5209670534145954,9.690021378709384,0.010918335481565213,-0.0027128794190558023,0.07837509453922391,-0.7185070732159925,0.03150154558236021,0.19376032066964305,0.3507652632925609,1.2748530182918032,-0.006269410509387057,-0.1637652770987949,-0.6932232148846271,-1.1271185238902692,0.07376149990919456,0.28102284120742793,0.10855372462241367,-0.24927262740860429,0.007020464494649755,0.06445735922682003,0.9112016351844265,0.1501636068391223
5.7,0.3290878342063073,0.05873576326937926,-0.25737827602273977,9.78661771567789,0.01091467425994232,-0.002296787640931633,0.05590644441905602,-0.6964194590972461,0.03344906317463116,0.19618685237029224,0.29485278057669684,1.337551897182885,-0.007886295841871605,-0.17093343033382452,-0.7929226390928862,-1.124684267283003,0.0765358002818809,0.2839307577028663,0.19189767693027776,-0.24838924613143698,0.007810407941199465,0.07332701443561217,0.729887619205964,0.14004095332585229
5.71,0.32966861358753097,0.05656636679864877,0.13424334075751715,9.883962722332685,0.0109098731709564,-0.0022686780183566765,0.047779939367602,-0.6729251128357715,0.03541097275366576,0.19795548806497146,0.27568684248896513,1.3673497927698115,-0.0095677338314829,-0.17906063417439838,-0.8776732156494843,-1.1209370632045061,0.07934183624851691,0.28796820601470513,0.2920093120307368,-0.2484257455288371,0.00861720516262093,0.07874290927204487,0.5328283652793496,0.13249826539475265
5.72,0.33029169115754686,0.05912583612679462,0.5826469998699975,9.96422945725946,0.010906676010857631,-0.002301676801284706,0.06675998289461302,-0.6451357010462133,0.037392285321705715,0.19982270091392884,0.27911285748518,1.3577001898266063,-0.011325358964031043,-0.1879718885677007,-0.9094951519252807,-1.1162646377109307,0.08218901974762745,0.29252199088350916,0.37686745488608203,-0.2484894848510357,0.009415912755383431,0.08137111784010287,0.3938802768987579,0.12845557376244376
5.73,0.3310127573030156,0.06703729614861903,0.9966923843604926,10.012963534082898,0.010911603183607822,-0.001943768509275931,0.11523646399438443,-0.608239367788632,0.03940390174230971,0.20231790134427127,0.28327354489513207,1.316214845473261,-0.013168760291179015,-0.19712881796812626,-0.8596228150610353,-1.1112158593851345,0.08508300907747275,0.2970012567482076,0.43468346321980095,-0.24781464447539123,0.010206630261366876,0.08269862870852747,0.3625452958143883,0.12726226197363255
5.74,0.33187273558042735,0.07952277493883207,1.284508034131604,10.023614142710276,0.010933660233198635,-0.0007610643539041854,0.18543671096743086,-0.5571935124456254,0.041455141460294616,0.205516112014687,0.2660606912363314,1.2610881144279753,-0.015100378121015336,-0.205666460217868,-0.7165938690824587,-1.106476205195555,0.08802478627677576,0.30110220997675086,0.4705110447460123,-0.24595735004099387,0.01101224198454955,0.08453298821018651,0.44688100957692595,0.12714416631581651
5.75,0.3328859385114633,0.09453924743445519,1.3749627444337882,9.999332953076125,0.010982145124142155,0.0015202836369408149,0.2632535554167205,-0.4892792199012608,0.04354726713773644,0.2089916074567335,0.21422918718108291,1.2134698288152208,-0.0171116096101551,-0.2125540459644689,-0.49164659386271015,-1.1027833754577228,0.0910114818335058,0.30490170817695267,0.4969452486320733,-0.2428586710144351,0.011870051690045997,0.08849999682963676,0.6101777282158921,0.12587391975020923
5.76,0.33403710898372296,0.10937434271427261,1.2360685612250977,9.951550838890968,0.011064520978889426,0.004925931417117202,0.33437504782273375,-0.4067467890608973,0.0456709948995204,0.2120006802674836,0.13076404501864972,1.1896852803993867,-0.01918180659532616,-0.21687657319333475,-0.21955691634894195,-1.1008085397605143,0.09403907976719425,0.30877928472869576,0.5233557311189103,-0.2387566981853368,0.01281972271058053,0.09552665469133087,0.7824655240872589,0.12146230770220126
5.7700000000000005,0.3352872191662483,0.12138515767898234,0.8853565995329271,9.896453914291005,0.011185388033780896,0.00924021427333438,0.3905637729434293,-0.3182153344912877,0.04780894018177087,0.21382858663209361,0.03723491478849764,1.196462401932967,-0.021281147119215582,-0.2181554943641928,0.04621312773872359,-1.101065938847806,0.09710573603309829,0.313189192661861,0.548181872063181,-0.23395017036811291,0.01388998725118215,0.1054083693613968,0.8831003878912221,0.11276115994448976
5.78,0.3365839008685665,0.1285859184801829,0.3891493155089913,9.851121819594848,0.011347062989216372,0.014111004807632986,0.43373655311447645,-0.23755539440698384,0.04994169170004743,0.21415130751473535,-0.03062388205908026,1.230184942882205,-0.023377172994648473,-0.21658489820753626,0.24386421853107382,-1.103861934998082,0.10021352332105445,0.3183627562164449,0.557301668121363,-0.22852993581897954,0.015087695126985221,0.1166927745414563,0.8470801457247772,0.09984926113232973
5.79,0.3378720324260875,0.1299787548401315,-0.14964513078381744,9.830481171707811,0.011551361937456138,0.019210511374857093,0.47607173757831217,-0.1801550349525557,0.05205504573239238,0.2132647795793373,-0.03349909518215984,1.2791963832064328,-0.025443570513764956,-0.21309288190272302,0.3173420106898256,-1.1092127141789052,0.10336727916365919,0.32409286491880784,0.5290441518365732,-0.2222660092111055,0.0163928797898752,0.12701120856484766,0.6465063067150532,0.08406974737089047
5.8,0.3391027016508033,0.1256904962495196,-0.6128534831646584,9.845063979786485,0.011801547835846705,0.02439218074845348,0.5356202363109955,-0.15814168955293753,0.05414608179451163,0.21210367274612243,0.05773312845761451,1.3274955657750243,-0.027468895568261858,-0.20921126276674862,0.23104302779659397,-1.1166727061373882,0.10657119257455784,0.32973499510460064,0.44394790127327577,-0.2147325726144618,0.017761495670148186,0.1337646173482696,0.30020900028742276,0.06771381712640737
5.8100000000000005,0.3402412992408795,0.11699709359567577,-0.8929621307934846,9.899012013095984,0.01210354780400428,0.029793592874881168,0.628478749527963,-0.17684867030837895,0.05622648366967574,0.2120429865854184,0.24951682697105462,1.3587979564356976,-0.029462582549744782,-0.20679302745131736,-0.01862002498921311,-1.1251477088515833,0.10982491275871636,0.33442553520098417,0.29567721506514344,-0.20555438999188205,0.019135046888858552,0.13496220429632555,-0.1314469294563221,0.053476332732709436
5.82,0.34127521397696514,0.10620518087454452,-0.9179493419266109,9.988371681513598,0.01246623336303741,0.03584432527628409,0.759998539799512,-0.2338453547052814,0.058322199355062006,0.21451977101613715,0.5188465297154808,1.360633738187098,-0.03145592414305744,-0.20763622671260112,-0.398226533026279,-1.132894333186022,0.11312059403309323,0.3373801271670645,0.0990460332123477,-0.19456628950909435,0.020454698322224494,0.12996449429222792,-0.5644748213659959,0.043815999894247636
5.83,0.3422192013824388,0.09628003008512079,-0.6692904295740915,10.100684833436485,0.012901060957765708,0.04314351656372462,0.918233212409466,-0.3202044175577381,0.06046919349091078,0.22055828416640558,0.8150778556852294,1.3278702968826273,-0.03349698320350773,-0.21307298651222087,-0.8410188694211632,-1.137875771019296,0.1164416227717095,0.33812260621544327,-0.10810221070782537,-0.1817872533927214,0.021675800350308302,0.11979924927826582,-0.9154608609706734,0.0403431013574388
5.84,0.34311525848691493,0.09020517045778582,-0.18857301895052367,10.216888541191052,0.013421252631238853,0.05220621175902453,1.0725180922841961,-0.42291130784885145,0.06270591623670663,0.23034486389025535,1.0705213938856903,1.264345259608805,-0.03564035021956471,-0.22359108538293287,-1.2592332024479502,-1.1384282139536432,0.11976399801215037,0.3366110852300131,-0.27065371233789864,-0.16732083540653075,0.02277749823522733,0.10679792763055895,-1.1236686639103992,0.043434333181981415
